Preset 499 RAW/Angel 1.lrtemplate
s = {
	id = "2412BC06-0A7D-4387-9C1F-A34D6EDA173E",
	internalName = "Angel 1",
	title = "Angel 1",
	type = "Develop",
	value = {
		settings = {
			AutoBrightness = false,
			AutoContrast = false,
			AutoExposure = false,
			AutoShadows = false,
			BlueHue = 0,
			BlueSaturation = 0,
			Brightness = 19,
			CameraProfile = "Embedded",
			ChromaticAberrationB = 0,
			ChromaticAberrationR = 0,
			Clarity = 69,
			ColorNoiseReduction = 0,
			Contrast = 30,
			ConvertToGrayscale = false,
			Defringe = 0,
			EnableCalibration = true,
			EnableColorAdjustments = true,
			EnableDetail = true,
			EnableGradientBasedCorrections = true,
			EnableGrayscaleMix = true,
			EnableSplitToning = true,
			EnableVignettes = true,
			Exposure = 0.47,
			FillLight = 13,
			GreenHue = 0,
			GreenSaturation = 0,
			HighlightRecovery = 22,
			HueAdjustmentAqua = 0,
			HueAdjustmentBlue = 0,
			HueAdjustmentGreen = -26,
			HueAdjustmentMagenta = 0,
			HueAdjustmentOrange = 0,
			HueAdjustmentPurple = 0,
			HueAdjustmentRed = 0,
			HueAdjustmentYellow = 11,
			LuminanceAdjustmentAqua = 0,
			LuminanceAdjustmentBlue = 0,
			LuminanceAdjustmentGreen = -29,
			LuminanceAdjustmentMagenta = 0,
			LuminanceAdjustmentOrange = 0,
			LuminanceAdjustmentPurple = 0,
			LuminanceAdjustmentRed = 0,
			LuminanceAdjustmentYellow = -1,
			LuminanceSmoothing = 0,
			ParametricDarks = -40,
			ParametricHighlightSplit = 75,
			ParametricHighlights = -22,
			ParametricLights = 17,
			ParametricMidtoneSplit = 50,
			ParametricShadowSplit = 25,
			ParametricShadows = -24,
			PostCropVignetteAmount = 0,
			PostCropVignetteFeather = 50,
			PostCropVignetteMidpoint = 50,
			PostCropVignetteRoundness = 0,
			RedHue = 0,
			RedSaturation = 0,
			Saturation = -59,
			SaturationAdjustmentAqua = 0,
			SaturationAdjustmentBlue = 0,
			SaturationAdjustmentGreen = 0,
			SaturationAdjustmentMagenta = 0,
			SaturationAdjustmentOrange = -22,
			SaturationAdjustmentPurple = 0,
			SaturationAdjustmentRed = -18,
			SaturationAdjustmentYellow = -57,
			ShadowTint = 0,
			Shadows = 10,
			SharpenDetail = 25,
			SharpenEdgeMasking = 0,
			SharpenRadius = 1,
			Sharpness = 0,
			SplitToningBalance = 86,
			SplitToningHighlightHue = 237,
			SplitToningHighlightSaturation = 0,
			SplitToningShadowHue = 39,
			SplitToningShadowSaturation = 51,
			Temperature = 13114,
			Tint = -1,
			ToneCurve = {
				0,
				0,
				255,
				255,
			},
			ToneCurveName = "Linear",
			Vibrance = -3,
			VignetteAmount = -100,
			VignetteMidpoint = 50,
			WhiteBalance = "Custom",
		},
		uuid = "953B4635-1B26-4F63-A172-D090E0CFFB86",
	},
	version = 0,
}
