Preset 499 RAW/Angel11.lrtemplate
s = {
	id = "698C5587-879C-4F91-A0C0-E09C1D110E1A",
	internalName = "Angel11",
	title = "Angel11",
	type = "Develop",
	value = {
		settings = {
			AutoBrightness = false,
			AutoContrast = false,
			AutoExposure = false,
			AutoShadows = false,
			BlueHue = 0,
			BlueSaturation = 0,
			Brightness = 54,
			CameraProfile = "Adobe Standard",
			ChromaticAberrationB = 0,
			ChromaticAberrationR = 0,
			Clarity = 77,
			ColorNoiseReduction = 25,
			Contrast = -2,
			ConvertToGrayscale = false,
			Defringe = 0,
			EnableCalibration = true,
			EnableColorAdjustments = true,
			EnableDetail = true,
			EnableGradientBasedCorrections = true,
			EnableGrayscaleMix = true,
			EnableSplitToning = true,
			EnableVignettes = true,
			Exposure = 0.43,
			FillLight = 0,
			GreenHue = 0,
			GreenSaturation = 0,
			HighlightRecovery = 0,
			HueAdjustmentAqua = 0,
			HueAdjustmentBlue = 50,
			HueAdjustmentGreen = 35,
			HueAdjustmentMagenta = 45,
			HueAdjustmentOrange = 0,
			HueAdjustmentPurple = 45,
			HueAdjustmentRed = 0,
			HueAdjustmentYellow = 0,
			LuminanceAdjustmentAqua = 0,
			LuminanceAdjustmentBlue = 0,
			LuminanceAdjustmentGreen = 0,
			LuminanceAdjustmentMagenta = 0,
			LuminanceAdjustmentOrange = 0,
			LuminanceAdjustmentPurple = 0,
			LuminanceAdjustmentRed = 0,
			LuminanceAdjustmentYellow = 0,
			LuminanceSmoothing = 0,
			ParametricDarks = -15,
			ParametricHighlightSplit = 75,
			ParametricHighlights = 15,
			ParametricLights = 20,
			ParametricMidtoneSplit = 50,
			ParametricShadowSplit = 31,
			ParametricShadows = -15,
			PostCropVignetteAmount = -1,
			PostCropVignetteFeather = 50,
			PostCropVignetteMidpoint = 50,
			PostCropVignetteRoundness = 0,
			RedHue = 0,
			RedSaturation = 0,
			Saturation = -86,
			SaturationAdjustmentAqua = 0,
			SaturationAdjustmentBlue = -63,
			SaturationAdjustmentGreen = 33,
			SaturationAdjustmentMagenta = 0,
			SaturationAdjustmentOrange = 0,
			SaturationAdjustmentPurple = -62,
			SaturationAdjustmentRed = 35,
			SaturationAdjustmentYellow = 38,
			ShadowTint = 0,
			Shadows = 7,
			SharpenDetail = 25,
			SharpenEdgeMasking = 0,
			SharpenRadius = 1,
			Sharpness = 25,
			SplitToningBalance = -59,
			SplitToningHighlightHue = 0,
			SplitToningHighlightSaturation = 15,
			SplitToningShadowHue = 31,
			SplitToningShadowSaturation = 1,
			Temperature = 9498,
			Tint = 71,
			ToneCurve = {
				0,
				0,
				32,
				22,
				64,
				56,
				128,
				128,
				192,
				196,
				255,
				255,
			},
			ToneCurveName = "Medium Contrast",
			Vibrance = -71,
			VignetteAmount = 3,
			VignetteMidpoint = 50,
			WhiteBalance = "Custom",
		},
		uuid = "FC289F4D-16E9-43F7-A8C0-2D248F124A22",
	},
	version = 0,
}
