Preset 499 RAW/Beauty 4.lrtemplate
s = {
	id = "B4084B41-B1DA-423A-AFD5-3DBAB4EE7C36",
	internalName = "Beauty 4",
	title = "Beauty 4",
	type = "Develop",
	value = {
		settings = {
			AutoBrightness = false,
			AutoContrast = false,
			AutoExposure = false,
			AutoShadows = false,
			BlueHue = 0,
			BlueSaturation = 0,
			Brightness = 83,
			CameraProfile = "Adobe Standard",
			ChromaticAberrationB = 0,
			ChromaticAberrationR = 0,
			Clarity = -20,
			ColorNoiseReduction = 25,
			Contrast = 33,
			ConvertToGrayscale = false,
			Defringe = 0,
			EnableCalibration = true,
			EnableColorAdjustments = true,
			EnableDetail = true,
			EnableGradientBasedCorrections = true,
			EnableGrayscaleMix = true,
			EnableSplitToning = true,
			EnableVignettes = true,
			Exposure = 0.97,
			FillLight = 0,
			GreenHue = 0,
			GreenSaturation = 0,
			HighlightRecovery = 0,
			HueAdjustmentAqua = 0,
			HueAdjustmentBlue = 0,
			HueAdjustmentGreen = 0,
			HueAdjustmentMagenta = 7,
			HueAdjustmentOrange = 0,
			HueAdjustmentPurple = 0,
			HueAdjustmentRed = 3,
			HueAdjustmentYellow = 0,
			LuminanceAdjustmentAqua = 0,
			LuminanceAdjustmentBlue = 0,
			LuminanceAdjustmentGreen = 0,
			LuminanceAdjustmentMagenta = 0,
			LuminanceAdjustmentOrange = 0,
			LuminanceAdjustmentPurple = 0,
			LuminanceAdjustmentRed = 0,
			LuminanceAdjustmentYellow = 0,
			LuminanceSmoothing = 28,
			ParametricDarks = -11,
			ParametricHighlightSplit = 75,
			ParametricHighlights = -1,
			ParametricLights = 38,
			ParametricMidtoneSplit = 50,
			ParametricShadowSplit = 25,
			ParametricShadows = -18,
			PostCropVignetteAmount = 17,
			PostCropVignetteFeather = 50,
			PostCropVignetteMidpoint = 50,
			PostCropVignetteRoundness = 0,
			RedHue = 0,
			RedSaturation = 0,
			Saturation = -94,
			SaturationAdjustmentAqua = 0,
			SaturationAdjustmentBlue = -24,
			SaturationAdjustmentGreen = -62,
			SaturationAdjustmentMagenta = -36,
			SaturationAdjustmentOrange = -36,
			SaturationAdjustmentPurple = 0,
			SaturationAdjustmentRed = -49,
			SaturationAdjustmentYellow = 0,
			ShadowTint = 0,
			Shadows = 18,
			SharpenDetail = 25,
			SharpenEdgeMasking = 0,
			SharpenRadius = 1,
			Sharpness = 25,
			SplitToningBalance = -53,
			SplitToningHighlightHue = 33,
			SplitToningHighlightSaturation = 21,
			SplitToningShadowHue = 35,
			SplitToningShadowSaturation = 22,
			Temperature = 2971,
			Tint = 7,
			ToneCurve = {
				0,
				0,
				32,
				22,
				64,
				56,
				128,
				128,
				192,
				196,
				255,
				255,
			},
			ToneCurveName = "Medium Contrast",
			Vibrance = 18,
			VignetteAmount = 24,
			VignetteMidpoint = 50,
			WhiteBalance = "Custom",
		},
		uuid = "2825F52D-824B-4ADF-82E1-3BA6FCFCEF8B",
	},
	version = 0,
}
