Preset 499 RAW/Glamour 1.lrtemplate
s = {
	id = "E86C5C8F-12F2-4147-A0D7-7E9FE64A4BDD",
	internalName = "Glamour 1",
	title = "Glamour 1",
	type = "Develop",
	value = {
		settings = {
			AutoBrightness = false,
			AutoContrast = false,
			AutoExposure = false,
			AutoShadows = false,
			BlueHue = 0,
			BlueSaturation = 0,
			Brightness = 36,
			CameraProfile = "Embedded",
			ChromaticAberrationB = 0,
			ChromaticAberrationR = 0,
			Clarity = 11,
			ColorNoiseReduction = 0,
			Contrast = 65,
			ConvertToGrayscale = false,
			Defringe = 0,
			EnableCalibration = true,
			EnableColorAdjustments = true,
			EnableDetail = true,
			EnableGradientBasedCorrections = true,
			EnableGrayscaleMix = true,
			EnableSplitToning = true,
			EnableVignettes = true,
			Exposure = 0.19,
			FillLight = 8,
			GradientBasedCorrections = {
				{
					CorrectionActive = true,
					CorrectionAmount = 1,
					CorrectionID = "AF5A514D-6236-41CA-8C59-23EA78B6BF82",
					CorrectionMasks = {
						{
							FullX = 0.547466,
							FullY = -0.261168,
							MaskID = "93C90D46-2867-43B6-A88F-DCCD1F8421A2",
							MaskValue = 1,
							What = "Mask/Gradient",
							ZeroX = 0.515452,
							ZeroY = 0.375626,
						},
					},
					CorrectionReferenceX = 0.531459,
					CorrectionReferenceY = 0.057229,
					LocalBrightness = 0,
					LocalClarity = -1,
					LocalContrast = 0,
					LocalExposure = 0.291,
					LocalSaturation = -0.745,
					LocalSharpness = 0,
					LocalToningHue = 240,
					LocalToningSaturation = 0,
					What = "Correction",
				},
			},
			GreenHue = 0,
			GreenSaturation = 0,
			HighlightRecovery = 10,
			HueAdjustmentAqua = 0,
			HueAdjustmentBlue = 0,
			HueAdjustmentGreen = 0,
			HueAdjustmentMagenta = 0,
			HueAdjustmentOrange = 0,
			HueAdjustmentPurple = 0,
			HueAdjustmentRed = 0,
			HueAdjustmentYellow = 0,
			LuminanceAdjustmentAqua = 0,
			LuminanceAdjustmentBlue = 0,
			LuminanceAdjustmentGreen = 0,
			LuminanceAdjustmentMagenta = 0,
			LuminanceAdjustmentOrange = 0,
			LuminanceAdjustmentPurple = 0,
			LuminanceAdjustmentRed = 0,
			LuminanceAdjustmentYellow = 0,
			LuminanceSmoothing = 0,
			ParametricDarks = -12,
			ParametricHighlightSplit = 75,
			ParametricHighlights = 21,
			ParametricLights = 30,
			ParametricMidtoneSplit = 50,
			ParametricShadowSplit = 25,
			ParametricShadows = 5,
			PostCropVignetteAmount = -18,
			PostCropVignetteFeather = 44,
			PostCropVignetteMidpoint = 61,
			PostCropVignetteRoundness = 100,
			RedHue = 0,
			RedSaturation = 0,
			Saturation = -5,
			SaturationAdjustmentAqua = 0,
			SaturationAdjustmentBlue = 0,
			SaturationAdjustmentGreen = 0,
			SaturationAdjustmentMagenta = 0,
			SaturationAdjustmentOrange = 0,
			SaturationAdjustmentPurple = 0,
			SaturationAdjustmentRed = 0,
			SaturationAdjustmentYellow = 0,
			ShadowTint = 0,
			Shadows = 13,
			SharpenDetail = 25,
			SharpenEdgeMasking = 7,
			SharpenRadius = 1.4,
			Sharpness = 0,
			SplitToningBalance = 0,
			SplitToningHighlightHue = 0,
			SplitToningHighlightSaturation = 0,
			SplitToningShadowHue = 0,
			SplitToningShadowSaturation = 0,
			Temperature = 6757,
			Tint = 10,
			ToneCurve = {
				0,
				0,
				255,
				255,
			},
			ToneCurveName = "Linear",
			Vibrance = -46,
			VignetteAmount = -1,
			VignetteMidpoint = 49,
			WhiteBalance = "Custom",
		},
		uuid = "475D004F-ACEB-4298-87A2-E2B2E95408FB",
	},
	version = 0,
}
