onOne Vintage/Vintage-Retro Warm.lrtemplate
s = {
	id = "C7C5A6BC-41CB-4F21-9DBB-C926E8552968",
	internalName = "Vintage-Retro Warm",
	title = "Vintage-Retro Warm",
	type = "Develop",
	value = {
		settings = {
			Clarity2012 = 19,
			Contrast2012 = 25,
			ConvertToGrayscale = false,
			EnableColorAdjustments = true,
			Highlights2012 = 11,
			HueAdjustmentAqua = 0,
			HueAdjustmentBlue = 0,
			HueAdjustmentGreen = 0,
			HueAdjustmentMagenta = 0,
			HueAdjustmentOrange = 0,
			HueAdjustmentPurple = 0,
			HueAdjustmentRed = 0,
			HueAdjustmentYellow = 0,
			LuminanceAdjustmentAqua = 0,
			LuminanceAdjustmentBlue = 0,
			LuminanceAdjustmentGreen = 0,
			LuminanceAdjustmentMagenta = 0,
			LuminanceAdjustmentOrange = 0,
			LuminanceAdjustmentPurple = 0,
			LuminanceAdjustmentRed = 0,
			LuminanceAdjustmentYellow = 0,
			ParametricDarks = -9,
			ParametricHighlightSplit = 75,
			ParametricHighlights = 0,
			ParametricLights = 6,
			ParametricMidtoneSplit = 50,
			ParametricShadowSplit = 25,
			ParametricShadows = 0,
			ProcessVersion = "6.7",
			Saturation = 68,
			SaturationAdjustmentAqua = -70,
			SaturationAdjustmentBlue = -66,
			SaturationAdjustmentGreen = -64,
			SaturationAdjustmentMagenta = -66,
			SaturationAdjustmentOrange = -47,
			SaturationAdjustmentPurple = -62,
			SaturationAdjustmentRed = -70,
			SaturationAdjustmentYellow = -67,
			Temperature = 5663,
			Tint = 3,
			ToneCurveName2012 = "Medium Contrast",
			ToneCurvePV2012 = {
				0,
				0,
				32,
				22,
				64,
				56,
				128,
				128,
				192,
				196,
				255,
				255,
			},
			ToneCurvePV2012Blue = {
				0,
				0,
				255,
				255,
			},
			ToneCurvePV2012Green = {
				0,
				0,
				255,
				255,
			},
			ToneCurvePV2012Red = {
				0,
				0,
				255,
				255,
			},
			Vibrance = -5,
			WhiteBalance = "Custom",
			Whites2012 = 45,
		},
		uuid = "166806B9-7D7E-4A01-AC9C-DBC25DCBC653",
	},
	version = 0,
}
