Black and White/B&W Landscape (Green).lrtemplate
s = {
	id = "D0B1D719-E61A-465C-B2DE-CF7F72B2BDBA",
	internalName = "B&W Landscape (With a lot of green)",
	title = "B&W Landscape (Green)",
	type = "Develop",
	value = {
		settings = {
			ConvertToGrayscale = false,
			EnableColorAdjustments = true,
			EnableGrayscaleMix = true,
			EnableVignettes = true,
			HueAdjustmentAqua = 0,
			HueAdjustmentBlue = 0,
			HueAdjustmentGreen = 0,
			HueAdjustmentMagenta = 0,
			HueAdjustmentOrange = 0,
			HueAdjustmentPurple = 0,
			HueAdjustmentRed = 0,
			HueAdjustmentYellow = 0,
			LuminanceAdjustmentAqua = 0,
			LuminanceAdjustmentBlue = -73,
			LuminanceAdjustmentGreen = 56,
			LuminanceAdjustmentMagenta = 0,
			LuminanceAdjustmentOrange = -50,
			LuminanceAdjustmentPurple = 0,
			LuminanceAdjustmentRed = 0,
			LuminanceAdjustmentYellow = 71,
			PostCropVignetteAmount = 0,
			PostCropVignetteFeather = 50,
			PostCropVignetteMidpoint = 50,
			PostCropVignetteRoundness = 0,
			Saturation = 0,
			SaturationAdjustmentAqua = -100,
			SaturationAdjustmentBlue = -100,
			SaturationAdjustmentGreen = -100,
			SaturationAdjustmentMagenta = -100,
			SaturationAdjustmentOrange = -100,
			SaturationAdjustmentPurple = -100,
			SaturationAdjustmentRed = -100,
			SaturationAdjustmentYellow = -100,
			Vibrance = 0,
			VignetteAmount = -23,
			VignetteMidpoint = 46,
		},
		uuid = "4248F57E-5996-4492-A5AC-7CBDC29451AF",
	},
	version = 0,
}
