Black and White/B&W Landscape (For Beaches).lrtemplate
s = {
	id = "B762DE33-4A2F-461A-8F22-D62EF759AE47",
	internalName = "B&W Landscape (For Beaches)",
	title = "B&W Landscape (For Beaches)",
	type = "Develop",
	value = {
		settings = {
			ConvertToGrayscale = false,
			EnableColorAdjustments = true,
			EnableGrayscaleMix = true,
			EnableVignettes = true,
			HueAdjustmentAqua = 0,
			HueAdjustmentBlue = 0,
			HueAdjustmentGreen = 0,
			HueAdjustmentMagenta = 0,
			HueAdjustmentOrange = 0,
			HueAdjustmentPurple = 0,
			HueAdjustmentRed = 0,
			HueAdjustmentYellow = 0,
			LuminanceAdjustmentAqua = -48,
			LuminanceAdjustmentBlue = -92,
			LuminanceAdjustmentGreen = 0,
			LuminanceAdjustmentMagenta = 0,
			LuminanceAdjustmentOrange = 54,
			LuminanceAdjustmentPurple = 58,
			LuminanceAdjustmentRed = 31,
			LuminanceAdjustmentYellow = 54,
			PostCropVignetteAmount = 0,
			PostCropVignetteFeather = 50,
			PostCropVignetteMidpoint = 50,
			PostCropVignetteRoundness = 0,
			Saturation = 0,
			SaturationAdjustmentAqua = -100,
			SaturationAdjustmentBlue = -100,
			SaturationAdjustmentGreen = -100,
			SaturationAdjustmentMagenta = -100,
			SaturationAdjustmentOrange = -100,
			SaturationAdjustmentPurple = -100,
			SaturationAdjustmentRed = -100,
			SaturationAdjustmentYellow = -100,
			Vibrance = 0,
			VignetteAmount = 0,
			VignetteMidpoint = 50,
		},
		uuid = "32F97293-67E0-47DE-A670-F6D4CC014C8A",
	},
	version = 0,
}
