onOne Glow/Glow-Bright & Flattened.lrtemplate
s = {
	id = "24D3AC4D-BA93-49AB-B030-0DA3DF8DDA4C",
	internalName = "Glow-Bright & Flattened",
	title = "Glow-Bright & Flattened",
	type = "Develop",
	value = {
		settings = {
			Blacks2012 = 68,
			Clarity2012 = -71,
			ColorNoiseReduction = 100,
			ColorNoiseReductionDetail = 50,
			Contrast2012 = 41,
			ConvertToGrayscale = false,
			EnableDetail = true,
			Highlights2012 = -45,
			LuminanceNoiseReductionContrast = 0,
			LuminanceNoiseReductionDetail = 50,
			LuminanceSmoothing = 100,
			ParametricDarks = -7,
			ParametricHighlightSplit = 75,
			ParametricHighlights = 0,
			ParametricLights = 78,
			ParametricMidtoneSplit = 50,
			ParametricShadowSplit = 25,
			ParametricShadows = 0,
			ProcessVersion = "6.7",
			Saturation = -64,
			Shadows2012 = 65,
			SharpenDetail = 25,
			SharpenEdgeMasking = 64,
			SharpenRadius = 1.2,
			Sharpness = 76,
			ToneCurveName2012 = "Medium Contrast",
			ToneCurvePV2012 = {
				0,
				0,
				32,
				22,
				64,
				56,
				128,
				128,
				192,
				196,
				255,
				255,
			},
			ToneCurvePV2012Blue = {
				0,
				0,
				255,
				255,
			},
			ToneCurvePV2012Green = {
				0,
				0,
				255,
				255,
			},
			ToneCurvePV2012Red = {
				0,
				0,
				255,
				255,
			},
			Vibrance = 3,
			WhiteBalance = "As Shot",
			Whites2012 = -100,
		},
		uuid = "C19B4DED-3E78-488E-8C49-4D7DE8D95FA6",
	},
	version = 0,
}
