Colorize Presets/Colorize Blue.lrtemplate
s = {
	internalName = "Colorize Blue",
	title = "Colorize Blue",
	type = "Develop",
	value = {
		settings = {
			ConvertToGrayscale = false,
			EnableColorAdjustments = true,
			HueAdjustmentAqua = 0,
			HueAdjustmentBlue = 0,
			HueAdjustmentGreen = 0,
			HueAdjustmentMagenta = 0,
			HueAdjustmentOrange = 0,
			HueAdjustmentPurple = 0,
			HueAdjustmentRed = 0,
			HueAdjustmentYellow = 0,
			LuminanceAdjustmentAqua = 0,
			LuminanceAdjustmentBlue = 0,
			LuminanceAdjustmentGreen = 0,
			LuminanceAdjustmentMagenta = 0,
			LuminanceAdjustmentOrange = 0,
			LuminanceAdjustmentPurple = 0,
			LuminanceAdjustmentRed = 0,
			LuminanceAdjustmentYellow = 0,
			SaturationAdjustmentAqua = -100,
			SaturationAdjustmentBlue = 100,
			SaturationAdjustmentGreen = -100,
			SaturationAdjustmentMagenta = -100,
			SaturationAdjustmentOrange = -100,
			SaturationAdjustmentPurple = -100,
			SaturationAdjustmentRed = -100,
			SaturationAdjustmentYellow = -100,
		},
		uuid = "E0BAD492-A5AF-4F06-804F-245D6EF6B7D5",
	},
	version = 0,
}
