ASmith Road Trip Presets/asmith-newportbeach.lrtemplate
s = {
	internalName = "asmith-NewportBeach",
	title = "asmith-NewportBeach",
	type = "Develop",
	value = {
		settings = {
			AutoBrightness = false,
			AutoContrast = false,
			AutoExposure = false,
			AutoShadows = false,
			BlueHue = 0,
			BlueSaturation = 0,
			Brightness = 54,
			CameraProfile = "ACR 3.3",
			ChromaticAberrationB = 0,
			ChromaticAberrationR = 0,
			ColorNoiseReduction = 100,
			Contrast = 100,
			ConvertToGrayscale = false,
			EnableCalibration = true,
			EnableColorAdjustments = true,
			EnableDetail = true,
			EnableGrayscaleMix = true,
			EnableLensCorrections = true,
			EnableSplitToning = true,
			Exposure = 1.53,
			FillLight = 50,
			GreenHue = 0,
			GreenSaturation = 0,
			HighlightRecovery = 100,
			HueAdjustmentAqua = 0,
			HueAdjustmentBlue = 0,
			HueAdjustmentGreen = 0,
			HueAdjustmentMagenta = 0,
			HueAdjustmentOrange = 0,
			HueAdjustmentPurple = 0,
			HueAdjustmentRed = 0,
			HueAdjustmentYellow = 0,
			LuminanceAdjustmentAqua = 0,
			LuminanceAdjustmentBlue = 0,
			LuminanceAdjustmentGreen = 0,
			LuminanceAdjustmentMagenta = 0,
			LuminanceAdjustmentOrange = 0,
			LuminanceAdjustmentPurple = 0,
			LuminanceAdjustmentRed = -100,
			LuminanceAdjustmentYellow = 0,
			LuminanceSmoothing = 100,
			ParametricDarks = -4,
			ParametricHighlightSplit = 75,
			ParametricHighlights = 0,
			ParametricLights = 12,
			ParametricMidtoneSplit = 50,
			ParametricShadowSplit = 25,
			ParametricShadows = 0,
			RedHue = 0,
			RedSaturation = 0,
			Saturation = -57,
			SaturationAdjustmentAqua = 100,
			SaturationAdjustmentBlue = 100,
			SaturationAdjustmentGreen = 100,
			SaturationAdjustmentMagenta = 0,
			SaturationAdjustmentOrange = 0,
			SaturationAdjustmentPurple = 0,
			SaturationAdjustmentRed = 19,
			SaturationAdjustmentYellow = 0,
			ShadowTint = 0,
			Shadows = 54,
			Sharpness = 100,
			SplitToningBalance = 32,
			SplitToningHighlightHue = 32,
			SplitToningHighlightSaturation = 5,
			SplitToningShadowHue = 166,
			SplitToningShadowSaturation = 19,
			Temperature = 6714,
			Tint = -2,
			ToneCurve = {
				0,
				0,
				32,
				22,
				64,
				56,
				128,
				128,
				192,
				196,
				255,
				255,
			},
			Vibrance = 23,
			VignetteAmount = -64,
			VignetteMidpoint = 20,
			WhiteBalance = "Custom",
		},
		uuid = "8C2991E9-E60F-4F13-B6B3-A2A585D4B165",
	},
	version = 0,
}
