ASmith Road Trip Presets/asmith-louisville.lrtemplate
s = {
	internalName = "asmith-Louisville",
	title = "asmith-Louisville",
	type = "Develop",
	value = {
		settings = {
			AutoBrightness = false,
			AutoContrast = false,
			AutoExposure = false,
			AutoShadows = false,
			BlueHue = 0,
			BlueSaturation = 0,
			Brightness = 50,
			CameraProfile = "ACR 2.4",
			ChromaticAberrationB = 0,
			ChromaticAberrationR = 0,
			Contrast = 35,
			ConvertToGrayscale = true,
			EnableCalibration = true,
			EnableColorAdjustments = true,
			EnableDetail = true,
			EnableGrayscaleMix = true,
			EnableLensCorrections = true,
			EnableSplitToning = true,
			Exposure = 0.61,
			FillLight = 0,
			GrayMixerAqua = 51,
			GrayMixerBlue = 53,
			GrayMixerGreen = -27,
			GrayMixerMagenta = 4,
			GrayMixerOrange = -18,
			GrayMixerPurple = 15,
			GrayMixerRed = -9,
			GrayMixerYellow = -22,
			GreenHue = 0,
			GreenSaturation = 0,
			HighlightRecovery = 19,
			LuminanceSmoothing = 0,
			ParametricDarks = -72,
			ParametricHighlightSplit = 75,
			ParametricHighlights = 55,
			ParametricLights = 43,
			ParametricMidtoneSplit = 50,
			ParametricShadowSplit = 25,
			ParametricShadows = -4,
			RedHue = 0,
			RedSaturation = 0,
			ShadowTint = 0,
			Shadows = 21,
			Sharpness = 25,
			SplitToningBalance = 0,
			SplitToningHighlightHue = 237,
			SplitToningHighlightSaturation = 26,
			SplitToningShadowHue = 246,
			SplitToningShadowSaturation = 32,
			ToneCurve = {
				0,
				0,
				32,
				22,
				64,
				56,
				128,
				128,
				192,
				196,
				255,
				255,
			},
			VignetteAmount = 77,
			VignetteMidpoint = 27,
			WhiteBalance = "As Shot",
		},
		uuid = "59982402-99DB-4228-9CF6-BC8E1C1C358C",
	},
	version = 0,
}
