ASmith Road Trip Presets/asmith-miami.lrtemplate
s = {
	internalName = "asmith-Miami",
	title = "asmith-Miami",
	type = "Develop",
	value = {
		settings = {
			AutoBrightness = false,
			AutoContrast = false,
			AutoExposure = false,
			AutoShadows = false,
			BlueHue = 0,
			BlueSaturation = 0,
			Brightness = 35,
			CameraProfile = "ACR 2.4",
			ChromaticAberrationB = 0,
			ChromaticAberrationR = 0,
			ColorNoiseReduction = 100,
			Contrast = 15,
			ConvertToGrayscale = false,
			EnableCalibration = true,
			EnableColorAdjustments = true,
			EnableDetail = true,
			EnableGrayscaleMix = true,
			EnableLensCorrections = true,
			EnableSplitToning = true,
			Exposure = 1.28,
			FillLight = 0,
			GreenHue = 0,
			GreenSaturation = 0,
			HighlightRecovery = 56,
			HueAdjustmentAqua = 0,
			HueAdjustmentBlue = 2,
			HueAdjustmentGreen = 0,
			HueAdjustmentMagenta = 0,
			HueAdjustmentOrange = 0,
			HueAdjustmentPurple = 0,
			HueAdjustmentRed = 0,
			HueAdjustmentYellow = 0,
			LuminanceAdjustmentAqua = -17,
			LuminanceAdjustmentBlue = 89,
			LuminanceAdjustmentGreen = 0,
			LuminanceAdjustmentMagenta = 0,
			LuminanceAdjustmentOrange = 0,
			LuminanceAdjustmentPurple = -9,
			LuminanceAdjustmentRed = 0,
			LuminanceAdjustmentYellow = 0,
			LuminanceSmoothing = 100,
			ParametricDarks = -22,
			ParametricHighlightSplit = 75,
			ParametricHighlights = 100,
			ParametricLights = 2,
			ParametricMidtoneSplit = 50,
			ParametricShadowSplit = 25,
			ParametricShadows = -100,
			RedHue = 0,
			RedSaturation = 0,
			Saturation = 0,
			SaturationAdjustmentAqua = 77,
			SaturationAdjustmentBlue = 81,
			SaturationAdjustmentGreen = 9,
			SaturationAdjustmentMagenta = 0,
			SaturationAdjustmentOrange = -19,
			SaturationAdjustmentPurple = 17,
			SaturationAdjustmentRed = 0,
			SaturationAdjustmentYellow = 0,
			ShadowTint = 0,
			Shadows = 16,
			Sharpness = 100,
			SplitToningBalance = 4,
			SplitToningHighlightHue = 0,
			SplitToningHighlightSaturation = 0,
			SplitToningShadowHue = 46,
			SplitToningShadowSaturation = 50,
			Temperature = 5400,
			Tint = 21,
			ToneCurve = {
				0,
				0,
				255,
				255,
			},
			Vibrance = 77,
			VignetteAmount = -100,
			VignetteMidpoint = 20,
			WhiteBalance = "Custom",
		},
		uuid = "D7E80DBB-7A9C-42FB-9E9C-6828C7512B29",
	},
	version = 0,
}
