ASmith Road Trip Presets/asmith-austin.lrtemplate
s = {
	internalName = "asmith-Austin",
	title = "asmith-Austin",
	type = "Develop",
	value = {
		settings = {
			AutoBrightness = false,
			AutoContrast = false,
			AutoExposure = false,
			AutoShadows = false,
			BlueHue = 0,
			BlueSaturation = 0,
			Brightness = -4,
			CameraProfile = "ACR 2.4",
			ChromaticAberrationB = 0,
			ChromaticAberrationR = -4,
			ColorNoiseReduction = 100,
			Contrast = 15,
			ConvertToGrayscale = false,
			EnableCalibration = true,
			EnableColorAdjustments = true,
			EnableDetail = true,
			EnableGrayscaleMix = true,
			EnableLensCorrections = true,
			EnableSplitToning = true,
			Exposure = 1.36,
			FillLight = 3,
			GreenHue = 0,
			GreenSaturation = 0,
			HighlightRecovery = 30,
			HueAdjustmentAqua = 0,
			HueAdjustmentBlue = -55,
			HueAdjustmentGreen = -2,
			HueAdjustmentMagenta = 0,
			HueAdjustmentOrange = 0,
			HueAdjustmentPurple = 0,
			HueAdjustmentRed = -49,
			HueAdjustmentYellow = 53,
			LuminanceAdjustmentAqua = 0,
			LuminanceAdjustmentBlue = 100,
			LuminanceAdjustmentGreen = 72,
			LuminanceAdjustmentMagenta = 0,
			LuminanceAdjustmentOrange = 0,
			LuminanceAdjustmentPurple = 0,
			LuminanceAdjustmentRed = 66,
			LuminanceAdjustmentYellow = 0,
			LuminanceSmoothing = 100,
			ParametricDarks = 0,
			ParametricHighlightSplit = 75,
			ParametricHighlights = 0,
			ParametricLights = 0,
			ParametricMidtoneSplit = 50,
			ParametricShadowSplit = 25,
			ParametricShadows = 0,
			RedHue = 0,
			RedSaturation = 0,
			Saturation = 0,
			SaturationAdjustmentAqua = 12,
			SaturationAdjustmentBlue = -100,
			SaturationAdjustmentGreen = 45,
			SaturationAdjustmentMagenta = 8,
			SaturationAdjustmentOrange = 13,
			SaturationAdjustmentPurple = 16,
			SaturationAdjustmentRed = -21,
			SaturationAdjustmentYellow = 23,
			ShadowTint = 0,
			Shadows = 19,
			Sharpness = 0,
			SplitToningBalance = 0,
			SplitToningHighlightHue = 0,
			SplitToningHighlightSaturation = 0,
			SplitToningShadowHue = 0,
			SplitToningShadowSaturation = 0,
			ToneCurve = {
				0,
				0,
				255,
				255,
			},
			Vibrance = 0,
			VignetteAmount = -66,
			VignetteMidpoint = 0,
			WhiteBalance = "As Shot",
		},
		uuid = "23967EAA-DC84-4A98-8502-FA9374A25CBE",
	},
	version = 0,
}
