ASmith Road Trip Presets/asmith-washingtondc.lrtemplate
s = {
	internalName = "asmith-WashingtonDC",
	title = "asmith-WashingtonDC",
	type = "Develop",
	value = {
		settings = {
			AutoBrightness = false,
			AutoContrast = false,
			AutoExposure = false,
			AutoShadows = false,
			BlueHue = 0,
			BlueSaturation = 0,
			Brightness = 29,
			CameraProfile = "Embedded",
			ChromaticAberrationB = 0,
			ChromaticAberrationR = 0,
			ColorNoiseReduction = 0,
			Contrast = 19,
			ConvertToGrayscale = false,
			EnableCalibration = true,
			EnableColorAdjustments = true,
			EnableDetail = true,
			EnableGrayscaleMix = true,
			EnableLensCorrections = true,
			EnableSplitToning = true,
			Exposure = 0,
			FillLight = 0,
			GreenHue = 0,
			GreenSaturation = 0,
			HighlightRecovery = 31,
			HueAdjustmentAqua = 0,
			HueAdjustmentBlue = 0,
			HueAdjustmentGreen = 0,
			HueAdjustmentMagenta = 0,
			HueAdjustmentOrange = 0,
			HueAdjustmentPurple = 0,
			HueAdjustmentRed = 0,
			HueAdjustmentYellow = 0,
			LuminanceAdjustmentAqua = 0,
			LuminanceAdjustmentBlue = 0,
			LuminanceAdjustmentGreen = 0,
			LuminanceAdjustmentMagenta = 0,
			LuminanceAdjustmentOrange = 0,
			LuminanceAdjustmentPurple = 0,
			LuminanceAdjustmentRed = 0,
			LuminanceAdjustmentYellow = 0,
			LuminanceSmoothing = 0,
			ParametricDarks = -8,
			ParametricHighlightSplit = 75,
			ParametricHighlights = 3,
			ParametricLights = 8,
			ParametricMidtoneSplit = 50,
			ParametricShadowSplit = 25,
			ParametricShadows = -25,
			RedHue = 0,
			RedSaturation = 0,
			Saturation = 0,
			SaturationAdjustmentAqua = -100,
			SaturationAdjustmentBlue = -100,
			SaturationAdjustmentGreen = -100,
			SaturationAdjustmentMagenta = -100,
			SaturationAdjustmentOrange = 15,
			SaturationAdjustmentPurple = -100,
			SaturationAdjustmentRed = -66,
			SaturationAdjustmentYellow = -100,
			ShadowTint = 0,
			Shadows = 10,
			Sharpness = 0,
			SplitToningBalance = 100,
			SplitToningHighlightHue = 0,
			SplitToningHighlightSaturation = 0,
			SplitToningShadowHue = 234,
			SplitToningShadowSaturation = 84,
			ToneCurve = {
				0,
				0,
				32,
				22,
				64,
				56,
				128,
				128,
				192,
				196,
				255,
				255,
			},
			Vibrance = 0,
			VignetteAmount = 0,
			VignetteMidpoint = 50,
			WhiteBalance = "As Shot",
		},
		uuid = "31A5D43E-8D12-48A4-B60B-7A2FEDB28BB2",
	},
	version = 0,
}
