NV BW and Vintage RAW Presets Lightroom/NV BW Moody.lrtemplate
s = {
	internalName = "BW: Moody",
	title = "NV BW Moody",
	type = "Develop",
	value = {
		settings = {
			AutoBrightness = false,
			AutoContrast = false,
			AutoExposure = false,
			AutoShadows = false,
			BlueHue = -100,
			BlueSaturation = 98,
			Brightness = 55,
			CameraProfile = "ACR 3.3",
			ChromaticAberrationB = 0,
			ChromaticAberrationR = 0,
			Clarity = 0,
			Contrast = 77,
			ConvertToGrayscale = true,
			Defringe = 0,
			EnableCalibration = true,
			EnableColorAdjustments = true,
			EnableDetail = true,
			EnableGrayscaleMix = true,
			EnableLensCorrections = true,
			EnableSplitToning = true,
			Exposure = 0,
			FillLight = 25,
			GrayMixerAqua = -17,
			GrayMixerBlue = 15,
			GrayMixerGreen = -28,
			GrayMixerMagenta = 4,
			GrayMixerOrange = -21,
			GrayMixerPurple = 19,
			GrayMixerRed = -11,
			GrayMixerYellow = -25,
			GreenHue = 0,
			GreenSaturation = 0,
			HighlightRecovery = 38,
			LuminanceSmoothing = 0,
			ParametricDarks = -36,
			ParametricHighlightSplit = 75,
			ParametricHighlights = -52,
			ParametricLights = 57,
			ParametricMidtoneSplit = 50,
			ParametricShadowSplit = 25,
			ParametricShadows = 36,
			RedHue = 0,
			RedSaturation = -98,
			ShadowTint = 0,
			Shadows = 24,
			SharpenDetail = 25,
			SharpenEdgeMasking = 0,
			SharpenRadius = 1,
			Sharpness = 25,
			SplitToningBalance = 0,
			SplitToningHighlightHue = 34,
			SplitToningHighlightSaturation = 2,
			SplitToningShadowHue = 34,
			SplitToningShadowSaturation = 2,
			ToneCurve = {
				0,
				0,
				32,
				16,
				64,
				50,
				128,
				128,
				192,
				202,
				255,
				255,
			},
			ToneCurveName = "Medium Contrast",
			VignetteAmount = -100,
			VignetteMidpoint = 25,
		},
		uuid = "82C3B4EF-1EBC-474C-96BD-749DEE035E4A",
	},
	version = 0,
}
