Best Of RAW/U - Wedding Farbig.lrtemplate
s = {
	id = "546AEA19-1785-4919-BBE6-CB49449D8D16",
	internalName = "*wedding farbig*",
	title = "U - Wedding Farbig",
	type = "Develop",
	value = {
		settings = {
			AutoBrightness = false,
			AutoContrast = false,
			AutoExposure = false,
			AutoShadows = false,
			BlueHue = 0,
			BlueSaturation = 0,
			Brightness = 48,
			CameraProfile = "Adobe Standard",
			ChromaticAberrationB = 0,
			ChromaticAberrationR = 0,
			Clarity = -5,
			ColorNoiseReduction = 25,
			Contrast = 32,
			ConvertToGrayscale = false,
			Defringe = 0,
			EnableCalibration = true,
			EnableColorAdjustments = true,
			EnableDetail = true,
			EnableGradientBasedCorrections = true,
			EnableGrayscaleMix = true,
			EnableSplitToning = true,
			EnableVignettes = true,
			Exposure = 0.35,
			FillLight = 10,
			GreenHue = 0,
			GreenSaturation = 0,
			HighlightRecovery = 0,
			HueAdjustmentAqua = 0,
			HueAdjustmentBlue = 0,
			HueAdjustmentGreen = -33,
			HueAdjustmentMagenta = 0,
			HueAdjustmentOrange = -4,
			HueAdjustmentPurple = 0,
			HueAdjustmentRed = 5,
			HueAdjustmentYellow = 0,
			LuminanceAdjustmentAqua = 0,
			LuminanceAdjustmentBlue = 0,
			LuminanceAdjustmentGreen = 0,
			LuminanceAdjustmentMagenta = 0,
			LuminanceAdjustmentOrange = 0,
			LuminanceAdjustmentPurple = 0,
			LuminanceAdjustmentRed = 0,
			LuminanceAdjustmentYellow = 0,
			LuminanceSmoothing = 54,
			ParametricDarks = -26,
			ParametricHighlightSplit = 75,
			ParametricHighlights = 0,
			ParametricLights = 22,
			ParametricMidtoneSplit = 50,
			ParametricShadowSplit = 25,
			ParametricShadows = -26,
			PostCropVignetteAmount = 0,
			PostCropVignetteFeather = 50,
			PostCropVignetteMidpoint = 50,
			PostCropVignetteRoundness = 0,
			RedHue = 0,
			RedSaturation = 0,
			Saturation = -26,
			SaturationAdjustmentAqua = 21,
			SaturationAdjustmentBlue = 0,
			SaturationAdjustmentGreen = 60,
			SaturationAdjustmentMagenta = 0,
			SaturationAdjustmentOrange = -30,
			SaturationAdjustmentPurple = 0,
			SaturationAdjustmentRed = 0,
			SaturationAdjustmentYellow = 0,
			ShadowTint = 0,
			Shadows = 0,
			SharpenDetail = 25,
			SharpenEdgeMasking = 0,
			SharpenRadius = 1,
			Sharpness = 25,
			SplitToningBalance = 100,
			SplitToningHighlightHue = 52,
			SplitToningHighlightSaturation = 15,
			SplitToningShadowHue = 0,
			SplitToningShadowSaturation = 0,
			Temperature = 7146,
			Tint = 1,
			ToneCurve = {
				0,
				0,
				32,
				22,
				64,
				56,
				128,
				128,
				192,
				196,
				255,
				255,
			},
			ToneCurveName = "Medium Contrast",
			Vibrance = 17,
			VignetteAmount = -77,
			VignetteMidpoint = 50,
			WhiteBalance = "Custom",
		},
		uuid = "C5B1EA2F-E8F1-4B38-85A7-8BB6552095D7",
	},
	version = 0,
}
