Best Of RAW/U - Wedding Blue.lrtemplate
s = {
	id = "873C57EB-4830-467A-B6E4-B7285F33F74C",
	internalName = "** Wedding Blue **",
	title = "U - Wedding Blue",
	type = "Develop",
	value = {
		settings = {
			AutoBrightness = false,
			AutoContrast = false,
			AutoExposure = false,
			AutoShadows = false,
			BlueHue = 0,
			BlueSaturation = 0,
			Brightness = 13,
			CameraProfile = "ACR 4.4",
			Clarity = -3,
			ColorNoiseReduction = 0,
			Contrast = 58,
			ConvertToGrayscale = false,
			EnableCalibration = true,
			EnableColorAdjustments = true,
			EnableDetail = true,
			EnableGradientBasedCorrections = true,
			EnableGrayscaleMix = true,
			EnableSplitToning = true,
			EnableVignettes = true,
			Exposure = 0.66,
			FillLight = 10,
			GreenHue = 0,
			GreenSaturation = 0,
			HighlightRecovery = 10,
			HueAdjustmentAqua = 0,
			HueAdjustmentBlue = -17,
			HueAdjustmentGreen = 0,
			HueAdjustmentMagenta = 0,
			HueAdjustmentOrange = 0,
			HueAdjustmentPurple = -5,
			HueAdjustmentRed = 0,
			HueAdjustmentYellow = 0,
			LuminanceAdjustmentAqua = 0,
			LuminanceAdjustmentBlue = 0,
			LuminanceAdjustmentGreen = 0,
			LuminanceAdjustmentMagenta = 0,
			LuminanceAdjustmentOrange = -5,
			LuminanceAdjustmentPurple = 0,
			LuminanceAdjustmentRed = -4,
			LuminanceAdjustmentYellow = -2,
			LuminanceSmoothing = 0,
			ParametricDarks = -11,
			ParametricHighlightSplit = 75,
			ParametricHighlights = -9,
			ParametricLights = 42,
			ParametricMidtoneSplit = 50,
			ParametricShadowSplit = 25,
			ParametricShadows = -63,
			PostCropVignetteAmount = 0,
			PostCropVignetteFeather = 50,
			PostCropVignetteMidpoint = 50,
			PostCropVignetteRoundness = 0,
			RedHue = 0,
			RedSaturation = 0,
			Saturation = -9,
			SaturationAdjustmentAqua = -18,
			SaturationAdjustmentBlue = 12,
			SaturationAdjustmentGreen = -13,
			SaturationAdjustmentMagenta = 0,
			SaturationAdjustmentOrange = -50,
			SaturationAdjustmentPurple = 0,
			SaturationAdjustmentRed = -52,
			SaturationAdjustmentYellow = -56,
			ShadowTint = 0,
			Shadows = 0,
			SharpenDetail = 25,
			SharpenEdgeMasking = 0,
			SharpenRadius = 1,
			Sharpness = 7,
			SplitToningBalance = 55,
			SplitToningHighlightHue = 46,
			SplitToningHighlightSaturation = 24,
			SplitToningShadowHue = 241,
			SplitToningShadowSaturation = 25,
			Temperature = 5122,
			Tint = 15,
			ToneCurve = {
				0,
				0,
				255,
				255,
			},
			ToneCurveName = "Linear",
			Vibrance = -22,
			VignetteAmount = -100,
			VignetteMidpoint = 50,
			WhiteBalance = "Custom",
		},
		uuid = "34002EFD-5BDC-4D84-B4FC-13CF034505AC",
	},
	version = 0,
}
