Best Of RAW/U - Fad Blue.lrtemplate
s = {
	id = "7C0F4259-49EC-440E-B5DA-3BC398555E93",
	internalName = "Fad  - Blue",
	title = "U - Fad Blue",
	type = "Develop",
	value = {
		settings = {
			AutoBrightness = false,
			AutoContrast = false,
			AutoExposure = false,
			AutoShadows = false,
			BlueHue = 0,
			BlueSaturation = 0,
			Brightness = 38,
			CameraProfile = "Adobe Standard",
			ChromaticAberrationB = 0,
			ChromaticAberrationR = 0,
			Clarity = 42,
			ColorNoiseReduction = 0,
			Contrast = -3,
			ConvertToGrayscale = false,
			Defringe = 0,
			EnableCalibration = true,
			EnableColorAdjustments = true,
			EnableDetail = true,
			EnableGradientBasedCorrections = true,
			EnableGrayscaleMix = true,
			EnableSplitToning = true,
			EnableVignettes = true,
			Exposure = 1.08,
			FillLight = 18,
			GreenHue = 0,
			GreenSaturation = 0,
			HighlightRecovery = 51,
			HueAdjustmentAqua = 0,
			HueAdjustmentBlue = -38,
			HueAdjustmentGreen = 0,
			HueAdjustmentMagenta = 0,
			HueAdjustmentOrange = 0,
			HueAdjustmentPurple = 0,
			HueAdjustmentRed = 0,
			HueAdjustmentYellow = 0,
			LuminanceAdjustmentAqua = 0,
			LuminanceAdjustmentBlue = 0,
			LuminanceAdjustmentGreen = 0,
			LuminanceAdjustmentMagenta = 0,
			LuminanceAdjustmentOrange = 0,
			LuminanceAdjustmentPurple = 0,
			LuminanceAdjustmentRed = 0,
			LuminanceAdjustmentYellow = 0,
			LuminanceSmoothing = 0,
			ParametricDarks = 0,
			ParametricHighlightSplit = 75,
			ParametricHighlights = -30,
			ParametricLights = 18,
			ParametricMidtoneSplit = 50,
			ParametricShadowSplit = 25,
			ParametricShadows = 65,
			PostCropVignetteAmount = 0,
			PostCropVignetteFeather = 50,
			PostCropVignetteMidpoint = 50,
			PostCropVignetteRoundness = 0,
			RedHue = 0,
			RedSaturation = 0,
			Saturation = -15,
			SaturationAdjustmentAqua = 0,
			SaturationAdjustmentBlue = 17,
			SaturationAdjustmentGreen = 0,
			SaturationAdjustmentMagenta = 19,
			SaturationAdjustmentOrange = 0,
			SaturationAdjustmentPurple = 0,
			SaturationAdjustmentRed = -31,
			SaturationAdjustmentYellow = 0,
			ShadowTint = 0,
			Shadows = 8,
			SharpenDetail = 25,
			SharpenEdgeMasking = 0,
			SharpenRadius = 1,
			Sharpness = 0,
			SplitToningBalance = 2,
			SplitToningHighlightHue = 56,
			SplitToningHighlightSaturation = 46,
			SplitToningShadowHue = 245,
			SplitToningShadowSaturation = 30,
			Temperature = 6078,
			Tint = 8,
			ToneCurve = {
				0,
				0,
				32,
				22,
				64,
				56,
				128,
				128,
				192,
				196,
				255,
				255,
			},
			ToneCurveName = "Medium Contrast",
			Vibrance = -19,
			VignetteAmount = -100,
			VignetteMidpoint = 11,
			WhiteBalance = "Custom",
		},
		uuid = "4CBA14C6-2278-4D46-9928-DDD2C8271095",
	},
	version = 0,
}
