zmc/Château de Gordes.lrtemplate
s = {
	id = "8D366D4B-F742-4159-B491-14C579160201",
	internalName = "Château de Gordes",
	title = "Château de Gordes",
	type = "Develop",
	value = {
		settings = {
			AutoBrightness = false,
			AutoContrast = false,
			AutoExposure = false,
			AutoShadows = false,
			BlueHue = -6,
			BlueSaturation = 8,
			Brightness = 19,
			CameraProfile = "Embedded",
			ChromaticAberrationB = 0,
			ChromaticAberrationR = 0,
			Clarity = 31,
			ColorNoiseReduction = 0,
			ColorNoiseReductionDetail = 50,
			Contrast = 17,
			ConvertToGrayscale = false,
			Defringe = 0,
			EnableCalibration = true,
			EnableColorAdjustments = true,
			EnableDetail = true,
			EnableEffects = true,
			EnableGradientBasedCorrections = true,
			EnableGrayscaleMix = true,
			EnableSplitToning = true,
			Exposure = 0,
			FillLight = 13,
			GrainAmount = 0,
			GrainFrequency = 50,
			GrainSize = 25,
			GreenHue = 0,
			GreenSaturation = -20,
			HighlightRecovery = 26,
			HueAdjustmentAqua = 31,
			HueAdjustmentBlue = -8,
			HueAdjustmentGreen = 24,
			HueAdjustmentMagenta = 17,
			HueAdjustmentOrange = -20,
			HueAdjustmentPurple = -6,
			HueAdjustmentRed = 0,
			HueAdjustmentYellow = -13,
			IncrementalTemperature = 5,
			IncrementalTint = 0,
			LuminanceAdjustmentAqua = 0,
			LuminanceAdjustmentBlue = 0,
			LuminanceAdjustmentGreen = 0,
			LuminanceAdjustmentMagenta = 0,
			LuminanceAdjustmentOrange = 0,
			LuminanceAdjustmentPurple = 0,
			LuminanceAdjustmentRed = 0,
			LuminanceAdjustmentYellow = 0,
			LuminanceSmoothing = 0,
			NoiseReductionContrast = 0,
			ParametricDarks = 0,
			ParametricHighlightSplit = 75,
			ParametricHighlights = 0,
			ParametricLights = 0,
			ParametricMidtoneSplit = 50,
			ParametricShadowSplit = 25,
			ParametricShadows = 0,
			PostCropVignetteAmount = -24,
			PostCropVignetteFeather = 80,
			PostCropVignetteHighlightContrast = 9,
			PostCropVignetteMidpoint = 61,
			PostCropVignetteRoundness = 20,
			PostCropVignetteStyle = 1,
			RedHue = 0,
			RedSaturation = 15,
			Saturation = 8,
			SaturationAdjustmentAqua = 0,
			SaturationAdjustmentBlue = 22,
			SaturationAdjustmentGreen = 20,
			SaturationAdjustmentMagenta = 0,
			SaturationAdjustmentOrange = 31,
			SaturationAdjustmentPurple = 0,
			SaturationAdjustmentRed = 40,
			SaturationAdjustmentYellow = 36,
			ShadowTint = -29,
			Shadows = 7,
			SharpenDetail = 25,
			SharpenEdgeMasking = 0,
			SharpenRadius = 1,
			Sharpness = 0,
			SplitToningBalance = 0,
			SplitToningHighlightHue = 46,
			SplitToningHighlightSaturation = 43,
			SplitToningShadowHue = 199,
			SplitToningShadowSaturation = 24,
			ToneCurve = {
				0,
				0,
				32,
				16,
				64,
				50,
				128,
				128,
				192,
				202,
				255,
				255,
			},
			ToneCurveName = "Strong Contrast",
			Vibrance = 45,
			VignetteAmount = -10,
			VignetteMidpoint = 50,
			WhiteBalance = "Custom",
			orientation = "AB",
		},
		uuid = "76CE5934-01EF-4BD7-B493-5D7292BD432E",
	},
	version = 0,
}
