Best Of JPG/U - Fly.lrtemplate
s = {
	id = "6207AE4C-E9CF-4A9A-ADCE-066E8F416804",
	internalName = "** Fly **",
	title = "U - Fly",
	type = "Develop",
	value = {
		settings = {
			AutoBrightness = false,
			AutoContrast = false,
			AutoExposure = false,
			AutoShadows = false,
			BlueHue = 0,
			BlueSaturation = 0,
			Brightness = 0,
			CameraProfile = "Embedded",
			Clarity = -5,
			ColorNoiseReduction = 0,
			Contrast = 8,
			ConvertToGrayscale = false,
			EnableCalibration = true,
			EnableColorAdjustments = true,
			EnableDetail = true,
			EnableGradientBasedCorrections = true,
			EnableGrayscaleMix = true,
			EnableSplitToning = true,
			EnableVignettes = true,
			Exposure = 0,
			FillLight = 16,
			GreenHue = 0,
			GreenSaturation = 0,
			HighlightRecovery = 0,
			HueAdjustmentAqua = 70,
			HueAdjustmentBlue = -55,
			HueAdjustmentGreen = -13,
			HueAdjustmentMagenta = 80,
			HueAdjustmentOrange = 5,
			HueAdjustmentPurple = 6,
			HueAdjustmentRed = 0,
			HueAdjustmentYellow = 74,
			IncrementalTemperature = 17,
			IncrementalTint = -7,
			LuminanceAdjustmentAqua = 0,
			LuminanceAdjustmentBlue = 0,
			LuminanceAdjustmentGreen = 0,
			LuminanceAdjustmentMagenta = 0,
			LuminanceAdjustmentOrange = 19,
			LuminanceAdjustmentPurple = 0,
			LuminanceAdjustmentRed = 0,
			LuminanceAdjustmentYellow = 0,
			LuminanceSmoothing = 31,
			ParametricDarks = 1,
			ParametricHighlightSplit = 75,
			ParametricHighlights = 0,
			ParametricLights = -3,
			ParametricMidtoneSplit = 50,
			ParametricShadowSplit = 25,
			ParametricShadows = -17,
			PostCropVignetteAmount = 0,
			PostCropVignetteFeather = 50,
			PostCropVignetteMidpoint = 50,
			PostCropVignetteRoundness = 0,
			RedHue = 0,
			RedSaturation = 0,
			Saturation = -94,
			SaturationAdjustmentAqua = 0,
			SaturationAdjustmentBlue = -4,
			SaturationAdjustmentGreen = 28,
			SaturationAdjustmentMagenta = 0,
			SaturationAdjustmentOrange = -19,
			SaturationAdjustmentPurple = -6,
			SaturationAdjustmentRed = 9,
			SaturationAdjustmentYellow = 0,
			ShadowTint = 0,
			Shadows = 5,
			SharpenDetail = 25,
			SharpenEdgeMasking = 0,
			SharpenRadius = 1,
			Sharpness = 17,
			SplitToningBalance = 26,
			SplitToningHighlightHue = 45,
			SplitToningHighlightSaturation = 42,
			SplitToningShadowHue = 22,
			SplitToningShadowSaturation = 21,
			ToneCurve = {
				0,
				0,
				255,
				255,
			},
			ToneCurveName = "Linear",
			Vibrance = 28,
			VignetteAmount = -96,
			VignetteMidpoint = 20,
			WhiteBalance = "Custom",
		},
		uuid = "93448E7C-EDEC-4CE9-A37B-BB4E5C751374",
	},
	version = 0,
}
