Best Of JPG/U - White Dream 9.lrtemplate
s = {
	id = "EB82B966-48BF-4643-95A6-60FEB579102B",
	internalName = "White Dream 9",
	title = "U - White Dream 9",
	type = "Develop",
	value = {
		settings = {
			AutoBrightness = false,
			AutoContrast = false,
			AutoExposure = false,
			AutoShadows = false,
			BlueHue = 0,
			BlueSaturation = 0,
			Brightness = -4,
			CameraProfile = "Embedded",
			ChromaticAberrationB = 0,
			ChromaticAberrationR = 0,
			Clarity = 9,
			ColorNoiseReduction = 0,
			Contrast = 42,
			ConvertToGrayscale = false,
			Defringe = 0,
			EnableCalibration = true,
			EnableColorAdjustments = true,
			EnableDetail = true,
			EnableGrayscaleMix = true,
			EnableSplitToning = true,
			EnableVignettes = true,
			Exposure = 0.66,
			FillLight = 0,
			GreenHue = 0,
			GreenSaturation = 0,
			HighlightRecovery = 78,
			HueAdjustmentAqua = 0,
			HueAdjustmentBlue = 0,
			HueAdjustmentGreen = -16,
			HueAdjustmentMagenta = 0,
			HueAdjustmentOrange = 0,
			HueAdjustmentPurple = -2,
			HueAdjustmentRed = 0,
			HueAdjustmentYellow = 0,
			LuminanceAdjustmentAqua = 0,
			LuminanceAdjustmentBlue = 0,
			LuminanceAdjustmentGreen = 0,
			LuminanceAdjustmentMagenta = 0,
			LuminanceAdjustmentOrange = 0,
			LuminanceAdjustmentPurple = 0,
			LuminanceAdjustmentRed = 4,
			LuminanceAdjustmentYellow = 0,
			LuminanceSmoothing = 0,
			ParametricDarks = 17,
			ParametricHighlightSplit = 75,
			ParametricHighlights = 0,
			ParametricLights = 15,
			ParametricMidtoneSplit = 50,
			ParametricShadowSplit = 25,
			ParametricShadows = -11,
			PostCropVignetteAmount = -5,
			PostCropVignetteFeather = 87,
			PostCropVignetteMidpoint = 50,
			PostCropVignetteRoundness = -100,
			RedHue = 0,
			RedSaturation = 0,
			Saturation = -71,
			SaturationAdjustmentAqua = 0,
			SaturationAdjustmentBlue = 0,
			SaturationAdjustmentGreen = 60,
			SaturationAdjustmentMagenta = 0,
			SaturationAdjustmentOrange = 0,
			SaturationAdjustmentPurple = 2,
			SaturationAdjustmentRed = 0,
			SaturationAdjustmentYellow = 0,
			ShadowTint = 0,
			Shadows = 0,
			SharpenDetail = 8,
			SharpenEdgeMasking = 0,
			SharpenRadius = 0.6,
			Sharpness = 0,
			SplitToningBalance = -32,
			SplitToningHighlightHue = 40,
			SplitToningHighlightSaturation = 20,
			SplitToningShadowHue = 34,
			SplitToningShadowSaturation = 4,
			ToneCurve = {
				0,
				0,
				32,
				22,
				64,
				56,
				128,
				128,
				192,
				196,
				255,
				255,
			},
			ToneCurveName = "Medium Contrast",
			Vibrance = 100,
			VignetteAmount = -61,
			VignetteMidpoint = 48,
			WhiteBalance = "As Shot",
		},
		uuid = "A65F3866-43BE-4DCD-AD59-54189CF2EF11",
	},
	version = 0,
}
