Best Of JPG/U - Lovi.lrtemplate
s = {
	id = "CCEEDDE2-D516-45C0-B55C-99B32358360B",
	internalName = "* Lol *",
	title = "U - Lovi",
	type = "Develop",
	value = {
		settings = {
			AutoBrightness = false,
			AutoContrast = false,
			AutoExposure = false,
			AutoShadows = false,
			Brightness = -19,
			ChromaticAberrationB = 0,
			ChromaticAberrationR = 0,
			Clarity = 30,
			ColorNoiseReduction = 0,
			Contrast = -50,
			ConvertToGrayscale = false,
			Defringe = 0,
			EnableColorAdjustments = true,
			EnableDetail = true,
			EnableGradientBasedCorrections = true,
			EnableGrayscaleMix = true,
			EnableSplitToning = true,
			EnableVignettes = true,
			Exposure = -4,
			FillLight = 0,
			HighlightRecovery = 0,
			HueAdjustmentAqua = 0,
			HueAdjustmentBlue = 0,
			HueAdjustmentGreen = 0,
			HueAdjustmentMagenta = 0,
			HueAdjustmentOrange = 0,
			HueAdjustmentPurple = 0,
			HueAdjustmentRed = 0,
			HueAdjustmentYellow = 0,
			IncrementalTemperature = 32,
			IncrementalTint = -11,
			LuminanceAdjustmentAqua = 0,
			LuminanceAdjustmentBlue = 0,
			LuminanceAdjustmentGreen = 0,
			LuminanceAdjustmentMagenta = 0,
			LuminanceAdjustmentOrange = 0,
			LuminanceAdjustmentPurple = 0,
			LuminanceAdjustmentRed = 0,
			LuminanceAdjustmentYellow = 0,
			LuminanceSmoothing = 34,
			ParametricDarks = 100,
			ParametricHighlightSplit = 75,
			ParametricHighlights = 100,
			ParametricLights = 98,
			ParametricMidtoneSplit = 50,
			ParametricShadowSplit = 25,
			ParametricShadows = 100,
			PostCropVignetteAmount = -34,
			PostCropVignetteFeather = 85,
			PostCropVignetteMidpoint = 93,
			PostCropVignetteRoundness = 50,
			Saturation = -26,
			SaturationAdjustmentAqua = 0,
			SaturationAdjustmentBlue = 0,
			SaturationAdjustmentGreen = 0,
			SaturationAdjustmentMagenta = 0,
			SaturationAdjustmentOrange = 0,
			SaturationAdjustmentPurple = 0,
			SaturationAdjustmentRed = 0,
			SaturationAdjustmentYellow = 0,
			Shadows = 37,
			SharpenDetail = 25,
			SharpenEdgeMasking = 0,
			SharpenRadius = 1,
			Sharpness = 41,
			SplitToningBalance = 100,
			SplitToningHighlightHue = 40,
			SplitToningHighlightSaturation = 18,
			SplitToningShadowHue = 344,
			SplitToningShadowSaturation = 26,
			ToneCurve = {
				0,
				0,
				32,
				22,
				64,
				56,
				128,
				128,
				192,
				196,
				255,
				255,
			},
			ToneCurveName = "Medium Contrast",
			Vibrance = -57,
			VignetteAmount = -100,
			VignetteMidpoint = 100,
			WhiteBalance = "Custom",
		},
		uuid = "0D21212D-F677-4D43-A8E2-0466037E22A4",
	},
	version = 0,
}
