Best Of JPG/U - Sepia 3.lrtemplate
s = {
	id = "B7358259-9DA4-4BA9-A3CD-D25BD23D9C86",
	internalName = "B&W JPG Sepia 3",
	title = "U - Sepia 3",
	type = "Develop",
	value = {
		settings = {
			AutoBrightness = false,
			AutoContrast = false,
			AutoExposure = false,
			AutoShadows = false,
			BlueHue = 0,
			BlueSaturation = 0,
			Brightness = 22,
			CameraProfile = "Embedded",
			ChromaticAberrationB = 0,
			ChromaticAberrationR = 0,
			Clarity = 40,
			Contrast = 58,
			ConvertToGrayscale = true,
			Defringe = 0,
			EnableCalibration = true,
			EnableColorAdjustments = true,
			EnableDetail = true,
			EnableGradientBasedCorrections = true,
			EnableGrayscaleMix = true,
			EnableSplitToning = true,
			EnableVignettes = true,
			Exposure = 0.27,
			FillLight = 0,
			GrayMixerAqua = -19,
			GrayMixerBlue = 5,
			GrayMixerGreen = -23,
			GrayMixerMagenta = 4,
			GrayMixerOrange = -14,
			GrayMixerPurple = 12,
			GrayMixerRed = -6,
			GrayMixerYellow = -17,
			GreenHue = 0,
			GreenSaturation = 0,
			HighlightRecovery = 0,
			LuminanceSmoothing = 0,
			ParametricDarks = 0,
			ParametricHighlightSplit = 75,
			ParametricHighlights = 0,
			ParametricLights = 0,
			ParametricMidtoneSplit = 50,
			ParametricShadowSplit = 25,
			ParametricShadows = 0,
			PostCropVignetteAmount = -59,
			PostCropVignetteFeather = 71,
			PostCropVignetteMidpoint = 88,
			PostCropVignetteRoundness = -100,
			RedHue = 0,
			RedSaturation = 0,
			ShadowTint = 0,
			Shadows = 3,
			SharpenDetail = 25,
			SharpenEdgeMasking = 0,
			SharpenRadius = 1,
			Sharpness = 0,
			SplitToningBalance = 0,
			SplitToningHighlightHue = 47,
			SplitToningHighlightSaturation = 33,
			SplitToningShadowHue = 17,
			SplitToningShadowSaturation = 6,
			ToneCurve = {
				0,
				0,
				255,
				255,
			},
			ToneCurveName = "Linear",
			VignetteAmount = -73,
			VignetteMidpoint = 50,
			WhiteBalance = "As Shot",
		},
		uuid = "F10865DD-E092-4FB5-85ED-6ACCD308495C",
	},
	version = 0,
}
