Best Of JPG/U - Memory.lrtemplate
s = {
	id = "62049480-FCDB-4D0E-94E8-9ED84FAE53EA",
	internalName = "Memory",
	title = "U - Memory",
	type = "Develop",
	value = {
		settings = {
			AutoBrightness = false,
			AutoContrast = false,
			AutoExposure = false,
			AutoShadows = false,
			BlueHue = -69,
			BlueSaturation = -5,
			Brightness = 19,
			CameraProfile = "Embedded",
			ChromaticAberrationB = 0,
			ChromaticAberrationR = 0,
			Clarity = 77,
			ColorNoiseReduction = 1,
			Contrast = -30,
			ConvertToGrayscale = false,
			Defringe = 0,
			EnableCalibration = true,
			EnableColorAdjustments = true,
			EnableDetail = true,
			EnableGradientBasedCorrections = true,
			EnableGrayscaleMix = true,
			EnableSplitToning = true,
			EnableVignettes = true,
			Exposure = 0.58,
			FillLight = 14,
			GreenHue = 65,
			GreenSaturation = 38,
			HighlightRecovery = 50,
			HueAdjustmentAqua = -43,
			HueAdjustmentBlue = 25,
			HueAdjustmentGreen = 0,
			HueAdjustmentMagenta = 0,
			HueAdjustmentOrange = -39,
			HueAdjustmentPurple = 1,
			HueAdjustmentRed = -12,
			HueAdjustmentYellow = -60,
			IncrementalTemperature = -5,
			IncrementalTint = 50,
			LuminanceAdjustmentAqua = 0,
			LuminanceAdjustmentBlue = 0,
			LuminanceAdjustmentGreen = 0,
			LuminanceAdjustmentMagenta = 0,
			LuminanceAdjustmentOrange = 0,
			LuminanceAdjustmentPurple = 0,
			LuminanceAdjustmentRed = 0,
			LuminanceAdjustmentYellow = 0,
			LuminanceSmoothing = 27,
			ParametricDarks = -13,
			ParametricHighlightSplit = 75,
			ParametricHighlights = -48,
			ParametricLights = 0,
			ParametricMidtoneSplit = 50,
			ParametricShadowSplit = 25,
			ParametricShadows = 36,
			PostCropVignetteAmount = 0,
			PostCropVignetteFeather = 50,
			PostCropVignetteMidpoint = 50,
			PostCropVignetteRoundness = 0,
			RedHue = 7,
			RedSaturation = -69,
			Saturation = -15,
			SaturationAdjustmentAqua = 38,
			SaturationAdjustmentBlue = 39,
			SaturationAdjustmentGreen = -45,
			SaturationAdjustmentMagenta = 0,
			SaturationAdjustmentOrange = -43,
			SaturationAdjustmentPurple = -28,
			SaturationAdjustmentRed = -12,
			SaturationAdjustmentYellow = -49,
			ShadowTint = 42,
			Shadows = 4,
			SharpenDetail = 25,
			SharpenEdgeMasking = 0,
			SharpenRadius = 1,
			Sharpness = 17,
			SplitToningBalance = 38,
			SplitToningHighlightHue = 63,
			SplitToningHighlightSaturation = 48,
			SplitToningShadowHue = 247,
			SplitToningShadowSaturation = 36,
			ToneCurve = {
				0,
				0,
				255,
				255,
			},
			ToneCurveName = "Linear",
			Vibrance = 7,
			VignetteAmount = 84,
			VignetteMidpoint = 17,
			WhiteBalance = "Custom",
		},
		uuid = "A7A3C5A1-8A39-4085-B744-A649221FE705",
	},
	version = 0,
}
