Best Of JPG/U - LilaBlue.lrtemplate
s = {
	id = "419AE241-C46E-41EA-9142-08C1D78EB269",
	internalName = "** LilaBlue **",
	title = "U - LilaBlue",
	type = "Develop",
	value = {
		settings = {
			AutoBrightness = false,
			AutoContrast = false,
			AutoExposure = false,
			AutoShadows = false,
			BlueHue = 0,
			BlueSaturation = 0,
			Brightness = 0,
			CameraProfile = "Embedded",
			Clarity = -5,
			ColorNoiseReduction = 0,
			Contrast = 8,
			ConvertToGrayscale = false,
			EnableCalibration = true,
			EnableColorAdjustments = true,
			EnableDetail = true,
			EnableGradientBasedCorrections = true,
			EnableGrayscaleMix = true,
			EnableSplitToning = true,
			EnableVignettes = true,
			Exposure = 0,
			FillLight = 16,
			GreenHue = 0,
			GreenSaturation = 0,
			HighlightRecovery = 0,
			HueAdjustmentAqua = 70,
			HueAdjustmentBlue = -55,
			HueAdjustmentGreen = -13,
			HueAdjustmentMagenta = 80,
			HueAdjustmentOrange = 5,
			HueAdjustmentPurple = 6,
			HueAdjustmentRed = 0,
			HueAdjustmentYellow = 70,
			LuminanceAdjustmentAqua = 0,
			LuminanceAdjustmentBlue = 0,
			LuminanceAdjustmentGreen = 0,
			LuminanceAdjustmentMagenta = 0,
			LuminanceAdjustmentOrange = 0,
			LuminanceAdjustmentPurple = 0,
			LuminanceAdjustmentRed = 0,
			LuminanceAdjustmentYellow = 0,
			LuminanceSmoothing = 31,
			ParametricDarks = 40,
			ParametricHighlightSplit = 75,
			ParametricHighlights = 0,
			ParametricLights = -3,
			ParametricMidtoneSplit = 50,
			ParametricShadowSplit = 25,
			ParametricShadows = -17,
			PostCropVignetteAmount = 0,
			PostCropVignetteFeather = 50,
			PostCropVignetteMidpoint = 50,
			PostCropVignetteRoundness = 0,
			RedHue = 0,
			RedSaturation = 0,
			Saturation = -32,
			SaturationAdjustmentAqua = 0,
			SaturationAdjustmentBlue = -4,
			SaturationAdjustmentGreen = 28,
			SaturationAdjustmentMagenta = 0,
			SaturationAdjustmentOrange = 0,
			SaturationAdjustmentPurple = -6,
			SaturationAdjustmentRed = 9,
			SaturationAdjustmentYellow = 0,
			ShadowTint = 0,
			Shadows = 5,
			SharpenDetail = 25,
			SharpenEdgeMasking = 0,
			SharpenRadius = 1,
			Sharpness = 17,
			SplitToningBalance = 15,
			SplitToningHighlightHue = 48,
			SplitToningHighlightSaturation = 56,
			SplitToningShadowHue = 277,
			SplitToningShadowSaturation = 38,
			ToneCurve = {
				0,
				0,
				255,
				255,
			},
			ToneCurveName = "Linear",
			Vibrance = 51,
			VignetteAmount = 0,
			VignetteMidpoint = 50,
			WhiteBalance = "As Shot",
		},
		uuid = "7C97ECED-CD8A-4370-B4C2-8BFF01006D82",
	},
	version = 0,
}
