Best Of JPG/U - Highlights Cold.lrtemplate
s = {
	id = "C6D0B233-F210-4ED4-8D6A-CCB5C45F65D7",
	internalName = "Highlights - Cold",
	title = "U - Highlights Cold",
	type = "Develop",
	value = {
		settings = {
			AutoBrightness = false,
			AutoContrast = false,
			AutoExposure = false,
			AutoShadows = false,
			BlueHue = 0,
			BlueSaturation = 0,
			Brightness = 22,
			CameraProfile = "Embedded",
			ChromaticAberrationB = 0,
			ChromaticAberrationR = 0,
			Clarity = -3,
			ColorNoiseReduction = 0,
			Contrast = 58,
			ConvertToGrayscale = false,
			Defringe = 0,
			EnableCalibration = true,
			EnableColorAdjustments = true,
			EnableDetail = true,
			EnableGradientBasedCorrections = true,
			EnableGrayscaleMix = true,
			EnableSplitToning = true,
			EnableVignettes = true,
			Exposure = 0.27,
			FillLight = 13,
			GreenHue = 0,
			GreenSaturation = 0,
			HighlightRecovery = 0,
			HueAdjustmentAqua = 20,
			HueAdjustmentBlue = 25,
			HueAdjustmentGreen = -59,
			HueAdjustmentMagenta = 25,
			HueAdjustmentOrange = 6,
			HueAdjustmentPurple = 38,
			HueAdjustmentRed = 0,
			HueAdjustmentYellow = -32,
			IncrementalTemperature = 13,
			IncrementalTint = 0,
			LuminanceAdjustmentAqua = 0,
			LuminanceAdjustmentBlue = 23,
			LuminanceAdjustmentGreen = 8,
			LuminanceAdjustmentMagenta = 0,
			LuminanceAdjustmentOrange = 0,
			LuminanceAdjustmentPurple = 0,
			LuminanceAdjustmentRed = 0,
			LuminanceAdjustmentYellow = -28,
			LuminanceSmoothing = 0,
			ParametricDarks = 0,
			ParametricHighlightSplit = 75,
			ParametricHighlights = 0,
			ParametricLights = 0,
			ParametricMidtoneSplit = 50,
			ParametricShadowSplit = 25,
			ParametricShadows = 0,
			PostCropVignetteAmount = -100,
			PostCropVignetteFeather = 71,
			PostCropVignetteMidpoint = 88,
			PostCropVignetteRoundness = -100,
			RedHue = 0,
			RedSaturation = 0,
			Saturation = -36,
			SaturationAdjustmentAqua = 0,
			SaturationAdjustmentBlue = 47,
			SaturationAdjustmentGreen = 26,
			SaturationAdjustmentMagenta = 0,
			SaturationAdjustmentOrange = -13,
			SaturationAdjustmentPurple = 0,
			SaturationAdjustmentRed = 0,
			SaturationAdjustmentYellow = 1,
			ShadowTint = 0,
			Shadows = 8,
			SharpenDetail = 25,
			SharpenEdgeMasking = 0,
			SharpenRadius = 1,
			Sharpness = 0,
			SplitToningBalance = 88,
			SplitToningHighlightHue = 33,
			SplitToningHighlightSaturation = 0,
			SplitToningShadowHue = 240,
			SplitToningShadowSaturation = 94,
			ToneCurve = {
				0,
				0,
				255,
				255,
			},
			ToneCurveName = "Linear",
			Vibrance = -1,
			VignetteAmount = -98,
			VignetteMidpoint = 50,
			WhiteBalance = "Custom",
		},
		uuid = "7BE1460A-E875-4ACD-9F75-7F323DB1D99D",
	},
	version = 0,
}
