wedding/Marilyn {RAW Pretty Preset}.lrtemplate
s = {
	id = "037A36E3-259B-44C6-8231-FA7083C6FFFA",
	internalName = "Marilyn {RAW Pretty Preset}",
	title = "Marilyn {RAW Pretty Preset}",
	type = "Develop",
	value = {
		settings = {
			AutoBrightness = false,
			AutoContrast = false,
			AutoExposure = false,
			AutoShadows = false,
			BlueHue = 0,
			BlueSaturation = 0,
			Brightness = 55,
			CameraProfile = "Adobe Standard",
			ChromaticAberrationB = 0,
			ChromaticAberrationR = 0,
			Clarity = 20,
			Contrast = 50,
			ConvertToGrayscale = true,
			Defringe = 0,
			EnableCalibration = true,
			EnableColorAdjustments = true,
			EnableDetail = true,
			EnableGradientBasedCorrections = true,
			EnableGrayscaleMix = true,
			EnableSplitToning = true,
			EnableVignettes = true,
			Exposure = 0.55,
			FillLight = 8,
			GrayMixerAqua = -15,
			GrayMixerBlue = 15,
			GrayMixerGreen = -15,
			GrayMixerMagenta = 5,
			GrayMixerOrange = -20,
			GrayMixerPurple = 20,
			GrayMixerRed = -15,
			GrayMixerYellow = -20,
			GreenHue = 0,
			GreenSaturation = 0,
			HighlightRecovery = 25,
			LuminanceSmoothing = 0,
			ParametricDarks = 0,
			ParametricHighlightSplit = 75,
			ParametricHighlights = 0,
			ParametricLights = 0,
			ParametricMidtoneSplit = 50,
			ParametricShadowSplit = 25,
			ParametricShadows = 0,
			PostCropVignetteAmount = 0,
			PostCropVignetteFeather = 50,
			PostCropVignetteMidpoint = 50,
			PostCropVignetteRoundness = 0,
			RedHue = 0,
			RedSaturation = 0,
			ShadowTint = 0,
			Shadows = 10,
			SharpenDetail = 25,
			SharpenEdgeMasking = 0,
			SharpenRadius = 1,
			Sharpness = 25,
			SplitToningBalance = 0,
			SplitToningHighlightHue = 50,
			SplitToningHighlightSaturation = 20,
			SplitToningShadowHue = 250,
			SplitToningShadowSaturation = 20,
			Temperature = 5200,
			Tint = 0,
			ToneCurve = {
				0,
				0,
				32,
				16,
				64,
				50,
				128,
				128,
				192,
				202,
				255,
				255,
			},
			ToneCurveName = "Strong Contrast",
			VignetteAmount = -15,
			VignetteMidpoint = 50,
			WhiteBalance = "Custom",
		},
		uuid = "2B225C15-31AD-4D75-9D6C-C011B8AE4D5A",
	},
	version = 0,
}
