日系風格/日式風格-3.lrtemplate
s = {
	id = "031DB646-C811-4E75-AFE4-94907410B537",
	internalName = "日式風格-3",
	title = "日式風格-3",
	type = "Develop",
	value = {
		settings = {
			AutoBrightness = false,
			AutoContrast = false,
			AutoExposure = false,
			AutoShadows = false,
			BlueHue = -33,
			BlueSaturation = 100,
			Brightness = 73,
			CameraProfile = "ACR 3.7",
			ChromaticAberrationB = 0,
			ChromaticAberrationR = 0,
			Clarity = 16,
			ColorNoiseReduction = 100,
			Contrast = 13,
			ConvertToGrayscale = false,
			Defringe = 0,
			EnableCalibration = true,
			EnableColorAdjustments = true,
			EnableDetail = true,
			EnableGrayscaleMix = true,
			EnableSplitToning = true,
			Exposure = -0.37,
			FillLight = 7,
			GreenHue = -16,
			GreenSaturation = 49,
			HighlightRecovery = 74,
			HueAdjustmentAqua = 0,
			HueAdjustmentBlue = -55,
			HueAdjustmentGreen = 20,
			HueAdjustmentMagenta = 0,
			HueAdjustmentOrange = 1,
			HueAdjustmentPurple = 0,
			HueAdjustmentRed = 0,
			HueAdjustmentYellow = 15,
			LuminanceAdjustmentAqua = 0,
			LuminanceAdjustmentBlue = 86,
			LuminanceAdjustmentGreen = 36,
			LuminanceAdjustmentMagenta = 0,
			LuminanceAdjustmentOrange = 100,
			LuminanceAdjustmentPurple = 0,
			LuminanceAdjustmentRed = 0,
			LuminanceAdjustmentYellow = -13,
			LuminanceSmoothing = 100,
			ParametricDarks = 100,
			ParametricHighlightSplit = 75,
			ParametricHighlights = 28,
			ParametricLights = 14,
			ParametricMidtoneSplit = 50,
			ParametricShadowSplit = 25,
			ParametricShadows = -47,
			RedHue = 7,
			RedSaturation = 28,
			Saturation = -21,
			SaturationAdjustmentAqua = 0,
			SaturationAdjustmentBlue = 20,
			SaturationAdjustmentGreen = -1,
			SaturationAdjustmentMagenta = 0,
			SaturationAdjustmentOrange = 36,
			SaturationAdjustmentPurple = 0,
			SaturationAdjustmentRed = 0,
			SaturationAdjustmentYellow = 6,
			ShadowTint = 0,
			Shadows = 0,
			SharpenDetail = 25,
			SharpenEdgeMasking = 0,
			SharpenRadius = 1,
			Sharpness = 25,
			SplitToningBalance = -100,
			SplitToningHighlightHue = 71,
			SplitToningHighlightSaturation = 0,
			SplitToningShadowHue = 360,
			SplitToningShadowSaturation = 8,
			Temperature = 4558,
			Tint = -31,
			ToneCurve = {
				0,
				0,
				32,
				22,
				64,
				56,
				128,
				128,
				192,
				196,
				255,
				255,
			},
			ToneCurveName = "Medium Contrast",
			Vibrance = -28,
			VignetteAmount = 0,
			VignetteMidpoint = 100,
			WhiteBalance = "Custom",
		},
		uuid = "D9DF7927-9C3A-4A20-8C7C-118D97EF153A",
	},
	version = 0,
}
