User Presets/Split Tone/ST Brady Effect.lrtemplate
s = {
	internalName = "ST Brady Effect",
	title = "ST Brady Effect",
	type = "Develop",
	value = {
		settings = {
			AutoBrightness = false,
			AutoContrast = false,
			AutoExposure = false,
			AutoShadows = false,
			BlueHue = 0,
			BlueSaturation = 0,
			Brightness = 50,
			CameraProfile = "ACR 2.4",
			ChromaticAberrationB = 0,
			ChromaticAberrationR = 0,
			Contrast = 25,
			ConvertToGrayscale = true,
			EnableCalibration = true,
			EnableColorAdjustments = true,
			EnableDetail = true,
			EnableGrayscaleMix = true,
			EnableLensCorrections = true,
			EnableSplitToning = true,
			Exposure = 0,
			FillLight = 0,
			GrayMixerAqua = 63,
			GrayMixerBlue = 30,
			GrayMixerGreen = 33,
			GrayMixerMagenta = 67,
			GrayMixerOrange = 0,
			GrayMixerPurple = 0,
			GrayMixerRed = 37,
			GrayMixerYellow = 70,
			GreenHue = 0,
			GreenSaturation = 0,
			HighlightRecovery = 0,
			LuminanceSmoothing = 0,
			ParametricDarks = 0,
			ParametricHighlightSplit = 75,
			ParametricHighlights = 0,
			ParametricLights = 0,
			ParametricMidtoneSplit = 50,
			ParametricShadowSplit = 25,
			ParametricShadows = 0,
			RedHue = 0,
			RedSaturation = 0,
			ShadowTint = 0,
			Shadows = 5,
			Sharpness = 25,
			SplitToningBalance = 0,
			SplitToningHighlightHue = 0,
			SplitToningHighlightSaturation = 25,
			SplitToningShadowHue = 0,
			SplitToningShadowSaturation = 23,
			Temperature = 5050,
			Tint = -11,
			ToneCurve = {
				0,
				0,
				32,
				22,
				64,
				56,
				128,
				128,
				192,
				196,
				255,
				255,
			},
			VignetteAmount = -100,
			VignetteMidpoint = 50,
			WhiteBalance = "Custom",
		},
		uuid = "F5925BE3-9EA3-4843-9AEF-0AFED04DFCA9",
	},
	version = 0,
}
