Tabby Lewis' Presets/TL - Extra! Extra!.lrtemplate
s = {
	id = "D:\\My Documents\\My Pictures\\Lightroom\\Lightroom Settings\\Develop Presets\\Tabby Lewis' Presets\\Extra! Extra!.lrtemplate",
	internalName = "Extra! Extra!",
	title = "TL - Extra! Extra!",
	type = "Develop",
	value = {
		settings = {
			AutoBrightness = false,
			AutoContrast = false,
			AutoExposure = false,
			AutoShadows = false,
			Brightness = -19,
			Contrast = 63,
			ConvertToGrayscale = true,
			EnableColorAdjustments = true,
			EnableDetail = true,
			EnableGrayscaleMix = true,
			Exposure = 1.55,
			FillLight = 40,
			GrayMixerAqua = -18,
			GrayMixerBlue = 13,
			GrayMixerGreen = -28,
			GrayMixerMagenta = 5,
			GrayMixerOrange = -20,
			GrayMixerPurple = 18,
			GrayMixerRed = -10,
			GrayMixerYellow = -24,
			HighlightRecovery = 48,
			LuminanceSmoothing = 0,
			ParametricDarks = 0,
			ParametricHighlightSplit = 75,
			ParametricHighlights = 0,
			ParametricLights = 28,
			ParametricMidtoneSplit = 50,
			ParametricShadowSplit = 25,
			ParametricShadows = 0,
			Shadows = 51,
			SharpenDetail = 25,
			SharpenEdgeMasking = 0,
			SharpenRadius = 1,
			Sharpness = 28,
			ToneCurve = {
				0,
				0,
				255,
				255,
			},
			ToneCurveName = "Linear",
			VignetteAmount = -55,
			VignetteMidpoint = 8,
			WhiteBalance = "Auto",
		},
		uuid = "8051E496-6EA8-4406-A24A-A53149D3E021",
	},
	version = 0,
}
