Tabby Lewis' Presets/TL - Drama Queen.lrtemplate
s = {
	id = "D:\\My Documents\\My Pictures\\Lightroom\\Lightroom Settings\\Develop Presets\\Tabby Lewis' Presets\\Drama Queen.lrtemplate",
	internalName = "Drama Queen",
	title = "TL - Drama Queen",
	type = "Develop",
	value = {
		settings = {
			AutoBrightness = false,
			AutoContrast = false,
			AutoExposure = false,
			AutoShadows = false,
			Brightness = -19,
			ColorNoiseReduction = 44,
			Contrast = 59,
			ConvertToGrayscale = false,
			EnableColorAdjustments = true,
			EnableDetail = true,
			Exposure = 2.12,
			FillLight = 0,
			HighlightRecovery = 60,
			HueAdjustmentAqua = 0,
			HueAdjustmentBlue = 0,
			HueAdjustmentGreen = 0,
			HueAdjustmentMagenta = 0,
			HueAdjustmentOrange = 0,
			HueAdjustmentPurple = 0,
			HueAdjustmentRed = 0,
			HueAdjustmentYellow = 0,
			IncrementalTemperature = 0,
			IncrementalTint = -32,
			LuminanceAdjustmentAqua = 0,
			LuminanceAdjustmentBlue = 0,
			LuminanceAdjustmentGreen = 0,
			LuminanceAdjustmentMagenta = 0,
			LuminanceAdjustmentOrange = 0,
			LuminanceAdjustmentPurple = 0,
			LuminanceAdjustmentRed = 0,
			LuminanceAdjustmentYellow = 0,
			LuminanceSmoothing = 35,
			ParametricDarks = 0,
			ParametricHighlightSplit = 75,
			ParametricHighlights = 0,
			ParametricLights = 45,
			ParametricMidtoneSplit = 50,
			ParametricShadowSplit = 25,
			ParametricShadows = 88,
			Saturation = -4,
			SaturationAdjustmentAqua = 0,
			SaturationAdjustmentBlue = 0,
			SaturationAdjustmentGreen = 0,
			SaturationAdjustmentMagenta = 0,
			SaturationAdjustmentOrange = 0,
			SaturationAdjustmentPurple = 0,
			SaturationAdjustmentRed = 0,
			SaturationAdjustmentYellow = 0,
			Shadows = 48,
			SharpenDetail = 1,
			SharpenEdgeMasking = 2,
			SharpenRadius = 0.5,
			Sharpness = 18,
			ToneCurve = {
				0,
				0,
				255,
				255,
			},
			ToneCurveName = "Linear",
			Vibrance = -4,
			VignetteAmount = -74,
			VignetteMidpoint = 0,
			WhiteBalance = "Custom",
		},
		uuid = "4906384C-63CD-42BE-92DE-31085C9F61D8",
	},
	version = 0,
}
