User Presets/ALL/McDreamy.lrtemplate
s = {
	internalName = "McDreamy",
	title = "McDreamy",
	type = "Develop",
	value = {
		settings = {
			AutoBrightness = false,
			AutoContrast = false,
			AutoExposure = false,
			AutoShadows = false,
			BlueHue = 0,
			BlueSaturation = 39,
			Brightness = 0,
			CameraProfile = "Embedded",
			ChromaticAberrationB = 0,
			ChromaticAberrationR = 0,
			Clarity = 24,
			ColorNoiseReduction = 0,
			Contrast = 8,
			ConvertToGrayscale = false,
			Defringe = 0,
			EnableCalibration = true,
			EnableColorAdjustments = true,
			EnableDetail = true,
			EnableGrayscaleMix = true,
			EnableLensCorrections = true,
			EnableSplitToning = true,
			Exposure = 0.235,
			FillLight = 7,
			GreenHue = 0,
			GreenSaturation = 0,
			HighlightRecovery = 8,
			HueAdjustmentAqua = 0,
			HueAdjustmentBlue = 0,
			HueAdjustmentGreen = 0,
			HueAdjustmentMagenta = 0,
			HueAdjustmentOrange = 0,
			HueAdjustmentPurple = 0,
			HueAdjustmentRed = 0,
			HueAdjustmentYellow = 0,
			IncrementalTemperature = 32,
			IncrementalTint = 0,
			LuminanceAdjustmentAqua = 0,
			LuminanceAdjustmentBlue = 0,
			LuminanceAdjustmentGreen = 0,
			LuminanceAdjustmentMagenta = 0,
			LuminanceAdjustmentOrange = 0,
			LuminanceAdjustmentPurple = 0,
			LuminanceAdjustmentRed = 0,
			LuminanceAdjustmentYellow = 0,
			LuminanceSmoothing = 0,
			ParametricDarks = 18,
			ParametricHighlightSplit = 75,
			ParametricHighlights = 25,
			ParametricLights = 8,
			ParametricMidtoneSplit = 50,
			ParametricShadowSplit = 25,
			ParametricShadows = 0,
			RedHue = 0,
			RedSaturation = -100,
			Saturation = -48,
			SaturationAdjustmentAqua = 0,
			SaturationAdjustmentBlue = 0,
			SaturationAdjustmentGreen = 0,
			SaturationAdjustmentMagenta = 0,
			SaturationAdjustmentOrange = 0,
			SaturationAdjustmentPurple = 0,
			SaturationAdjustmentRed = 0,
			SaturationAdjustmentYellow = 0,
			ShadowTint = 0,
			Shadows = 12,
			SharpenDetail = 25,
			SharpenEdgeMasking = 0,
			SharpenRadius = 1,
			Sharpness = 16,
			SplitToningBalance = 0,
			SplitToningHighlightHue = 17,
			SplitToningHighlightSaturation = 0,
			SplitToningShadowHue = 25,
			SplitToningShadowSaturation = 0,
			ToneCurve = {
				0,
				0,
				255,
				255,
			},
			ToneCurveName = "Linear",
			Vibrance = -4,
			VignetteAmount = -100,
			VignetteMidpoint = 19,
			WhiteBalance = "Custom",
		},
		uuid = "5FE0ECFD-267E-41BD-8A71-6E46EB584E28",
	},
	version = 0,
}
