Abby Presets/Abby's HiKey LoSat Wash.lrtemplate
s = {
	id = "94E35DC7-4CEC-4D59-996E-394455105DEC",
	internalName = "Abby's HiKey LoSat Wash",
	title = "Abby's HiKey LoSat Wash",
	type = "Develop",
	value = {
		settings = {
			AutoBrightness = false,
			AutoContrast = false,
			AutoExposure = false,
			AutoShadows = false,
			BlueHue = 0,
			BlueSaturation = 0,
			Brightness = 10,
			CameraProfile = "ACR 2.4",
			ChromaticAberrationB = 0,
			ChromaticAberrationR = 0,
			Clarity = 65,
			ColorNoiseReduction = 20,
			Contrast = 35,
			ConvertToGrayscale = false,
			Defringe = 0,
			EnableCalibration = true,
			EnableColorAdjustments = true,
			EnableDetail = true,
			EnableGrayscaleMix = true,
			EnableSplitToning = true,
			EnableVignettes = true,
			Exposure = 2,
			FillLight = 20,
			GreenHue = 0,
			GreenSaturation = 0,
			HighlightRecovery = 50,
			HueAdjustmentAqua = 0,
			HueAdjustmentBlue = 0,
			HueAdjustmentGreen = 0,
			HueAdjustmentMagenta = 0,
			HueAdjustmentOrange = 0,
			HueAdjustmentPurple = 0,
			HueAdjustmentRed = 0,
			HueAdjustmentYellow = 0,
			LuminanceAdjustmentAqua = 0,
			LuminanceAdjustmentBlue = 0,
			LuminanceAdjustmentGreen = 0,
			LuminanceAdjustmentMagenta = 0,
			LuminanceAdjustmentOrange = -1,
			LuminanceAdjustmentPurple = 0,
			LuminanceAdjustmentRed = 0,
			LuminanceAdjustmentYellow = 0,
			LuminanceSmoothing = 20,
			ParametricDarks = -29,
			ParametricHighlightSplit = 75,
			ParametricHighlights = 18,
			ParametricLights = 11,
			ParametricMidtoneSplit = 50,
			ParametricShadowSplit = 25,
			ParametricShadows = -6,
			PostCropVignetteAmount = -31,
			PostCropVignetteMidpoint = 90,
			RedHue = 0,
			RedSaturation = 0,
			Saturation = -45,
			SaturationAdjustmentAqua = 48,
			SaturationAdjustmentBlue = 40,
			SaturationAdjustmentGreen = 33,
			SaturationAdjustmentMagenta = 0,
			SaturationAdjustmentOrange = -10,
			SaturationAdjustmentPurple = 0,
			SaturationAdjustmentRed = -7,
			SaturationAdjustmentYellow = 0,
			ShadowTint = 0,
			Shadows = 20,
			SharpenDetail = 25,
			SharpenEdgeMasking = 0,
			SharpenRadius = 0.9,
			Sharpness = 0,
			SplitToningBalance = -10,
			SplitToningHighlightHue = 77,
			SplitToningHighlightSaturation = 25,
			SplitToningShadowHue = 178,
			SplitToningShadowSaturation = 36,
			ToneCurve = {
				0,
				0,
				32,
				22,
				64,
				56,
				128,
				128,
				192,
				196,
				255,
				255,
			},
			ToneCurveName = "Medium Contrast",
			Vibrance = 80,
			VignetteAmount = 86,
			VignetteMidpoint = 73,
			WhiteBalance = "As Shot",
		},
		uuid = "E033FE23-B4B1-471C-985F-20F63F13ED1D",
	},
	version = 0,
}
