Abby Presets/Hyper Reality.lrtemplate
s = {
	id = "A880A80E-F563-462A-9D4B-EE2928E3CB15",
	internalName = "Hyper Reality",
	title = "Hyper Reality",
	type = "Develop",
	value = {
		settings = {
			AutoBrightness = false,
			AutoContrast = false,
			AutoExposure = false,
			AutoShadows = false,
			BlueHue = 0,
			BlueSaturation = 0,
			Brightness = -43,
			CameraProfile = "Embedded",
			ChromaticAberrationB = 0,
			ChromaticAberrationR = 0,
			Clarity = 19,
			ColorNoiseReduction = 0,
			Contrast = 0,
			ConvertToGrayscale = false,
			Defringe = 0,
			EnableCalibration = true,
			EnableColorAdjustments = true,
			EnableDetail = true,
			EnableGrayscaleMix = true,
			EnableSplitToning = true,
			EnableVignettes = true,
			Exposure = 0.48,
			FillLight = 27,
			GreenHue = 0,
			GreenSaturation = 0,
			HighlightRecovery = 93,
			HueAdjustmentAqua = 0,
			HueAdjustmentBlue = 0,
			HueAdjustmentGreen = 0,
			HueAdjustmentMagenta = 0,
			HueAdjustmentOrange = 0,
			HueAdjustmentPurple = 0,
			HueAdjustmentRed = 0,
			HueAdjustmentYellow = 0,
			LuminanceAdjustmentAqua = 0,
			LuminanceAdjustmentBlue = 0,
			LuminanceAdjustmentGreen = 0,
			LuminanceAdjustmentMagenta = 0,
			LuminanceAdjustmentOrange = 0,
			LuminanceAdjustmentPurple = 0,
			LuminanceAdjustmentRed = 0,
			LuminanceAdjustmentYellow = 0,
			LuminanceSmoothing = 0,
			ParametricDarks = -20,
			ParametricHighlightSplit = 75,
			ParametricHighlights = 60,
			ParametricLights = 10,
			ParametricMidtoneSplit = 50,
			ParametricShadowSplit = 25,
			ParametricShadows = -60,
			PostCropVignetteAmount = -75,
			PostCropVignetteMidpoint = 75,
			RedHue = 0,
			RedSaturation = 0,
			Saturation = 0,
			SaturationAdjustmentAqua = 50,
			SaturationAdjustmentBlue = 58,
			SaturationAdjustmentGreen = 10,
			SaturationAdjustmentMagenta = 0,
			SaturationAdjustmentOrange = 13,
			SaturationAdjustmentPurple = 23,
			SaturationAdjustmentRed = 0,
			SaturationAdjustmentYellow = 23,
			ShadowTint = 0,
			Shadows = 5,
			SharpenDetail = 25,
			SharpenEdgeMasking = 0,
			SharpenRadius = 1,
			Sharpness = 0,
			SplitToningBalance = 0,
			SplitToningHighlightHue = 37,
			SplitToningHighlightSaturation = 61,
			SplitToningShadowHue = 254,
			SplitToningShadowSaturation = 45,
			ToneCurve = {
				0,
				0,
				255,
				255,
			},
			ToneCurveName = "Linear",
			Vibrance = 0,
			VignetteAmount = 0,
			VignetteMidpoint = 50,
		},
		uuid = "132B52F0-464A-4A3A-AD77-8C7AD6F60871",
	},
	version = 0,
}
