onOne Toners/Toners-Four Leaf Clover.lrtemplate
s = {
	id = "A93C0A9F-A670-4607-8CF2-FF4C2000A282",
	internalName = "Toners-Four Leaf Clover",
	title = "Toners-Four Leaf Clover",
	type = "Develop",
	value = {
		settings = {
			Blacks2012 = -3,
			Contrast2012 = 52,
			ConvertToGrayscale = true,
			EnableGrayscaleMix = true,
			EnableSplitToning = true,
			GrayMixerAqua = -18,
			GrayMixerBlue = 50,
			GrayMixerGreen = -26,
			GrayMixerMagenta = 3,
			GrayMixerOrange = -40,
			GrayMixerPurple = 28,
			GrayMixerRed = -22,
			GrayMixerYellow = -18,
			Highlights2012 = 27,
			ParametricDarks = 0,
			ParametricHighlightSplit = 75,
			ParametricHighlights = 0,
			ParametricLights = 0,
			ParametricMidtoneSplit = 50,
			ParametricShadowSplit = 25,
			ParametricShadows = 0,
			ProcessVersion = "6.7",
			Shadows2012 = 83,
			SplitToningBalance = 0,
			SplitToningHighlightHue = 0,
			SplitToningHighlightSaturation = 0,
			SplitToningShadowHue = 84,
			SplitToningShadowSaturation = 27,
			ToneCurveName2012 = "Medium Contrast",
			ToneCurvePV2012 = {
				0,
				0,
				32,
				22,
				64,
				56,
				128,
				128,
				192,
				196,
				255,
				255,
			},
			ToneCurvePV2012Blue = {
				0,
				0,
				255,
				255,
			},
			ToneCurvePV2012Green = {
				0,
				0,
				255,
				255,
			},
			ToneCurvePV2012Red = {
				0,
				0,
				255,
				255,
			},
		},
		uuid = "8E16AF97-CDEB-45B4-A87B-08E2DCD3C8D4",
	},
	version = 0,
}
