onOne Toners/Toners-Light Mocha.lrtemplate
s = {
	id = "DFE17DAE-6240-4CB6-85ED-B41D5B065404",
	internalName = "Toners-Light Mocha",
	title = "Toners-Light Mocha",
	type = "Develop",
	value = {
		settings = {
			Blacks2012 = 0,
			Contrast2012 = 0,
			ConvertToGrayscale = true,
			EnableGrayscaleMix = true,
			EnableSplitToning = true,
			GrayMixerAqua = -18,
			GrayMixerBlue = 9,
			GrayMixerGreen = -27,
			GrayMixerMagenta = 3,
			GrayMixerOrange = -19,
			GrayMixerPurple = 15,
			GrayMixerRed = -10,
			GrayMixerYellow = -23,
			Highlights2012 = 0,
			ParametricDarks = -5,
			ParametricHighlightSplit = 75,
			ParametricHighlights = 0,
			ParametricLights = 5,
			ParametricMidtoneSplit = 50,
			ParametricShadowSplit = 25,
			ParametricShadows = 0,
			ProcessVersion = "6.7",
			Shadows2012 = 0,
			SplitToningBalance = -59,
			SplitToningHighlightHue = 0,
			SplitToningHighlightSaturation = 0,
			SplitToningShadowHue = 37,
			SplitToningShadowSaturation = 25,
			ToneCurveName2012 = "Strong Contrast",
			ToneCurvePV2012 = {
				0,
				0,
				32,
				16,
				64,
				50,
				128,
				128,
				192,
				202,
				255,
				255,
			},
			ToneCurvePV2012Blue = {
				0,
				0,
				255,
				255,
			},
			ToneCurvePV2012Green = {
				0,
				0,
				255,
				255,
			},
			ToneCurvePV2012Red = {
				0,
				0,
				255,
				255,
			},
		},
		uuid = "1DF2363E-780A-4C26-9711-D980D505BF0D",
	},
	version = 0,
}
