onOne Toners/Toners-Red Velvet.lrtemplate
s = {
	id = "9518E157-E5A4-4C4C-89A4-3D437E77AD9D",
	internalName = "Toners-My Beloved",
	title = "Toners-Red Velvet",
	type = "Develop",
	value = {
		settings = {
			Blacks2012 = -3,
			Contrast2012 = 52,
			ConvertToGrayscale = true,
			EnableGrayscaleMix = true,
			EnableSplitToning = true,
			GrayMixerAqua = -18,
			GrayMixerBlue = 50,
			GrayMixerGreen = -26,
			GrayMixerMagenta = 3,
			GrayMixerOrange = -40,
			GrayMixerPurple = 28,
			GrayMixerRed = -22,
			GrayMixerYellow = -18,
			Highlights2012 = 27,
			ParametricDarks = 0,
			ParametricHighlightSplit = 75,
			ParametricHighlights = 0,
			ParametricLights = 0,
			ParametricMidtoneSplit = 50,
			ParametricShadowSplit = 25,
			ParametricShadows = 0,
			ProcessVersion = "6.7",
			Shadows2012 = 85,
			SplitToningBalance = 0,
			SplitToningHighlightHue = 0,
			SplitToningHighlightSaturation = 0,
			SplitToningShadowHue = 10,
			SplitToningShadowSaturation = 22,
			ToneCurveName2012 = "Medium Contrast",
			ToneCurvePV2012 = {
				0,
				0,
				32,
				22,
				64,
				56,
				128,
				128,
				192,
				196,
				255,
				255,
			},
			ToneCurvePV2012Blue = {
				0,
				0,
				255,
				255,
			},
			ToneCurvePV2012Green = {
				0,
				0,
				255,
				255,
			},
			ToneCurvePV2012Red = {
				0,
				0,
				255,
				255,
			},
		},
		uuid = "53988ED8-7101-4503-A7C3-96DE51999E7D",
	},
	version = 0,
}
