User Presets/1-Seim Effects Super Hero AUTO J.lrtemplate
s = {
	id = "94D4B46F-15E6-45B4-9C6C-E9A6DBDA18D0",
	internalName = "1-Seim Effects Super Hero AUTO J",
	title = "1-Seim Effects Super Hero AUTO J",
	type = "Develop",
	value = {
		settings = {
			AutoBrightness = false,
			AutoContrast = false,
			AutoExposure = false,
			AutoShadows = false,
			AutoTone = true,
			Clarity = 10,
			ConvertToGrayscale = false,
			EnableColorAdjustments = true,
			EnableGradientBasedCorrections = true,
			EnableGrayscaleMix = true,
			EnableSplitToning = true,
			HueAdjustmentAqua = 0,
			HueAdjustmentBlue = 0,
			HueAdjustmentGreen = 0,
			HueAdjustmentMagenta = 0,
			HueAdjustmentOrange = 0,
			HueAdjustmentPurple = 0,
			HueAdjustmentRed = 0,
			HueAdjustmentYellow = 0,
			LuminanceAdjustmentAqua = 4,
			LuminanceAdjustmentBlue = 8,
			LuminanceAdjustmentGreen = 5,
			LuminanceAdjustmentMagenta = -1,
			LuminanceAdjustmentOrange = 15,
			LuminanceAdjustmentPurple = 0,
			LuminanceAdjustmentRed = -15,
			LuminanceAdjustmentYellow = 16,
			ParametricDarks = 10,
			ParametricHighlightSplit = 75,
			ParametricHighlights = -18,
			ParametricLights = 10,
			ParametricMidtoneSplit = 50,
			ParametricShadowSplit = 25,
			ParametricShadows = -12,
			Saturation = 20,
			SaturationAdjustmentAqua = 0,
			SaturationAdjustmentBlue = 17,
			SaturationAdjustmentGreen = 9,
			SaturationAdjustmentMagenta = 0,
			SaturationAdjustmentOrange = 21,
			SaturationAdjustmentPurple = 0,
			SaturationAdjustmentRed = 0,
			SaturationAdjustmentYellow = 13,
			SplitToningBalance = 0,
			SplitToningHighlightHue = 0,
			SplitToningHighlightSaturation = 0,
			SplitToningShadowHue = 0,
			SplitToningShadowSaturation = 0,
			ToneCurve = {
				0,
				0,
				255,
				255,
			},
			ToneCurveName = "Linear",
			Vibrance = 10,
			WhiteBalance = "Auto",
		},
		uuid = "333055B5-D7F3-40E0-A796-7F12B8D4C0DF",
	},
	version = 0,
}
