User Presets/1-Seim Effects Super Hero AUTO.lrtemplate
s = {
	id = "BD461B8E-B9B8-4FDB-8EA2-2924138FAF02",
	internalName = "1-Seim Effects Super Hero AUTO",
	title = "1-Seim Effects Super Hero AUTO",
	type = "Develop",
	value = {
		settings = {
			AutoBrightness = false,
			AutoContrast = false,
			AutoExposure = false,
			AutoShadows = false,
			AutoTone = true,
			Clarity = 18,
			ConvertToGrayscale = false,
			EnableColorAdjustments = true,
			EnableGradientBasedCorrections = true,
			EnableGrayscaleMix = true,
			EnableSplitToning = true,
			HueAdjustmentAqua = 0,
			HueAdjustmentBlue = 0,
			HueAdjustmentGreen = 0,
			HueAdjustmentMagenta = 0,
			HueAdjustmentOrange = 0,
			HueAdjustmentPurple = 0,
			HueAdjustmentRed = 0,
			HueAdjustmentYellow = 0,
			LuminanceAdjustmentAqua = 4,
			LuminanceAdjustmentBlue = 8,
			LuminanceAdjustmentGreen = 5,
			LuminanceAdjustmentMagenta = -1,
			LuminanceAdjustmentOrange = 15,
			LuminanceAdjustmentPurple = 0,
			LuminanceAdjustmentRed = -15,
			LuminanceAdjustmentYellow = 16,
			ParametricDarks = 28,
			ParametricHighlightSplit = 75,
			ParametricHighlights = -18,
			ParametricLights = 22,
			ParametricMidtoneSplit = 50,
			ParametricShadowSplit = 25,
			ParametricShadows = -12,
			Saturation = 20,
			SaturationAdjustmentAqua = 0,
			SaturationAdjustmentBlue = 17,
			SaturationAdjustmentGreen = 9,
			SaturationAdjustmentMagenta = 0,
			SaturationAdjustmentOrange = 21,
			SaturationAdjustmentPurple = 0,
			SaturationAdjustmentRed = 0,
			SaturationAdjustmentYellow = 13,
			SplitToningBalance = 0,
			SplitToningHighlightHue = 0,
			SplitToningHighlightSaturation = 0,
			SplitToningShadowHue = 0,
			SplitToningShadowSaturation = 0,
			ToneCurve = {
				0,
				0,
				32,
				22,
				64,
				56,
				128,
				128,
				192,
				196,
				255,
				255,
			},
			ToneCurveName = "Medium Contrast",
			Vibrance = 10,
			WhiteBalance = "Auto",
		},
		uuid = "9EE607FA-B717-4108-9673-2A0C291E5359",
	},
	version = 0,
}
