User Presets/7-Seim Effects Sepia Light J.lrtemplate
s = {
	id = "648795EF-5BC4-486D-9BB0-94D3B26F95E9",
	internalName = "7-Seim Effects Sepia Light J",
	title = "7-Seim Effects Sepia Light J",
	type = "Develop",
	value = {
		settings = {
			AutoBrightness = false,
			AutoContrast = false,
			AutoExposure = false,
			AutoShadows = false,
			Brightness = 65,
			Clarity = 0,
			Contrast = 35,
			ConvertToGrayscale = false,
			EnableColorAdjustments = true,
			EnableGrayscaleMix = true,
			EnableSplitToning = true,
			Exposure = 0.2,
			FillLight = 17,
			HighlightRecovery = 26,
			HueAdjustmentAqua = 0,
			HueAdjustmentBlue = 0,
			HueAdjustmentGreen = 0,
			HueAdjustmentMagenta = 0,
			HueAdjustmentOrange = 0,
			HueAdjustmentPurple = 0,
			HueAdjustmentRed = 0,
			HueAdjustmentYellow = 0,
			IncrementalTemperature = -7,
			IncrementalTint = 2,
			LuminanceAdjustmentAqua = -77,
			LuminanceAdjustmentBlue = -100,
			LuminanceAdjustmentGreen = 38,
			LuminanceAdjustmentMagenta = 0,
			LuminanceAdjustmentOrange = 32,
			LuminanceAdjustmentPurple = -62,
			LuminanceAdjustmentRed = 89,
			LuminanceAdjustmentYellow = -17,
			ParametricDarks = -2,
			ParametricHighlightSplit = 75,
			ParametricHighlights = -9,
			ParametricLights = 0,
			ParametricMidtoneSplit = 50,
			ParametricShadowSplit = 25,
			ParametricShadows = 23,
			Saturation = -100,
			SaturationAdjustmentAqua = -100,
			SaturationAdjustmentBlue = -100,
			SaturationAdjustmentGreen = -100,
			SaturationAdjustmentMagenta = -100,
			SaturationAdjustmentOrange = -100,
			SaturationAdjustmentPurple = -100,
			SaturationAdjustmentRed = -100,
			SaturationAdjustmentYellow = -100,
			Shadows = 10,
			SplitToningBalance = -100,
			SplitToningHighlightHue = 40,
			SplitToningHighlightSaturation = 20,
			SplitToningShadowHue = 40,
			SplitToningShadowSaturation = 23,
			ToneCurve = {
				0,
				0,
				255,
				255,
			},
			ToneCurveName = "Medium Contrast",
			Vibrance = 100,
			VignetteAmount = -93,
			VignetteMidpoint = 48,
			WhiteBalance = "Custom",
		},
		uuid = "5CD5611A-791B-45C1-8B74-E13754558831",
	},
	version = 0,
}
