User Presets/Agfapan 400.lrtemplate
s = {
	id = "EE686C34-C973-4E1C-9F42-97257B638846",
	internalName = "Agfapan 400",
	title = "Agfapan 400",
	type = "Develop",
	value = {
		settings = {
			AutoBrightness = false,
			AutoContrast = false,
			AutoExposure = false,
			AutoShadows = false,
			Brightness = 50,
			Clarity = 25,
			Contrast = 50,
			ConvertToGrayscale = true,
			EnableColorAdjustments = true,
			EnableDetail = true,
			EnableGrayscaleMix = true,
			Exposure = 0,
			FillLight = 0,
			GrayMixerAqua = 0,
			GrayMixerBlue = 39,
			GrayMixerGreen = 41,
			GrayMixerMagenta = 0,
			GrayMixerOrange = 0,
			GrayMixerPurple = 0,
			GrayMixerRed = 20,
			GrayMixerYellow = 0,
			HighlightRecovery = 19,
			LuminanceSmoothing = 0,
			ParametricDarks = -13,
			ParametricHighlightSplit = 75,
			ParametricHighlights = 36,
			ParametricLights = 9,
			ParametricMidtoneSplit = 50,
			ParametricShadowSplit = 25,
			ParametricShadows = 0,
			Shadows = 5,
			SharpenDetail = 46,
			SharpenEdgeMasking = 0,
			SharpenRadius = 0.5,
			Sharpness = 98,
			ToneCurve = {
				0,
				0,
				32,
				16,
				64,
				50,
				128,
				128,
				192,
				202,
				255,
				255,
			},
			ToneCurveName = "Strong Contrast",
		},
		uuid = "E7090263-A4D1-43C4-83C2-409ACFC888DF",
	},
	version = 0,
}
