User Presets/Angels Light.lrtemplate
s = {
	id = "A6E24A05-FB7F-4368-A5CB-A2CBE5946FEA",
	internalName = "Angels Light",
	title = "Angels Light",
	type = "Develop",
	value = {
		settings = {
			AutoBrightness = false,
			AutoContrast = false,
			AutoExposure = false,
			AutoShadows = false,
			BlueHue = -1,
			BlueSaturation = 22,
			Brightness = -60,
			CameraProfile = "Embedded",
			ChromaticAberrationB = 0,
			ChromaticAberrationR = 0,
			Clarity = 3,
			ColorNoiseReduction = 0,
			Contrast = -3,
			ConvertToGrayscale = false,
			Defringe = 0,
			EnableCalibration = true,
			EnableColorAdjustments = true,
			EnableDetail = true,
			EnableGrayscaleMix = true,
			EnableSplitToning = true,
			EnableVignettes = true,
			Exposure = 1.05,
			FillLight = 19,
			GreenHue = 38,
			GreenSaturation = 0,
			HighlightRecovery = 20,
			HueAdjustmentAqua = 0,
			HueAdjustmentBlue = -11,
			HueAdjustmentGreen = -6,
			HueAdjustmentMagenta = 0,
			HueAdjustmentOrange = 0,
			HueAdjustmentPurple = 0,
			HueAdjustmentRed = 0,
			HueAdjustmentYellow = 0,
			IncrementalTemperature = 5,
			IncrementalTint = 7,
			LuminanceAdjustmentAqua = 0,
			LuminanceAdjustmentBlue = 22,
			LuminanceAdjustmentGreen = 32,
			LuminanceAdjustmentMagenta = 0,
			LuminanceAdjustmentOrange = 11,
			LuminanceAdjustmentPurple = 0,
			LuminanceAdjustmentRed = 0,
			LuminanceAdjustmentYellow = 0,
			LuminanceSmoothing = 50,
			ParametricDarks = 0,
			ParametricHighlightSplit = 89,
			ParametricHighlights = -18,
			ParametricLights = 17,
			ParametricMidtoneSplit = 67,
			ParametricShadowSplit = 25,
			ParametricShadows = -59,
			PostCropVignetteAmount = -11,
			PostCropVignetteFeather = 50,
			PostCropVignetteMidpoint = 50,
			PostCropVignetteRoundness = 0,
			RedHue = 0,
			RedSaturation = -30,
			Saturation = -20,
			SaturationAdjustmentAqua = 0,
			SaturationAdjustmentBlue = 42,
			SaturationAdjustmentGreen = 26,
			SaturationAdjustmentMagenta = 0,
			SaturationAdjustmentOrange = -32,
			SaturationAdjustmentPurple = 0,
			SaturationAdjustmentRed = 0,
			SaturationAdjustmentYellow = 0,
			ShadowTint = -3,
			Shadows = 0,
			SharpenDetail = 25,
			SharpenEdgeMasking = 0,
			SharpenRadius = 1,
			Sharpness = 25,
			SplitToningBalance = 65,
			SplitToningHighlightHue = 45,
			SplitToningHighlightSaturation = 25,
			SplitToningShadowHue = 215,
			SplitToningShadowSaturation = 53,
			ToneCurve = {
				0,
				0,
				32,
				22,
				64,
				56,
				128,
				128,
				192,
				196,
				255,
				255,
			},
			ToneCurveName = "Medium Contrast",
			Vibrance = 7,
			VignetteAmount = -100,
			VignetteMidpoint = 23,
			WhiteBalance = "Custom",
		},
		uuid = "33479115-27F6-460F-B973-9000EDD483E9",
	},
	version = 0,
}
