User Presets/Dark Beauty.lrtemplate
s = {
	internalName = "Dark Beauty",
	title = "Dark Beauty",
	type = "Develop",
	value = {
		settings = {
			AutoBrightness = false,
			AutoContrast = false,
			AutoExposure = false,
			AutoShadows = false,
			BlueHue = 0,
			BlueSaturation = 31,
			Brightness = 0,
			CameraProfile = "Embedded",
			ChromaticAberrationB = 0,
			ChromaticAberrationR = 0,
			Contrast = 67,
			ConvertToGrayscale = false,
			Defringe = 0,
			EnableCalibration = true,
			EnableColorAdjustments = true,
			EnableGrayscaleMix = true,
			EnableLensCorrections = true,
			EnableSplitToning = true,
			Exposure = 0.8,
			FillLight = 0,
			GreenHue = 0,
			GreenSaturation = -88,
			HighlightRecovery = 21,
			HueAdjustmentAqua = 0,
			HueAdjustmentBlue = 25,
			HueAdjustmentGreen = 0,
			HueAdjustmentMagenta = 20,
			HueAdjustmentOrange = 0,
			HueAdjustmentPurple = 0,
			HueAdjustmentRed = -8,
			HueAdjustmentYellow = -6,
			IncrementalTemperature = 8,
			IncrementalTint = 11,
			LuminanceAdjustmentAqua = 0,
			LuminanceAdjustmentBlue = 0,
			LuminanceAdjustmentGreen = 0,
			LuminanceAdjustmentMagenta = 0,
			LuminanceAdjustmentOrange = 0,
			LuminanceAdjustmentPurple = 0,
			LuminanceAdjustmentRed = 0,
			LuminanceAdjustmentYellow = 0,
			ParametricDarks = -1,
			ParametricHighlightSplit = 75,
			ParametricHighlights = -4,
			ParametricLights = -6,
			ParametricMidtoneSplit = 50,
			ParametricShadowSplit = 25,
			ParametricShadows = -6,
			RedHue = 0,
			RedSaturation = -23,
			Saturation = -39,
			SaturationAdjustmentAqua = 0,
			SaturationAdjustmentBlue = -22,
			SaturationAdjustmentGreen = -55,
			SaturationAdjustmentMagenta = 18,
			SaturationAdjustmentOrange = 34,
			SaturationAdjustmentPurple = 0,
			SaturationAdjustmentRed = 55,
			SaturationAdjustmentYellow = 0,
			ShadowTint = 0,
			Shadows = 14,
			SplitToningBalance = 0,
			SplitToningHighlightHue = 56,
			SplitToningHighlightSaturation = 20,
			SplitToningShadowHue = 334,
			SplitToningShadowSaturation = 11,
			ToneCurve = {
				0,
				0,
				255,
				255,
			},
			ToneCurveName = "Linear",
			Vibrance = 17,
			VignetteAmount = -50,
			VignetteMidpoint = 0,
			WhiteBalance = "Custom",
		},
		uuid = "8F1B03D6-C6EC-4CA5-86C7-6A0B44C1D2DA",
	},
	version = 0,
}
