User Presets/Ilford FP4 125 Auto.lrtemplate
s = {
	id = "E10146DE-2C42-4840-9A95-ECB6279F8E74",
	internalName = "Ilford FP4 125 Auto",
	title = "Ilford FP4 125 Auto",
	type = "Develop",
	value = {
		settings = {
			AutoBrightness = false,
			AutoContrast = false,
			AutoExposure = false,
			AutoShadows = false,
			AutoTone = true,
			Clarity = 57,
			ConvertToGrayscale = true,
			EnableColorAdjustments = true,
			EnableDetail = true,
			EnableGrayscaleMix = true,
			GrayMixerAqua = 0,
			GrayMixerBlue = 31,
			GrayMixerGreen = 41,
			GrayMixerMagenta = 0,
			GrayMixerOrange = 0,
			GrayMixerPurple = 0,
			GrayMixerRed = 28,
			GrayMixerYellow = 0,
			LuminanceSmoothing = 0,
			ParametricDarks = 0,
			ParametricHighlightSplit = 75,
			ParametricHighlights = 0,
			ParametricLights = 12,
			ParametricMidtoneSplit = 50,
			ParametricShadowSplit = 25,
			ParametricShadows = -24,
			SharpenDetail = 64,
			SharpenEdgeMasking = 0,
			SharpenRadius = 0.7,
			Sharpness = 11,
			ToneCurve = {
				0,
				0,
				255,
				255,
			},
			ToneCurveName = "Linear",
		},
		uuid = "41016230-4E86-42A8-8337-8C7D81A2F1E0",
	},
	version = 0,
}
