User Presets/Ilford Pan F 50.lrtemplate
s = {
	id = "C70D3366-8E53-40BF-9F54-4C3365814929",
	internalName = "Ilford Pan F 50",
	title = "Ilford Pan F 50",
	type = "Develop",
	value = {
		settings = {
			AutoBrightness = false,
			AutoContrast = false,
			AutoExposure = false,
			AutoShadows = false,
			Brightness = 68,
			Clarity = 60,
			Contrast = 86,
			ConvertToGrayscale = true,
			EnableColorAdjustments = true,
			EnableDetail = true,
			EnableGrayscaleMix = true,
			Exposure = 0,
			FillLight = 12,
			GrayMixerAqua = 0,
			GrayMixerBlue = 31,
			GrayMixerGreen = 36,
			GrayMixerMagenta = 0,
			GrayMixerOrange = 0,
			GrayMixerPurple = 0,
			GrayMixerRed = 33,
			GrayMixerYellow = 0,
			HighlightRecovery = 0,
			LuminanceSmoothing = 25,
			ParametricDarks = -2,
			ParametricHighlightSplit = 75,
			ParametricHighlights = 0,
			ParametricLights = 0,
			ParametricMidtoneSplit = 50,
			ParametricShadowSplit = 25,
			ParametricShadows = 0,
			Shadows = 15,
			SharpenDetail = 25,
			SharpenEdgeMasking = 0,
			SharpenRadius = 0.8,
			Sharpness = 48,
			ToneCurve = {
				0,
				0,
				32,
				16,
				64,
				50,
				128,
				128,
				192,
				202,
				255,
				255,
			},
			ToneCurveName = "Strong Contrast",
		},
		uuid = "BA68518E-CE2E-471E-A100-9470176325E5",
	},
	version = 0,
}
