User Presets/Ilford HP5 400.lrtemplate
s = {
	id = "2F2D7F8A-C464-4B06-94DF-11ACD4A5E258",
	internalName = "Ilford HP5 400",
	title = "Ilford HP5 400",
	type = "Develop",
	value = {
		settings = {
			AutoBrightness = false,
			AutoContrast = false,
			AutoExposure = false,
			AutoShadows = false,
			Brightness = 71,
			Clarity = 100,
			Contrast = 73,
			ConvertToGrayscale = true,
			EnableColorAdjustments = true,
			EnableDetail = true,
			EnableGrayscaleMix = true,
			Exposure = 0,
			FillLight = 11,
			GrayMixerAqua = 0,
			GrayMixerBlue = 40,
			GrayMixerGreen = 37,
			GrayMixerMagenta = 0,
			GrayMixerOrange = 0,
			GrayMixerPurple = 0,
			GrayMixerRed = 23,
			GrayMixerYellow = 0,
			HighlightRecovery = 0,
			LuminanceSmoothing = 0,
			ParametricDarks = -10,
			ParametricHighlightSplit = 75,
			ParametricHighlights = 0,
			ParametricLights = 0,
			ParametricMidtoneSplit = 50,
			ParametricShadowSplit = 25,
			ParametricShadows = 0,
			Shadows = 5,
			SharpenDetail = 33,
			SharpenEdgeMasking = 0,
			SharpenRadius = 0.5,
			Sharpness = 62,
			ToneCurve = {
				0,
				0,
				32,
				16,
				64,
				50,
				128,
				128,
				192,
				202,
				255,
				255,
			},
			ToneCurveName = "Strong Contrast",
		},
		uuid = "BB4D4658-A159-429E-A60F-DA8396F62CCD",
	},
	version = 0,
}
