User Presets/JPEG_aliumery.lrtemplate
s = {
	id = "E0D59590-26A5-4D44-ADE6-4FFB5E9CF9FE",
	internalName = "JPEG_aliumery",
	title = "JPEG_aliumery",
	type = "Develop",
	value = {
		settings = {
			AutoBrightness = false,
			AutoContrast = false,
			AutoExposure = false,
			AutoShadows = false,
			BlueHue = 15,
			BlueSaturation = 56,
			Brightness = 0,
			CameraProfile = "Adobe Standard",
			ChromaticAberrationB = 0,
			ChromaticAberrationR = 0,
			Clarity = 0,
			ColorNoiseReduction = 22,
			Contrast = 17,
			ConvertToGrayscale = false,
			Defringe = 0,
			EnableCalibration = true,
			EnableColorAdjustments = true,
			EnableDetail = true,
			EnableGradientBasedCorrections = true,
			EnableGrayscaleMix = true,
			EnableSplitToning = true,
			EnableVignettes = true,
			Exposure = -0.6,
			FillLight = 0,
			GreenHue = 0,
			GreenSaturation = -46,
			HighlightRecovery = 10,
			HueAdjustmentAqua = 60,
			HueAdjustmentBlue = 56,
			HueAdjustmentGreen = -23,
			HueAdjustmentMagenta = 0,
			HueAdjustmentOrange = 0,
			HueAdjustmentPurple = 0,
			HueAdjustmentRed = 0,
			HueAdjustmentYellow = 0,
			LuminanceAdjustmentAqua = 0,
			LuminanceAdjustmentBlue = 0,
			LuminanceAdjustmentGreen = 58,
			LuminanceAdjustmentMagenta = 0,
			LuminanceAdjustmentOrange = 0,
			LuminanceAdjustmentPurple = 0,
			LuminanceAdjustmentRed = 0,
			LuminanceAdjustmentYellow = 0,
			LuminanceSmoothing = 100,
			ParametricDarks = 33,
			ParametricHighlightSplit = 75,
			ParametricHighlights = 0,
			ParametricLights = 50,
			ParametricMidtoneSplit = 50,
			ParametricShadowSplit = 25,
			ParametricShadows = 0,
			PostCropVignetteAmount = 0,
			PostCropVignetteFeather = 50,
			PostCropVignetteMidpoint = 50,
			PostCropVignetteRoundness = 0,
			RedHue = -54,
			RedSaturation = 0,
			Saturation = -73,
			SaturationAdjustmentAqua = 46,
			SaturationAdjustmentBlue = 63,
			SaturationAdjustmentGreen = -71,
			SaturationAdjustmentMagenta = 0,
			SaturationAdjustmentOrange = 0,
			SaturationAdjustmentPurple = 0,
			SaturationAdjustmentRed = 0,
			SaturationAdjustmentYellow = 0,
			ShadowTint = -60,
			Shadows = 0,
			SharpenDetail = 25,
			SharpenEdgeMasking = 0,
			SharpenRadius = 1,
			Sharpness = 0,
			SplitToningBalance = 0,
			SplitToningHighlightHue = 236,
			SplitToningHighlightSaturation = 23,
			SplitToningShadowHue = 0,
			SplitToningShadowSaturation = 0,
			Temperature = 4650,
			ToneCurve = {
				0,
				0,
			},
			ToneCurveName = "Linear",
			Vibrance = 100,
			VignetteAmount = -65,
			VignetteMidpoint = 50,
			WhiteBalance = "Custom",
		},
		uuid = "C99F446F-EADC-4653-837C-CDA17BD8BC04",
	},
	version = 0,
}
