User Presets/JPEG_raceytayed.lrtemplate
s = {
	id = "5346B91A-0CD0-4963-A9D3-661572469743",
	internalName = "JPEG_raceytayed",
	title = "JPEG_raceytayed",
	type = "Develop",
	value = {
		settings = {
			AutoBrightness = false,
			AutoContrast = false,
			AutoExposure = false,
			AutoShadows = false,
			BlueHue = 17,
			BlueSaturation = 46,
			Brightness = -56,
			CameraProfile = "Adobe Standard",
			ChromaticAberrationB = 0,
			ChromaticAberrationR = 0,
			Clarity = -69,
			ColorNoiseReduction = 26,
			Contrast = -39,
			ConvertToGrayscale = false,
			Defringe = 0,
			EnableCalibration = true,
			EnableColorAdjustments = true,
			EnableDetail = true,
			EnableGradientBasedCorrections = true,
			EnableGrayscaleMix = true,
			EnableSplitToning = true,
			EnableVignettes = true,
			Exposure = -0.35,
			FillLight = 0,
			GreenHue = -61,
			GreenSaturation = -53,
			HighlightRecovery = 36,
			HueAdjustmentAqua = 0,
			HueAdjustmentBlue = 0,
			HueAdjustmentGreen = 0,
			HueAdjustmentMagenta = 0,
			HueAdjustmentOrange = 38,
			HueAdjustmentPurple = 0,
			HueAdjustmentRed = 0,
			HueAdjustmentYellow = 0,
			LuminanceAdjustmentAqua = 0,
			LuminanceAdjustmentBlue = 0,
			LuminanceAdjustmentGreen = 0,
			LuminanceAdjustmentMagenta = 0,
			LuminanceAdjustmentOrange = 20,
			LuminanceAdjustmentPurple = 0,
			LuminanceAdjustmentRed = 0,
			LuminanceAdjustmentYellow = 20,
			LuminanceSmoothing = 100,
			ParametricDarks = 22,
			ParametricHighlightSplit = 75,
			ParametricHighlights = 47,
			ParametricLights = -8,
			ParametricMidtoneSplit = 50,
			ParametricShadowSplit = 25,
			ParametricShadows = -38,
			PostCropVignetteAmount = 0,
			PostCropVignetteFeather = 50,
			PostCropVignetteMidpoint = 50,
			PostCropVignetteRoundness = 0,
			RedHue = -70,
			RedSaturation = -40,
			Saturation = -16,
			SaturationAdjustmentAqua = 0,
			SaturationAdjustmentBlue = 0,
			SaturationAdjustmentGreen = 0,
			SaturationAdjustmentMagenta = 0,
			SaturationAdjustmentOrange = 0,
			SaturationAdjustmentPurple = 0,
			SaturationAdjustmentRed = 0,
			SaturationAdjustmentYellow = 0,
			ShadowTint = -3,
			Shadows = 1,
			SharpenDetail = 20,
			SharpenEdgeMasking = 0,
			SharpenRadius = 0.5,
			Sharpness = 74,
			SplitToningBalance = 70,
			SplitToningHighlightHue = 66,
			SplitToningHighlightSaturation = 23,
			SplitToningShadowHue = 240,
			SplitToningShadowSaturation = 39,
			Temperature = 4650,
			ToneCurve = {
				0,
				0,
			},
			ToneCurveName = "Medium Contrast",
			Vibrance = 15,
			VignetteAmount = 0,
			VignetteMidpoint = 50,
			WhiteBalance = "Custom",
		},
		uuid = "3EAF545F-003F-4694-AD43-D19D0BF0442D",
	},
	version = 0,
}
