User Presets/KLent In the Pink.lrtemplate
s = {
	id = "C8A023FE-5336-47B9-8541-58AF1DE553C4",
	internalName = "KLent In the Pink",
	title = "KLent In the Pink",
	type = "Develop",
	value = {
		settings = {
			AutoBrightness = false,
			AutoContrast = false,
			AutoExposure = false,
			AutoShadows = false,
			BlueHue = 0,
			BlueSaturation = 0,
			Brightness = 54,
			CameraProfile = "Embedded",
			ChromaticAberrationB = 0,
			ChromaticAberrationR = 0,
			Clarity = 100,
			ColorNoiseReduction = 25,
			Contrast = 34,
			ConvertToGrayscale = false,
			Defringe = 0,
			EnableCalibration = true,
			EnableColorAdjustments = true,
			EnableDetail = true,
			EnableGrayscaleMix = true,
			EnableLensCorrections = true,
			EnableSplitToning = true,
			Exposure = 0.22,
			FillLight = 23,
			GreenHue = 0,
			GreenSaturation = 0,
			HighlightRecovery = 32,
			HueAdjustmentAqua = 0,
			HueAdjustmentBlue = 0,
			HueAdjustmentGreen = 0,
			HueAdjustmentMagenta = 0,
			HueAdjustmentOrange = 0,
			HueAdjustmentPurple = 0,
			HueAdjustmentRed = 0,
			HueAdjustmentYellow = 0,
			LuminanceAdjustmentAqua = 0,
			LuminanceAdjustmentBlue = 0,
			LuminanceAdjustmentGreen = 0,
			LuminanceAdjustmentMagenta = 1,
			LuminanceAdjustmentOrange = 0,
			LuminanceAdjustmentPurple = -3,
			LuminanceAdjustmentRed = 8,
			LuminanceAdjustmentYellow = 0,
			LuminanceSmoothing = 62,
			ParametricDarks = 3,
			ParametricHighlightSplit = 75,
			ParametricHighlights = 0,
			ParametricLights = 0,
			ParametricMidtoneSplit = 50,
			ParametricShadowSplit = 25,
			ParametricShadows = 0,
			RedHue = 0,
			RedSaturation = -16,
			Saturation = 0,
			SaturationAdjustmentAqua = 0,
			SaturationAdjustmentBlue = 0,
			SaturationAdjustmentGreen = 0,
			SaturationAdjustmentMagenta = -40,
			SaturationAdjustmentOrange = 0,
			SaturationAdjustmentPurple = 0,
			SaturationAdjustmentRed = -51,
			SaturationAdjustmentYellow = 0,
			ShadowTint = -12,
			Shadows = 28,
			SharpenDetail = 25,
			SharpenEdgeMasking = 0,
			SharpenRadius = 1,
			Sharpness = 0,
			SplitToningBalance = 0,
			SplitToningHighlightHue = 283,
			SplitToningHighlightSaturation = 34,
			SplitToningShadowHue = 56,
			SplitToningShadowSaturation = 18,
			ToneCurve = {
				0,
				0,
				255,
				255,
			},
			ToneCurveName = "Linear",
			Vibrance = 30,
			VignetteAmount = 100,
			VignetteMidpoint = 50,
			WhiteBalance = "As Shot",
		},
		uuid = "DF51F3B7-9153-4458-919E-412250C38104",
	},
	version = 0,
}
