User Presets/Kodak TMax 400.lrtemplate
s = {
	id = "0D2917A6-2730-451C-AE3F-155552F7FA7B",
	internalName = "Kodak TMax 400",
	title = "Kodak TMax 400",
	type = "Develop",
	value = {
		settings = {
			AutoBrightness = false,
			AutoContrast = false,
			AutoExposure = false,
			AutoShadows = false,
			Brightness = 64,
			Clarity = 74,
			Contrast = 77,
			ConvertToGrayscale = true,
			EnableColorAdjustments = true,
			EnableDetail = true,
			EnableGrayscaleMix = true,
			Exposure = 0,
			FillLight = 10,
			GrayMixerAqua = 0,
			GrayMixerBlue = 37,
			GrayMixerGreen = 36,
			GrayMixerMagenta = 0,
			GrayMixerOrange = 0,
			GrayMixerPurple = 0,
			GrayMixerRed = 27,
			GrayMixerYellow = 0,
			HighlightRecovery = 31,
			LuminanceSmoothing = 20,
			ParametricDarks = 0,
			ParametricHighlightSplit = 75,
			ParametricHighlights = 0,
			ParametricLights = 0,
			ParametricMidtoneSplit = 50,
			ParametricShadowSplit = 25,
			ParametricShadows = 0,
			Shadows = 13,
			SharpenDetail = 25,
			SharpenEdgeMasking = 0,
			SharpenRadius = 1,
			Sharpness = 25,
			ToneCurve = {
				0,
				0,
				32,
				16,
				64,
				50,
				128,
				128,
				192,
				202,
				255,
				255,
			},
			ToneCurveName = "Strong Contrast",
		},
		uuid = "B2758DDF-9613-4B90-B084-312346366C53",
	},
	version = 0,
}
