User Presets/Kodak Tri-X 400.lrtemplate
s = {
	id = "6F63B9C8-1AA0-4A67-851E-2457E1BB342E",
	internalName = "Kodak Tri-X 400",
	title = "Kodak Tri-X 400",
	type = "Develop",
	value = {
		settings = {
			AutoBrightness = false,
			AutoContrast = false,
			AutoExposure = false,
			AutoShadows = false,
			Brightness = 55,
			Clarity = 25,
			Contrast = 75,
			ConvertToGrayscale = true,
			EnableColorAdjustments = true,
			EnableDetail = true,
			EnableGrayscaleMix = true,
			Exposure = 0.19,
			FillLight = 5,
			GrayMixerAqua = 0,
			GrayMixerBlue = 40,
			GrayMixerGreen = 35,
			GrayMixerMagenta = 0,
			GrayMixerOrange = 0,
			GrayMixerPurple = 81,
			GrayMixerRed = 25,
			GrayMixerYellow = 0,
			HighlightRecovery = 20,
			LuminanceSmoothing = 0,
			ParametricDarks = 0,
			ParametricHighlightSplit = 75,
			ParametricHighlights = 0,
			ParametricLights = 0,
			ParametricMidtoneSplit = 50,
			ParametricShadowSplit = 25,
			ParametricShadows = 0,
			Shadows = 10,
			SharpenDetail = 51,
			SharpenEdgeMasking = 0,
			SharpenRadius = 1,
			Sharpness = 25,
			ToneCurve = {
				0,
				0,
				32,
				22,
				64,
				56,
				128,
				128,
				192,
				196,
				255,
				255,
			},
			ToneCurveName = "Medium Contrast",
		},
		uuid = "4B6096CA-BD84-4FCD-99D8-A6FA995F5A08",
	},
	version = 0,
}
