User Presets/Matt's Contrast (2).lrtemplate
s = {
	id = "C3BF575B-289E-40C0-AB3B-DB16DCCBAB86",
	internalName = "Matt's Contrast (2)",
	title = "Matt's Contrast (2)",
	type = "Develop",
	value = {
		settings = {
			ParametricDarks = 0,
			ParametricHighlightSplit = 75,
			ParametricHighlights = 14,
			ParametricLights = 0,
			ParametricMidtoneSplit = 50,
			ParametricShadowSplit = 25,
			ParametricShadows = -9,
			ToneCurve = {
				0,
				0,
				32,
				22,
				64,
				56,
				128,
				128,
				192,
				196,
				255,
				255,
			},
			ToneCurveName = "Medium Contrast",
		},
		uuid = "FE4A2278-5DF3-42FF-8143-5F708DFA4706",
	},
	version = 0,
}
