User Presets/Redscale.lrtemplate
s = {
	id = "E0385172-5774-4185-994F-0EC0CE65FA62",
	internalName = "Redscale",
	title = "Redscale",
	type = "Develop",
	value = {
		settings = {
			AutoBrightness = false,
			AutoContrast = false,
			AutoExposure = false,
			AutoShadows = false,
			BlueHue = 0,
			BlueSaturation = -60,
			Brightness = 11,
			CameraProfile = "Embedded",
			ChromaticAberrationB = 0,
			ChromaticAberrationR = 0,
			Clarity = 19,
			ColorNoiseReduction = 0,
			Contrast = 9,
			ConvertToGrayscale = false,
			Defringe = 0,
			EnableCalibration = true,
			EnableColorAdjustments = true,
			EnableDetail = true,
			EnableGradientBasedCorrections = true,
			EnableGrayscaleMix = true,
			EnableSplitToning = true,
			EnableVignettes = true,
			Exposure = 0.38,
			FillLight = 4,
			GreenHue = 0,
			GreenSaturation = -2,
			HighlightRecovery = 17,
			HueAdjustmentAqua = 0,
			HueAdjustmentBlue = -12,
			HueAdjustmentGreen = -29,
			HueAdjustmentMagenta = 0,
			HueAdjustmentOrange = 0,
			HueAdjustmentPurple = 0,
			HueAdjustmentRed = -10,
			HueAdjustmentYellow = 0,
			IncrementalTemperature = 5,
			IncrementalTint = -14,
			LuminanceAdjustmentAqua = 0,
			LuminanceAdjustmentBlue = 5,
			LuminanceAdjustmentGreen = 0,
			LuminanceAdjustmentMagenta = 0,
			LuminanceAdjustmentOrange = 0,
			LuminanceAdjustmentPurple = 0,
			LuminanceAdjustmentRed = 0,
			LuminanceAdjustmentYellow = 0,
			LuminanceSmoothing = 0,
			ParametricDarks = 0,
			ParametricHighlightSplit = 75,
			ParametricHighlights = 0,
			ParametricLights = 10,
			ParametricMidtoneSplit = 50,
			ParametricShadowSplit = 25,
			ParametricShadows = -26,
			PostCropVignetteAmount = -31,
			PostCropVignetteFeather = 50,
			PostCropVignetteMidpoint = 82,
			PostCropVignetteRoundness = -33,
			RedHue = 0,
			RedSaturation = 29,
			Saturation = 0,
			SaturationAdjustmentAqua = 0,
			SaturationAdjustmentBlue = 5,
			SaturationAdjustmentGreen = 0,
			SaturationAdjustmentMagenta = 0,
			SaturationAdjustmentOrange = 0,
			SaturationAdjustmentPurple = 0,
			SaturationAdjustmentRed = 36,
			SaturationAdjustmentYellow = 0,
			ShadowTint = -26,
			Shadows = 31,
			SharpenDetail = 25,
			SharpenEdgeMasking = 0,
			SharpenRadius = 1,
			Sharpness = 0,
			SplitToningBalance = 0,
			SplitToningHighlightHue = 47,
			SplitToningHighlightSaturation = 82,
			SplitToningShadowHue = 0,
			SplitToningShadowSaturation = 88,
			ToneCurve = {
				0,
				0,
				255,
				255,
			},
			ToneCurveName = "Linear",
			Vibrance = 10,
			VignetteAmount = -57,
			VignetteMidpoint = 43,
			WhiteBalance = "Custom",
		},
		uuid = "131D5288-DEE7-413F-9694-5D74312EC967",
	},
	version = 0,
}
