User Presets/Retro BW.lrtemplate
s = {
	id = "64D75FAE-D19D-4C91-B1F6-F117FA8041F0",
	internalName = "Retro BW",
	title = "Retro BW",
	type = "Develop",
	value = {
		settings = {
			AutoBrightness = false,
			AutoContrast = false,
			AutoExposure = false,
			AutoShadows = false,
			BlueHue = -100,
			BlueSaturation = 26,
			Brightness = 39,
			CameraProfile = "Embedded",
			ChromaticAberrationB = 0,
			ChromaticAberrationR = 0,
			Clarity = 3,
			ColorNoiseReduction = 0,
			Contrast = 43,
			ConvertToGrayscale = false,
			Defringe = 0,
			EnableCalibration = true,
			EnableColorAdjustments = true,
			EnableDetail = true,
			EnableGrayscaleMix = true,
			EnableSplitToning = true,
			EnableVignettes = true,
			Exposure = 0.27,
			FillLight = 26,
			GreenHue = -63,
			GreenSaturation = 18,
			HighlightRecovery = 39,
			HueAdjustmentAqua = -46,
			HueAdjustmentBlue = 24,
			HueAdjustmentGreen = -5,
			HueAdjustmentMagenta = 18,
			HueAdjustmentOrange = -18,
			HueAdjustmentPurple = 23,
			HueAdjustmentRed = -8,
			HueAdjustmentYellow = 0,
			IncrementalTemperature = -24,
			IncrementalTint = 18,
			LuminanceAdjustmentAqua = 0,
			LuminanceAdjustmentBlue = 21,
			LuminanceAdjustmentGreen = 25,
			LuminanceAdjustmentMagenta = 0,
			LuminanceAdjustmentOrange = 25,
			LuminanceAdjustmentPurple = 0,
			LuminanceAdjustmentRed = 23,
			LuminanceAdjustmentYellow = 0,
			LuminanceSmoothing = 25,
			ParametricDarks = 3,
			ParametricHighlightSplit = 37,
			ParametricHighlights = 13,
			ParametricLights = 18,
			ParametricMidtoneSplit = 20,
			ParametricShadowSplit = 10,
			ParametricShadows = -55,
			PostCropVignetteAmount = -38,
			PostCropVignetteFeather = 100,
			PostCropVignetteMidpoint = 87,
			PostCropVignetteRoundness = 46,
			RedHue = -7,
			RedSaturation = -100,
			Saturation = -100,
			SaturationAdjustmentAqua = 6,
			SaturationAdjustmentBlue = 35,
			SaturationAdjustmentGreen = 35,
			SaturationAdjustmentMagenta = 0,
			SaturationAdjustmentOrange = 0,
			SaturationAdjustmentPurple = 0,
			SaturationAdjustmentRed = 4,
			SaturationAdjustmentYellow = 0,
			ShadowTint = 90,
			Shadows = 0,
			SharpenDetail = 25,
			SharpenEdgeMasking = 0,
			SharpenRadius = 1,
			Sharpness = 19,
			SplitToningBalance = -5,
			SplitToningHighlightHue = 39,
			SplitToningHighlightSaturation = 0,
			SplitToningShadowHue = 284,
			SplitToningShadowSaturation = 0,
			ToneCurve = {
				0,
				0,
				255,
				255,
			},
			ToneCurveName = "Linear",
			Vibrance = -15,
			VignetteAmount = -100,
			VignetteMidpoint = 0,
			WhiteBalance = "Custom",
		},
		uuid = "343602A0-FA96-4CFD-B357-7DDD45EF032C",
	},
	version = 0,
}
