User Presets/Seim Effects - Golden Sun2 (J).lrtemplate
s = {
	id = "253B7684-BDBD-4842-AA11-1E313523BCB3",
	internalName = "Seim Effects - Golden Sun2 (J)",
	title = "Seim Effects - Golden Sun2 (J)",
	type = "Develop",
	value = {
		settings = {
			AutoBrightness = false,
			AutoContrast = false,
			AutoShadows = false,
			Brightness = 19,
			Contrast = 0,
			ConvertToGrayscale = false,
			EnableColorAdjustments = true,
			EnableSplitToning = true,
			HueAdjustmentAqua = 0,
			HueAdjustmentBlue = 0,
			HueAdjustmentGreen = 0,
			HueAdjustmentMagenta = 0,
			HueAdjustmentOrange = 0,
			HueAdjustmentPurple = 0,
			HueAdjustmentRed = 0,
			HueAdjustmentYellow = 0,
			LuminanceAdjustmentAqua = 4,
			LuminanceAdjustmentBlue = 8,
			LuminanceAdjustmentGreen = 5,
			LuminanceAdjustmentMagenta = -1,
			LuminanceAdjustmentOrange = 15,
			LuminanceAdjustmentPurple = 0,
			LuminanceAdjustmentRed = -15,
			LuminanceAdjustmentYellow = 16,
			ParametricDarks = 0,
			ParametricHighlightSplit = 75,
			ParametricHighlights = -20,
			ParametricLights = 10,
			ParametricMidtoneSplit = 50,
			ParametricShadowSplit = 25,
			ParametricShadows = 0,
			Saturation = 20,
			SaturationAdjustmentAqua = 10,
			SaturationAdjustmentBlue = 5,
			SaturationAdjustmentGreen = 22,
			SaturationAdjustmentMagenta = 10,
			SaturationAdjustmentOrange = 25,
			SaturationAdjustmentPurple = 10,
			SaturationAdjustmentRed = 30,
			SaturationAdjustmentYellow = 38,
			Shadows = 0,
			SplitToningBalance = 0,
			SplitToningHighlightHue = 36,
			SplitToningHighlightSaturation = 50,
			SplitToningShadowHue = 0,
			SplitToningShadowSaturation = 0,
			ToneCurve = {
				0,
				0,
				255,
				255,
			},
			ToneCurveName = "Linear",
			Vibrance = 17,
			WhiteBalance = "As Shot",
		},
		uuid = "5ACF1395-6115-43FC-8E1E-B9EA9FDE7B8C",
	},
	version = 0,
}
