User Presets/Seim Effects - Golden Sun2.lrtemplate
s = {
	id = "C330E413-B08A-4346-8733-3258BBE589A2",
	internalName = "Seim Effects - Golden Sun2",
	title = "Seim Effects - Golden Sun2",
	type = "Develop",
	value = {
		settings = {
			AutoBrightness = false,
			AutoContrast = false,
			AutoShadows = false,
			Brightness = 62,
			Contrast = 22,
			ConvertToGrayscale = false,
			EnableColorAdjustments = true,
			EnableSplitToning = true,
			HueAdjustmentAqua = 0,
			HueAdjustmentBlue = 0,
			HueAdjustmentGreen = 0,
			HueAdjustmentMagenta = 0,
			HueAdjustmentOrange = 0,
			HueAdjustmentPurple = 0,
			HueAdjustmentRed = 0,
			HueAdjustmentYellow = 0,
			LuminanceAdjustmentAqua = 4,
			LuminanceAdjustmentBlue = 8,
			LuminanceAdjustmentGreen = 5,
			LuminanceAdjustmentMagenta = -1,
			LuminanceAdjustmentOrange = 15,
			LuminanceAdjustmentPurple = 0,
			LuminanceAdjustmentRed = -15,
			LuminanceAdjustmentYellow = 16,
			ParametricDarks = 0,
			ParametricHighlightSplit = 75,
			ParametricHighlights = -20,
			ParametricLights = 10,
			ParametricMidtoneSplit = 50,
			ParametricShadowSplit = 25,
			ParametricShadows = 0,
			Saturation = 20,
			SaturationAdjustmentAqua = 10,
			SaturationAdjustmentBlue = 5,
			SaturationAdjustmentGreen = 22,
			SaturationAdjustmentMagenta = 10,
			SaturationAdjustmentOrange = 25,
			SaturationAdjustmentPurple = 10,
			SaturationAdjustmentRed = 30,
			SaturationAdjustmentYellow = 38,
			Shadows = 5,
			SplitToningBalance = 0,
			SplitToningHighlightHue = 36,
			SplitToningHighlightSaturation = 50,
			SplitToningShadowHue = 0,
			SplitToningShadowSaturation = 0,
			ToneCurve = {
				0,
				0,
				32,
				22,
				64,
				56,
				128,
				128,
				192,
				196,
				255,
				255,
			},
			ToneCurveName = "Medium Contrast",
			Vibrance = 25,
			WhiteBalance = "As Shot",
		},
		uuid = "8A2F2AF8-901C-4118-B890-BCE9A5A76267",
	},
	version = 0,
}
