User Presets/ST Lith.lrtemplate
s = {
	id = "F3E57B23-4EA0-4583-A68A-9CD69FF28F66",
	internalName = "ST Lith",
	title = "ST Lith",
	type = "Develop",
	value = {
		settings = {
			AutoBrightness = false,
			AutoContrast = false,
			AutoExposure = false,
			AutoShadows = false,
			BlueHue = 0,
			BlueSaturation = 0,
			Brightness = 45,
			CameraProfile = "ACR 2.4",
			ChromaticAberrationB = 0,
			ChromaticAberrationR = 0,
			Contrast = 0,
			ConvertToGrayscale = true,
			EnableCalibration = true,
			EnableColorAdjustments = true,
			EnableDetail = true,
			EnableGrayscaleMix = true,
			EnableLensCorrections = true,
			EnableSplitToning = true,
			Exposure = 0,
			FillLight = 0,
			GrayMixerAqua = 68,
			GrayMixerBlue = 34,
			GrayMixerGreen = 33,
			GrayMixerMagenta = 67,
			GrayMixerOrange = -1,
			GrayMixerPurple = 11,
			GrayMixerRed = 32,
			GrayMixerYellow = 66,
			GreenHue = 0,
			GreenSaturation = 0,
			HighlightRecovery = 0,
			LuminanceSmoothing = 0,
			ParametricDarks = 0,
			ParametricHighlightSplit = 75,
			ParametricHighlights = 0,
			ParametricLights = 0,
			ParametricMidtoneSplit = 50,
			ParametricShadowSplit = 25,
			ParametricShadows = 0,
			RedHue = 0,
			RedSaturation = 0,
			ShadowTint = 0,
			Shadows = 5,
			Sharpness = 25,
			SplitToningBalance = -49,
			SplitToningHighlightHue = 48,
			SplitToningHighlightSaturation = 47,
			SplitToningShadowHue = 0,
			SplitToningShadowSaturation = 0,
			ToneCurve = {
				0,
				0,
				32,
				22,
				64,
				56,
				128,
				128,
				192,
				196,
				255,
				255,
			},
			VignetteAmount = 0,
			VignetteMidpoint = 50,
			WhiteBalance = "As Shot",
		},
		uuid = "9153AE63-F177-4E24-8AA2-8668156B5664",
	},
	version = 0,
}
