User Presets/ST Selenium.lrtemplate
s = {
	id = "0408D0EB-0976-4AF6-AF9F-4B8EA4F45330",
	internalName = "ST Selenium",
	title = "ST Selenium",
	type = "Develop",
	value = {
		settings = {
			AutoBrightness = false,
			AutoContrast = false,
			AutoExposure = false,
			AutoShadows = false,
			BlueHue = 0,
			BlueSaturation = 0,
			Brightness = 0,
			CameraProfile = "ACR 2.4",
			ChromaticAberrationB = 0,
			ChromaticAberrationR = 0,
			Contrast = 0,
			ConvertToGrayscale = true,
			EnableCalibration = true,
			EnableColorAdjustments = true,
			EnableDetail = true,
			EnableGrayscaleMix = true,
			EnableLensCorrections = true,
			EnableSplitToning = true,
			Exposure = 0,
			FillLight = 0,
			GrayMixerAqua = 68,
			GrayMixerBlue = 34,
			GrayMixerGreen = 33,
			GrayMixerMagenta = 67,
			GrayMixerOrange = 0,
			GrayMixerPurple = 0,
			GrayMixerRed = 32,
			GrayMixerYellow = 66,
			GreenHue = 0,
			GreenSaturation = 0,
			HighlightRecovery = 0,
			LuminanceSmoothing = 0,
			ParametricDarks = 0,
			ParametricHighlightSplit = 80.645161290323,
			ParametricHighlights = 0,
			ParametricLights = -20,
			ParametricMidtoneSplit = 50,
			ParametricShadowSplit = 21.290322580645,
			ParametricShadows = -20,
			RedHue = 0,
			RedSaturation = 0,
			ShadowTint = 0,
			Shadows = 0,
			Sharpness = 0,
			SplitToningBalance = 0,
			SplitToningHighlightHue = 20,
			SplitToningHighlightSaturation = 5,
			SplitToningShadowHue = 20,
			SplitToningShadowSaturation = 16,
			ToneCurve = {
				0,
				0,
				255,
				255,
			},
			VignetteAmount = 0,
			VignetteMidpoint = 50,
			WhiteBalance = "As Shot",
		},
		uuid = "D0822D47-0AF3-43A7-99B5-12681C89CCE9",
	},
	version = 0,
}
