User Presets/Sweet Beauty.lrtemplate
s = {
	internalName = "Sweet Beauty",
	title = "Sweet Beauty",
	type = "Develop",
	value = {
		settings = {
			AutoBrightness = false,
			AutoContrast = false,
			AutoExposure = false,
			AutoShadows = false,
			BlueHue = 0,
			BlueSaturation = 0,
			Brightness = 38,
			CameraProfile = "Embedded",
			ChromaticAberrationB = 0,
			ChromaticAberrationR = 0,
			Contrast = 6,
			ConvertToGrayscale = false,
			Defringe = 0,
			EnableCalibration = true,
			EnableColorAdjustments = true,
			EnableGrayscaleMix = true,
			EnableLensCorrections = true,
			EnableSplitToning = true,
			Exposure = 1.08,
			FillLight = 0,
			GreenHue = 0,
			GreenSaturation = 0,
			HighlightRecovery = 6,
			HueAdjustmentAqua = 0,
			HueAdjustmentBlue = 0,
			HueAdjustmentGreen = 0,
			HueAdjustmentMagenta = 0,
			HueAdjustmentOrange = 0,
			HueAdjustmentPurple = 0,
			HueAdjustmentRed = 0,
			HueAdjustmentYellow = 0,
			IncrementalTemperature = 8,
			IncrementalTint = 2,
			LuminanceAdjustmentAqua = 0,
			LuminanceAdjustmentBlue = 0,
			LuminanceAdjustmentGreen = 0,
			LuminanceAdjustmentMagenta = 0,
			LuminanceAdjustmentOrange = 0,
			LuminanceAdjustmentPurple = 0,
			LuminanceAdjustmentRed = 0,
			LuminanceAdjustmentYellow = 0,
			ParametricDarks = 0,
			ParametricHighlightSplit = 75,
			ParametricHighlights = -2,
			ParametricLights = 2,
			ParametricMidtoneSplit = 50,
			ParametricShadowSplit = 25,
			ParametricShadows = 0,
			RedHue = 0,
			RedSaturation = 0,
			Saturation = -4,
			SaturationAdjustmentAqua = 0,
			SaturationAdjustmentBlue = 0,
			SaturationAdjustmentGreen = 0,
			SaturationAdjustmentMagenta = 0,
			SaturationAdjustmentOrange = 0,
			SaturationAdjustmentPurple = 0,
			SaturationAdjustmentRed = 0,
			SaturationAdjustmentYellow = 0,
			ShadowTint = 0,
			Shadows = 6,
			SplitToningBalance = 0,
			SplitToningHighlightHue = 68,
			SplitToningHighlightSaturation = 33,
			SplitToningShadowHue = 218,
			SplitToningShadowSaturation = 20,
			ToneCurve = {
				0,
				0,
				255,
				255,
			},
			ToneCurveName = "Linear",
			Vibrance = 23,
			VignetteAmount = -48,
			VignetteMidpoint = 5,
			WhiteBalance = "Custom",
		},
		uuid = "A8D9CB46-98FD-4874-8317-5F9C17E598A0",
	},
	version = 0,
}
