User Presets/TLR Tone (Basic) Magenta.lrtemplate
s = {
	id = "22A79E71-4497-4B7D-8A34-06457EEF7358",
	internalName = "TLR Tone (Basic) Magenta",
	title = "TLR Tone (Basic) Magenta",
	type = "Develop",
	value = {
		settings = {
			ConvertToGrayscale = true,
			EnableGrayscaleMix = true,
			EnableSplitToning = true,
			GrayMixerAqua = -19,
			GrayMixerBlue = 8,
			GrayMixerGreen = -25,
			GrayMixerMagenta = 5,
			GrayMixerOrange = -16,
			GrayMixerPurple = 15,
			GrayMixerRed = -7,
			GrayMixerYellow = -20,
			SplitToningBalance = 81,
			SplitToningHighlightHue = 335,
			SplitToningHighlightSaturation = 4,
			SplitToningShadowHue = 332,
			SplitToningShadowSaturation = 33,
		},
		uuid = "1C50CEAF-F6E8-462A-9684-97CDF689B480",
	},
	version = 0,
}
