User Presets/WOW-b_Auto-Tone+Crv_06.lrtemplate
s = {
	id = "7E3566B7-2D26-4C5C-AC09-B7C789D5FF74",
	internalName = "WOW-b_Auto-Tone+Crv_06",
	title = "WOW-b_Auto-Tone+Crv_06",
	type = "Develop",
	value = {
		settings = {
			AutoBrightness = false,
			AutoContrast = false,
			AutoExposure = false,
			AutoShadows = false,
			AutoTone = true,
			ParametricDarks = 0,
			ParametricHighlightSplit = 75,
			ParametricHighlights = 17,
			ParametricLights = -48,
			ParametricMidtoneSplit = 50,
			ParametricShadowSplit = 25,
			ParametricShadows = 0,
			ToneCurve = {
				0,
				0,
				32,
				22,
				64,
				56,
				128,
				128,
				192,
				196,
				255,
				255,
			},
		},
		uuid = "4EA3997D-3690-4C71-A1BA-98862AB9ABAA",
	},
	version = 0,
}
