Eric's Presets/MX-BW 2.lrtemplate
s = {
	id = "D29FCD97-0376-45EE-BA6F-31F189CA6193",
	internalName = "MX-BW 2",
	title = "MX-BW 2",
	type = "Develop",
	value = {
		settings = {
			AutoBrightness = false,
			AutoContrast = false,
			AutoExposure = false,
			AutoShadows = false,
			BlueHue = 0,
			BlueSaturation = 0,
			Brightness = 50,
			CameraProfile = "Camera D2X Mode 2",
			Clarity = 40,
			ColorNoiseReductionDetail = 50,
			Contrast = 67,
			ConvertToGrayscale = true,
			EnableCalibration = true,
			EnableDetail = true,
			EnableEffects = true,
			EnableGrayscaleMix = true,
			EnableLensCorrections = true,
			EnableSplitToning = true,
			Exposure = 0,
			FillLight = 9,
			GrainAmount = 0,
			GrainFrequency = 50,
			GrainSize = 25,
			GrayMixerAqua = -47,
			GrayMixerBlue = -22,
			GrayMixerGreen = -61,
			GrayMixerMagenta = -17,
			GrayMixerOrange = 52,
			GrayMixerPurple = -20,
			GrayMixerRed = 48,
			GrayMixerYellow = -36,
			GreenHue = 0,
			GreenSaturation = 0,
			HighlightRecovery = 0,
			LuminanceNoiseReductionContrast = 0,
			LuminanceNoiseReductionDetail = 50,
			LuminanceSmoothing = 0,
			ParametricDarks = 0,
			ParametricHighlightSplit = 75,
			ParametricHighlights = 0,
			ParametricLights = 0,
			ParametricMidtoneSplit = 50,
			ParametricShadowSplit = 25,
			ParametricShadows = 0,
			PostCropVignetteAmount = 0,
			PostCropVignetteFeather = 50,
			PostCropVignetteHighlightContrast = 0,
			PostCropVignetteMidpoint = 50,
			PostCropVignetteRoundness = 0,
			PostCropVignetteStyle = 1,
			ProcessVersion = "5.7",
			RedHue = 0,
			RedSaturation = 0,
			ShadowTint = 0,
			Shadows = 14,
			SharpenDetail = 25,
			SharpenEdgeMasking = 0,
			SharpenRadius = 1,
			Sharpness = 25,
			SplitToningBalance = -1,
			SplitToningHighlightHue = 54,
			SplitToningHighlightSaturation = 30,
			SplitToningShadowHue = 0,
			SplitToningShadowSaturation = 0,
			ToneCurve = {
				0,
				0,
				32,
				22,
				64,
				56,
				128,
				128,
				192,
				196,
				255,
				255,
			},
			ToneCurveName = "Medium Contrast",
			VignetteAmount = -77,
			VignetteMidpoint = 30,
		},
		uuid = "AA26B067-26BE-4F07-AC56-A3B0DA5EBEA5",
	},
	version = 0,
}
