Eric's Presets/MX-Cold Bright 4.lrtemplate
s = {
	id = "27AAF16E-9F9B-4387-95AD-A82D7E62309D",
	internalName = "MX-Bright Cold 4",
	title = "MX-Cold Bright 4",
	type = "Develop",
	value = {
		settings = {
			AutoBrightness = false,
			AutoContrast = false,
			AutoExposure = false,
			AutoShadows = false,
			BlueHue = 0,
			BlueSaturation = 0,
			Brightness = 67,
			CameraProfile = "ACR 4.4",
			Clarity = -11,
			ColorNoiseReduction = 25,
			ColorNoiseReductionDetail = 50,
			Contrast = 60,
			ConvertToGrayscale = false,
			EnableCalibration = true,
			EnableColorAdjustments = true,
			EnableDetail = true,
			EnableEffects = true,
			EnableLensCorrections = true,
			EnableSplitToning = true,
			Exposure = 0.6,
			FillLight = 30,
			GrainAmount = 0,
			GrainFrequency = 50,
			GrainSize = 25,
			GreenHue = 0,
			GreenSaturation = 0,
			HighlightRecovery = 87,
			HueAdjustmentAqua = 0,
			HueAdjustmentBlue = 0,
			HueAdjustmentGreen = 0,
			HueAdjustmentMagenta = 0,
			HueAdjustmentOrange = 0,
			HueAdjustmentPurple = 0,
			HueAdjustmentRed = 15,
			HueAdjustmentYellow = 0,
			LuminanceAdjustmentAqua = 0,
			LuminanceAdjustmentBlue = 0,
			LuminanceAdjustmentGreen = 0,
			LuminanceAdjustmentMagenta = 0,
			LuminanceAdjustmentOrange = 20,
			LuminanceAdjustmentPurple = 0,
			LuminanceAdjustmentRed = 0,
			LuminanceAdjustmentYellow = 0,
			LuminanceNoiseReductionContrast = 0,
			LuminanceNoiseReductionDetail = 50,
			LuminanceSmoothing = 0,
			ParametricDarks = 1,
			ParametricHighlightSplit = 75,
			ParametricHighlights = 3,
			ParametricLights = -9,
			ParametricMidtoneSplit = 50,
			ParametricShadowSplit = 25,
			ParametricShadows = -13,
			PostCropVignetteAmount = 0,
			PostCropVignetteFeather = 50,
			PostCropVignetteHighlightContrast = 0,
			PostCropVignetteMidpoint = 50,
			PostCropVignetteRoundness = 0,
			PostCropVignetteStyle = 3,
			ProcessVersion = "5.7",
			RedHue = 10,
			RedSaturation = 0,
			Saturation = 1,
			SaturationAdjustmentAqua = 0,
			SaturationAdjustmentBlue = 0,
			SaturationAdjustmentGreen = 0,
			SaturationAdjustmentMagenta = 0,
			SaturationAdjustmentOrange = 26,
			SaturationAdjustmentPurple = 0,
			SaturationAdjustmentRed = 29,
			SaturationAdjustmentYellow = 0,
			ShadowTint = 17,
			Shadows = 10,
			SharpenDetail = 25,
			SharpenEdgeMasking = 0,
			SharpenRadius = 1,
			Sharpness = 70,
			SplitToningBalance = -15,
			SplitToningHighlightHue = 190,
			SplitToningHighlightSaturation = 30,
			SplitToningShadowHue = 0,
			SplitToningShadowSaturation = 0,
			Temperature = 4414,
			Tint = -5,
			ToneCurve = {
				0,
				0,
				255,
				255,
			},
			ToneCurveName = "Linear",
			Vibrance = -6,
			VignetteAmount = -50,
			VignetteMidpoint = 20,
			WhiteBalance = "Custom",
		},
		uuid = "A93CC840-FA5C-48BF-9C18-E8B8C025355C",
	},
	version = 0,
}
