Eric's Presets/MX-Cold 1.lrtemplate
s = {
	id = "E75943E3-6F76-48CE-B212-24C97971E750",
	internalName = "MX-Noname_6",
	title = "MX-Cold 1",
	type = "Develop",
	value = {
		settings = {
			AutoBrightness = false,
			AutoContrast = false,
			AutoExposure = false,
			AutoShadows = false,
			BlueHue = 0,
			BlueSaturation = 0,
			Brightness = 80,
			CameraProfile = "Camera D2X Mode 3",
			Clarity = -10,
			Contrast = 25,
			ConvertToGrayscale = false,
			EnableCalibration = true,
			EnableColorAdjustments = true,
			EnableGrayscaleMix = true,
			EnableSplitToning = true,
			Exposure = -0.5,
			FillLight = 0,
			GreenHue = 0,
			GreenSaturation = 0,
			HighlightRecovery = 8,
			HueAdjustmentAqua = 0,
			HueAdjustmentBlue = 0,
			HueAdjustmentGreen = 0,
			HueAdjustmentMagenta = 0,
			HueAdjustmentOrange = 0,
			HueAdjustmentPurple = 0,
			HueAdjustmentRed = 0,
			HueAdjustmentYellow = 0,
			LuminanceAdjustmentAqua = 0,
			LuminanceAdjustmentBlue = 0,
			LuminanceAdjustmentGreen = 0,
			LuminanceAdjustmentMagenta = 0,
			LuminanceAdjustmentOrange = 0,
			LuminanceAdjustmentPurple = 0,
			LuminanceAdjustmentRed = 0,
			LuminanceAdjustmentYellow = 0,
			RedHue = 0,
			RedSaturation = 0,
			Saturation = -15,
			SaturationAdjustmentAqua = 0,
			SaturationAdjustmentBlue = 0,
			SaturationAdjustmentGreen = 0,
			SaturationAdjustmentMagenta = 0,
			SaturationAdjustmentOrange = 0,
			SaturationAdjustmentPurple = 0,
			SaturationAdjustmentRed = 0,
			SaturationAdjustmentYellow = 0,
			ShadowTint = 0,
			Shadows = 8,
			SplitToningBalance = 0,
			SplitToningHighlightHue = 219,
			SplitToningHighlightSaturation = 30,
			SplitToningShadowHue = 350,
			SplitToningShadowSaturation = 3,
			Temperature = 5214,
			Tint = -4,
			Vibrance = 9,
			WhiteBalance = "Custom",
		},
		uuid = "4FB50654-7C23-4DF2-89B8-FC559C19B0AB",
	},
	version = 0,
}
