Eric's Presets/MX-Film 6+.lrtemplate
s = {
	id = "727E6790-A0CE-4930-8CA0-9BED27D73F90",
	internalName = "MX-Film 16",
	title = "MX-Film 6+",
	type = "Develop",
	value = {
		settings = {
			AutoBrightness = false,
			AutoContrast = false,
			AutoExposure = false,
			AutoShadows = false,
			BlueHue = -3,
			BlueSaturation = -20,
			Brightness = 40,
			CameraProfile = "ACR 4.4",
			Clarity = 0,
			Contrast = 47,
			ConvertToGrayscale = false,
			EnableCalibration = true,
			EnableColorAdjustments = true,
			EnableDetail = true,
			EnableEffects = true,
			EnableLensCorrections = true,
			EnableSplitToning = true,
			Exposure = 1.06,
			FillLight = 10,
			GrainAmount = 15,
			GrainFrequency = 50,
			GrainSize = 25,
			GreenHue = 13,
			GreenSaturation = 13,
			HighlightRecovery = 16,
			HueAdjustmentAqua = 0,
			HueAdjustmentBlue = 0,
			HueAdjustmentGreen = -7,
			HueAdjustmentMagenta = 0,
			HueAdjustmentOrange = 5,
			HueAdjustmentPurple = 0,
			HueAdjustmentRed = -9,
			HueAdjustmentYellow = 14,
			LuminanceAdjustmentAqua = 0,
			LuminanceAdjustmentBlue = 0,
			LuminanceAdjustmentGreen = 27,
			LuminanceAdjustmentMagenta = 0,
			LuminanceAdjustmentOrange = 39,
			LuminanceAdjustmentPurple = 0,
			LuminanceAdjustmentRed = 0,
			LuminanceAdjustmentYellow = 25,
			ParametricDarks = -43,
			ParametricHighlightSplit = 75,
			ParametricHighlights = -48,
			ParametricLights = 9,
			ParametricMidtoneSplit = 50,
			ParametricShadowSplit = 25,
			ParametricShadows = -54,
			PostCropVignetteAmount = 0,
			PostCropVignetteFeather = 50,
			PostCropVignetteHighlightContrast = 0,
			PostCropVignetteMidpoint = 50,
			PostCropVignetteRoundness = 0,
			PostCropVignetteStyle = 3,
			ProcessVersion = "5.7",
			RedHue = 1,
			RedSaturation = 10,
			Saturation = 22,
			SaturationAdjustmentAqua = 0,
			SaturationAdjustmentBlue = 0,
			SaturationAdjustmentGreen = 2,
			SaturationAdjustmentMagenta = 0,
			SaturationAdjustmentOrange = -7,
			SaturationAdjustmentPurple = 0,
			SaturationAdjustmentRed = 0,
			SaturationAdjustmentYellow = -2,
			ShadowTint = 3,
			Shadows = 8,
			SharpenDetail = 50,
			SharpenEdgeMasking = 0,
			SharpenRadius = 1,
			Sharpness = 34,
			SplitToningBalance = 33,
			SplitToningHighlightHue = 186,
			SplitToningHighlightSaturation = 5,
			SplitToningShadowHue = 203,
			SplitToningShadowSaturation = 36,
			Temperature = 5348,
			Tint = -6,
			ToneCurve = {
				0,
				0,
				255,
				255,
			},
			ToneCurveName = "Linear",
			Vibrance = 20,
			VignetteAmount = -49,
			VignetteMidpoint = 20,
			WhiteBalance = "Custom",
		},
		uuid = "B5D4A9D2-E14A-450A-89EF-6E268541A16D",
	},
	version = 0,
}
