Eric's Presets/MX-Film JPG 9.lrtemplate
s = {
	id = "FA070D76-C9D8-4872-9589-3B165A971C87",
	internalName = "MX-Film 8",
	title = "MX-Film JPG 9",
	type = "Develop",
	value = {
		settings = {
			EnableSplitToning = true,
			SplitToningBalance = 0,
			SplitToningHighlightHue = 302,
			SplitToningHighlightSaturation = 5,
			SplitToningShadowHue = 236,
			SplitToningShadowSaturation = 32,
		},
		uuid = "25E271A0-1AE5-462A-A447-B89D49CC26C5",
	},
	version = 0,
}
