Eric's Presets/MX-Film 3+.lrtemplate
s = {
	id = "E4735EF1-3995-473E-BC21-0911C845318F",
	internalName = "MX-Film 11 +",
	title = "MX-Film 3+",
	type = "Develop",
	value = {
		settings = {
			AutoBrightness = false,
			AutoContrast = false,
			AutoExposure = false,
			AutoShadows = false,
			BlueHue = -3,
			BlueSaturation = -20,
			Brightness = 91,
			CameraProfile = "ACR 4.4",
			Clarity = 0,
			ColorNoiseReduction = 25,
			ColorNoiseReductionDetail = 50,
			Contrast = 31,
			ConvertToGrayscale = false,
			EnableCalibration = true,
			EnableColorAdjustments = true,
			EnableDetail = true,
			EnableEffects = true,
			EnableLensCorrections = true,
			EnableSplitToning = true,
			Exposure = 1.15,
			FillLight = 3,
			GrainAmount = 0,
			GrainFrequency = 50,
			GrainSize = 25,
			GreenHue = -15,
			GreenSaturation = 29,
			HighlightRecovery = 16,
			HueAdjustmentAqua = 0,
			HueAdjustmentBlue = 0,
			HueAdjustmentGreen = 5,
			HueAdjustmentMagenta = 0,
			HueAdjustmentOrange = 0,
			HueAdjustmentPurple = 0,
			HueAdjustmentRed = -9,
			HueAdjustmentYellow = 11,
			LuminanceAdjustmentAqua = 0,
			LuminanceAdjustmentBlue = 25,
			LuminanceAdjustmentGreen = 0,
			LuminanceAdjustmentMagenta = 0,
			LuminanceAdjustmentOrange = 0,
			LuminanceAdjustmentPurple = 0,
			LuminanceAdjustmentRed = 0,
			LuminanceAdjustmentYellow = 0,
			LuminanceNoiseReductionContrast = 0,
			LuminanceNoiseReductionDetail = 50,
			LuminanceSmoothing = 0,
			ParametricDarks = -43,
			ParametricHighlightSplit = 75,
			ParametricHighlights = -33,
			ParametricLights = -5,
			ParametricMidtoneSplit = 50,
			ParametricShadowSplit = 25,
			ParametricShadows = -18,
			PostCropVignetteAmount = 0,
			PostCropVignetteFeather = 50,
			PostCropVignetteHighlightContrast = 0,
			PostCropVignetteMidpoint = 50,
			PostCropVignetteRoundness = 0,
			PostCropVignetteStyle = 3,
			ProcessVersion = "5.7",
			RedHue = 3,
			RedSaturation = 6,
			Saturation = 0,
			SaturationAdjustmentAqua = 0,
			SaturationAdjustmentBlue = -36,
			SaturationAdjustmentGreen = 20,
			SaturationAdjustmentMagenta = 0,
			SaturationAdjustmentOrange = 0,
			SaturationAdjustmentPurple = 0,
			SaturationAdjustmentRed = 0,
			SaturationAdjustmentYellow = 0,
			ShadowTint = -6,
			Shadows = 9,
			SharpenDetail = 50,
			SharpenEdgeMasking = 0,
			SharpenRadius = 1,
			Sharpness = 34,
			SplitToningBalance = 29,
			SplitToningHighlightHue = 25,
			SplitToningHighlightSaturation = 15,
			SplitToningShadowHue = 203,
			SplitToningShadowSaturation = 49,
			Temperature = 4874,
			Tint = 8,
			ToneCurve = {
				0,
				0,
				255,
				255,
			},
			ToneCurveName = "Linear",
			Vibrance = 20,
			VignetteAmount = -49,
			VignetteMidpoint = 20,
			WhiteBalance = "Custom",
		},
		uuid = "BD169564-650B-46FE-9FBF-1404B3F5805B",
	},
	version = 0,
}
