Eric's Presets/MX-Film JPG 4.lrtemplate
s = {
	id = "05603DBA-3413-4B0B-8CA1-B73C26753BC6",
	internalName = "MX-Film 3",
	title = "MX-Film JPG 4",
	type = "Develop",
	value = {
		settings = {
			AutoBrightness = false,
			AutoContrast = false,
			AutoExposure = false,
			AutoShadows = false,
			BlueHue = -2,
			BlueSaturation = 10,
			Brightness = 14,
			CameraProfile = "Embedded",
			Clarity = 17,
			Contrast = 5,
			ConvertToGrayscale = false,
			EnableCalibration = true,
			EnableColorAdjustments = true,
			EnableDetail = true,
			EnableSplitToning = true,
			EnableVignettes = true,
			Exposure = 0,
			FillLight = 32,
			GreenHue = 100,
			GreenSaturation = -48,
			HighlightRecovery = 24,
			HueAdjustmentAqua = -21,
			HueAdjustmentBlue = 10,
			HueAdjustmentGreen = 48,
			HueAdjustmentMagenta = 0,
			HueAdjustmentOrange = -26,
			HueAdjustmentPurple = -5,
			HueAdjustmentRed = -19,
			HueAdjustmentYellow = 45,
			IncrementalTemperature = 2,
			IncrementalTint = 2,
			LuminanceAdjustmentAqua = -17,
			LuminanceAdjustmentBlue = -21,
			LuminanceAdjustmentGreen = 36,
			LuminanceAdjustmentMagenta = 0,
			LuminanceAdjustmentOrange = 14,
			LuminanceAdjustmentPurple = 0,
			LuminanceAdjustmentRed = 26,
			LuminanceAdjustmentYellow = 40,
			ParametricDarks = 0,
			ParametricHighlightSplit = 75,
			ParametricHighlights = 0,
			ParametricLights = 0,
			ParametricMidtoneSplit = 50,
			ParametricShadowSplit = 25,
			ParametricShadows = 0,
			RedHue = 17,
			RedSaturation = 12,
			Saturation = -17,
			SaturationAdjustmentAqua = 24,
			SaturationAdjustmentBlue = 38,
			SaturationAdjustmentGreen = 33,
			SaturationAdjustmentMagenta = 0,
			SaturationAdjustmentOrange = 5,
			SaturationAdjustmentPurple = 0,
			SaturationAdjustmentRed = 31,
			SaturationAdjustmentYellow = 40,
			ShadowTint = 5,
			Shadows = 25,
			SharpenDetail = 25,
			SharpenEdgeMasking = 0,
			SharpenRadius = 1,
			Sharpness = 55,
			SplitToningBalance = 60,
			SplitToningHighlightHue = 34,
			SplitToningHighlightSaturation = 8,
			SplitToningShadowHue = 227,
			SplitToningShadowSaturation = 17,
			ToneCurve = {
				0,
				0,
				32,
				22,
				64,
				56,
				128,
				128,
				192,
				196,
				255,
				255,
			},
			ToneCurveName = "Medium Contrast",
			Vibrance = 69,
			VignetteAmount = -62,
			VignetteMidpoint = 40,
			WhiteBalance = "Custom",
		},
		uuid = "90E47C59-CA4C-41CC-8466-A4DD9B17CC3E",
	},
	version = 0,
}
