Eric's Presets/MX-Film 10.lrtemplate
s = {
	id = "7BB326CA-E887-4A6F-A148-E0B7E7AD7589",
	internalName = "MX-Film 21",
	title = "MX-Film 10",
	type = "Develop",
	value = {
		settings = {
			AutoBrightness = false,
			AutoContrast = false,
			AutoExposure = false,
			AutoShadows = false,
			BlueHue = -3,
			BlueSaturation = 20,
			Brightness = 50,
			CameraProfile = "Camera Portrait",
			ChromaticAberrationB = 0,
			ChromaticAberrationR = 0,
			Clarity = 0,
			ColorNoiseReduction = 25,
			ColorNoiseReductionDetail = 50,
			Contrast = 47,
			ConvertToGrayscale = false,
			Defringe = 0,
			EnableCalibration = true,
			EnableColorAdjustments = true,
			EnableDetail = true,
			EnableEffects = true,
			EnableLensCorrections = true,
			EnableSplitToning = true,
			Exposure = 1.06,
			FillLight = 18,
			GrainAmount = 15,
			GrainFrequency = 50,
			GrainSize = 25,
			GreenHue = -15,
			GreenSaturation = 13,
			HighlightRecovery = 16,
			HueAdjustmentAqua = 0,
			HueAdjustmentBlue = 0,
			HueAdjustmentGreen = 18,
			HueAdjustmentMagenta = 0,
			HueAdjustmentOrange = 5,
			HueAdjustmentPurple = 0,
			HueAdjustmentRed = -9,
			HueAdjustmentYellow = 48,
			LuminanceAdjustmentAqua = 0,
			LuminanceAdjustmentBlue = 0,
			LuminanceAdjustmentGreen = 2,
			LuminanceAdjustmentMagenta = 0,
			LuminanceAdjustmentOrange = 32,
			LuminanceAdjustmentPurple = 0,
			LuminanceAdjustmentRed = 0,
			LuminanceAdjustmentYellow = 16,
			LuminanceNoiseReductionContrast = 0,
			LuminanceNoiseReductionDetail = 50,
			LuminanceSmoothing = 0,
			ParametricDarks = -43,
			ParametricHighlightSplit = 75,
			ParametricHighlights = -48,
			ParametricLights = 9,
			ParametricMidtoneSplit = 50,
			ParametricShadowSplit = 25,
			ParametricShadows = -54,
			PostCropVignetteAmount = 0,
			PostCropVignetteFeather = 50,
			PostCropVignetteHighlightContrast = 0,
			PostCropVignetteMidpoint = 50,
			PostCropVignetteRoundness = 0,
			PostCropVignetteStyle = 3,
			ProcessVersion = "5.7",
			RedHue = 1,
			RedSaturation = 10,
			Saturation = 13,
			SaturationAdjustmentAqua = 0,
			SaturationAdjustmentBlue = 0,
			SaturationAdjustmentGreen = 30,
			SaturationAdjustmentMagenta = 0,
			SaturationAdjustmentOrange = -7,
			SaturationAdjustmentPurple = 0,
			SaturationAdjustmentRed = -7,
			SaturationAdjustmentYellow = 16,
			ShadowTint = 17,
			Shadows = 10,
			SharpenDetail = 50,
			SharpenEdgeMasking = 0,
			SharpenRadius = 1,
			Sharpness = 34,
			SplitToningBalance = 68,
			SplitToningHighlightHue = 186,
			SplitToningHighlightSaturation = 14,
			SplitToningShadowHue = 203,
			SplitToningShadowSaturation = 36,
			Temperature = 5168,
			Tint = -2,
			ToneCurve = {
				0,
				0,
				255,
				255,
			},
			ToneCurveName = "Linear",
			Vibrance = 45,
			VignetteAmount = -49,
			VignetteMidpoint = 20,
			WhiteBalance = "Custom",
		},
		uuid = "1D9CDC17-97D3-4747-9983-C9AA65E80A88",
	},
	version = 0,
}
