Eric's Presets/MX-Old Style 2.lrtemplate
s = {
	id = "C1C25764-84C3-4FAA-AE67-B516BAAE5C11",
	internalName = "MX-Old Style 2",
	title = "MX-Old Style 2",
	type = "Develop",
	value = {
		settings = {
			AutoBrightness = false,
			AutoContrast = false,
			AutoExposure = false,
			AutoShadows = false,
			BlueHue = 0,
			BlueSaturation = 0,
			Brightness = 95,
			CameraProfile = "ACR 4.4",
			Clarity = 0,
			Contrast = 31,
			ConvertToGrayscale = false,
			EnableCalibration = true,
			EnableColorAdjustments = true,
			EnableDetail = true,
			EnableEffects = true,
			EnableLensCorrections = true,
			EnableSplitToning = true,
			Exposure = 1.7,
			FillLight = 0,
			GrainAmount = 0,
			GrainFrequency = 50,
			GrainSize = 25,
			GreenHue = 0,
			GreenSaturation = 0,
			HighlightRecovery = 25,
			HueAdjustmentAqua = 0,
			HueAdjustmentBlue = 23,
			HueAdjustmentGreen = 0,
			HueAdjustmentMagenta = -15,
			HueAdjustmentOrange = 32,
			HueAdjustmentPurple = -9,
			HueAdjustmentRed = -23,
			HueAdjustmentYellow = -26,
			LuminanceAdjustmentAqua = -28,
			LuminanceAdjustmentBlue = -55,
			LuminanceAdjustmentGreen = 0,
			LuminanceAdjustmentMagenta = -13,
			LuminanceAdjustmentOrange = -13,
			LuminanceAdjustmentPurple = -28,
			LuminanceAdjustmentRed = -2,
			LuminanceAdjustmentYellow = -13,
			ParametricDarks = -27,
			ParametricHighlightSplit = 75,
			ParametricHighlights = -30,
			ParametricLights = 0,
			ParametricMidtoneSplit = 50,
			ParametricShadowSplit = 25,
			ParametricShadows = 0,
			PostCropVignetteAmount = 0,
			PostCropVignetteFeather = 50,
			PostCropVignetteHighlightContrast = 0,
			PostCropVignetteMidpoint = 50,
			PostCropVignetteRoundness = 0,
			PostCropVignetteStyle = 3,
			ProcessVersion = "5.7",
			RedHue = 0,
			RedSaturation = 0,
			Saturation = -17,
			SaturationAdjustmentAqua = 38,
			SaturationAdjustmentBlue = 49,
			SaturationAdjustmentGreen = 0,
			SaturationAdjustmentMagenta = 15,
			SaturationAdjustmentOrange = 38,
			SaturationAdjustmentPurple = 32,
			SaturationAdjustmentRed = -2,
			SaturationAdjustmentYellow = 26,
			ShadowTint = 0,
			Shadows = 9,
			SharpenDetail = 50,
			SharpenEdgeMasking = 0,
			SharpenRadius = 1,
			Sharpness = 0,
			SplitToningBalance = 85,
			SplitToningHighlightHue = 0,
			SplitToningHighlightSaturation = 0,
			SplitToningShadowHue = 360,
			SplitToningShadowSaturation = 67,
			Temperature = 6568,
			Tint = -51,
			ToneCurve = {
				0,
				0,
				255,
				255,
			},
			ToneCurveName = "Linear",
			Vibrance = 0,
			VignetteAmount = -50,
			VignetteMidpoint = 20,
			WhiteBalance = "Custom",
		},
		uuid = "1290EAE2-D4A5-4B25-8953-F4116BF2B05B",
	},
	version = 0,
}
