Eric's Presets/MX-Old Style 1 (jpg).lrtemplate
s = {
	id = "68FB1FDF-4936-42FA-A032-EE211580963F",
	internalName = "MX-Old Style",
	title = "MX-Old Style 1 (jpg)",
	type = "Develop",
	value = {
		settings = {
			AutoBrightness = false,
			AutoContrast = false,
			AutoExposure = false,
			AutoShadows = false,
			Brightness = 34,
			Clarity = 0,
			Contrast = 5,
			ConvertToGrayscale = false,
			EnableColorAdjustments = true,
			EnableDetail = true,
			EnableSplitToning = true,
			EnableVignettes = true,
			Exposure = 0,
			FillLight = 0,
			HighlightRecovery = 25,
			HueAdjustmentAqua = 0,
			HueAdjustmentBlue = 23,
			HueAdjustmentGreen = 0,
			HueAdjustmentMagenta = -15,
			HueAdjustmentOrange = 32,
			HueAdjustmentPurple = -9,
			HueAdjustmentRed = -23,
			HueAdjustmentYellow = -26,
			IncrementalTemperature = 21,
			IncrementalTint = -52,
			LuminanceAdjustmentAqua = -28,
			LuminanceAdjustmentBlue = -55,
			LuminanceAdjustmentGreen = 0,
			LuminanceAdjustmentMagenta = -13,
			LuminanceAdjustmentOrange = -13,
			LuminanceAdjustmentPurple = -28,
			LuminanceAdjustmentRed = -2,
			LuminanceAdjustmentYellow = -13,
			ParametricDarks = -27,
			ParametricHighlightSplit = 75,
			ParametricHighlights = -30,
			ParametricLights = 0,
			ParametricMidtoneSplit = 50,
			ParametricShadowSplit = 25,
			ParametricShadows = 0,
			Saturation = -17,
			SaturationAdjustmentAqua = 38,
			SaturationAdjustmentBlue = 49,
			SaturationAdjustmentGreen = 0,
			SaturationAdjustmentMagenta = 15,
			SaturationAdjustmentOrange = 38,
			SaturationAdjustmentPurple = 32,
			SaturationAdjustmentRed = -2,
			SaturationAdjustmentYellow = 26,
			Shadows = 4,
			SharpenDetail = 50,
			SharpenEdgeMasking = 0,
			SharpenRadius = 1,
			Sharpness = 0,
			SplitToningBalance = 85,
			SplitToningHighlightHue = 0,
			SplitToningHighlightSaturation = 0,
			SplitToningShadowHue = 360,
			SplitToningShadowSaturation = 67,
			ToneCurve = {
				0,
				0,
				255,
				255,
			},
			ToneCurveName = "Linear",
			Vibrance = 0,
			VignetteAmount = -50,
			VignetteMidpoint = 20,
			WhiteBalance = "Custom",
		},
		uuid = "9B5FA9D0-AD78-497D-8461-4645FE37E5D2",
	},
	version = 0,
}
