Eric's Presets/MX-Portrait 1.lrtemplate
s = {
	id = "80F1B700-593A-4D2B-8133-C9B5E51B9524",
	internalName = "MX-Portrait Color 1",
	title = "MX-Portrait 1",
	type = "Develop",
	value = {
		settings = {
			AutoBrightness = false,
			AutoContrast = false,
			AutoExposure = false,
			AutoShadows = false,
			BlueHue = 2,
			BlueSaturation = 10,
			Brightness = 50,
			CameraProfile = "Camera Portrait",
			Clarity = 36,
			Contrast = 55,
			ConvertToGrayscale = false,
			EnableCalibration = true,
			EnableColorAdjustments = true,
			EnableDetail = true,
			EnableGrayscaleMix = true,
			EnableSplitToning = true,
			Exposure = 0.86,
			FillLight = 13,
			GreenHue = 10,
			GreenSaturation = 10,
			HighlightRecovery = 52,
			HueAdjustmentAqua = 0,
			HueAdjustmentBlue = 17,
			HueAdjustmentGreen = 31,
			HueAdjustmentMagenta = 0,
			HueAdjustmentOrange = 12,
			HueAdjustmentPurple = 0,
			HueAdjustmentRed = 0,
			HueAdjustmentYellow = -26,
			LuminanceAdjustmentAqua = 0,
			LuminanceAdjustmentBlue = -21,
			LuminanceAdjustmentGreen = 0,
			LuminanceAdjustmentMagenta = 0,
			LuminanceAdjustmentOrange = 29,
			LuminanceAdjustmentPurple = 0,
			LuminanceAdjustmentRed = 12,
			LuminanceAdjustmentYellow = -19,
			ParametricDarks = 0,
			ParametricHighlightSplit = 75,
			ParametricHighlights = 0,
			ParametricLights = 0,
			ParametricMidtoneSplit = 50,
			ParametricShadowSplit = 25,
			ParametricShadows = 0,
			RedHue = 0,
			RedSaturation = -17,
			Saturation = 0,
			SaturationAdjustmentAqua = 0,
			SaturationAdjustmentBlue = 24,
			SaturationAdjustmentGreen = 0,
			SaturationAdjustmentMagenta = 0,
			SaturationAdjustmentOrange = -14,
			SaturationAdjustmentPurple = 0,
			SaturationAdjustmentRed = 17,
			SaturationAdjustmentYellow = -7,
			ShadowTint = -12,
			Shadows = 17,
			SharpenDetail = 25,
			SharpenEdgeMasking = 0,
			SharpenRadius = 1,
			Sharpness = 55,
			SplitToningBalance = 19,
			SplitToningHighlightHue = 180,
			SplitToningHighlightSaturation = 12,
			SplitToningShadowHue = 0,
			SplitToningShadowSaturation = 0,
			Temperature = 4738,
			Tint = 18,
			ToneCurve = {
				0,
				0,
				32,
				22,
				64,
				56,
				128,
				128,
				192,
				196,
				255,
				255,
			},
			ToneCurveName = "Medium Contrast",
			Vibrance = 29,
			WhiteBalance = "Custom",
		},
		uuid = "3F751D9C-24AD-49EF-8DC4-A1215BF67BF5",
	},
	version = 0,
}
