Eric's Presets/MX-Portrait 8.lrtemplate
s = {
	id = "548DC379-1CDF-436A-9BC7-A64A8DB0CEAB",
	internalName = "MX-Portrait Color 8",
	title = "MX-Portrait 8",
	type = "Develop",
	value = {
		settings = {
			AutoBrightness = false,
			AutoContrast = false,
			AutoExposure = false,
			AutoShadows = false,
			BlueHue = 0,
			BlueSaturation = 0,
			Brightness = 71,
			CameraProfile = "ACR 4.4",
			Clarity = -10,
			Contrast = 43,
			ConvertToGrayscale = false,
			EnableCalibration = true,
			EnableColorAdjustments = true,
			EnableDetail = true,
			EnableLensCorrections = true,
			EnableSplitToning = true,
			Exposure = 0.32,
			FillLight = 0,
			GreenHue = 0,
			GreenSaturation = 0,
			HighlightRecovery = 46,
			HueAdjustmentAqua = 52,
			HueAdjustmentBlue = 0,
			HueAdjustmentGreen = 18,
			HueAdjustmentMagenta = 0,
			HueAdjustmentOrange = -3,
			HueAdjustmentPurple = 0,
			HueAdjustmentRed = -24,
			HueAdjustmentYellow = -18,
			LuminanceAdjustmentAqua = -29,
			LuminanceAdjustmentBlue = 0,
			LuminanceAdjustmentGreen = -47,
			LuminanceAdjustmentMagenta = 0,
			LuminanceAdjustmentOrange = 13,
			LuminanceAdjustmentPurple = 0,
			LuminanceAdjustmentRed = 0,
			LuminanceAdjustmentYellow = 0,
			ParametricDarks = 0,
			ParametricHighlightSplit = 75,
			ParametricHighlights = 0,
			ParametricLights = 0,
			ParametricMidtoneSplit = 50,
			ParametricShadowSplit = 25,
			ParametricShadows = 0,
			ProcessVersion = "5.7",
			RedHue = -8,
			RedSaturation = 0,
			Saturation = 0,
			SaturationAdjustmentAqua = 33,
			SaturationAdjustmentBlue = 0,
			SaturationAdjustmentGreen = 8,
			SaturationAdjustmentMagenta = 0,
			SaturationAdjustmentOrange = -13,
			SaturationAdjustmentPurple = 0,
			SaturationAdjustmentRed = -20,
			SaturationAdjustmentYellow = 0,
			ShadowTint = 0,
			Shadows = 9,
			SharpenDetail = 25,
			SharpenEdgeMasking = 0,
			SharpenRadius = 1,
			Sharpness = 25,
			SplitToningBalance = -22,
			SplitToningHighlightHue = 211,
			SplitToningHighlightSaturation = 7,
			SplitToningShadowHue = 0,
			SplitToningShadowSaturation = 7,
			Temperature = 4529,
			Tint = -22,
			ToneCurve = {
				0,
				0,
				32,
				22,
				64,
				56,
				128,
				128,
				192,
				196,
				255,
				255,
			},
			ToneCurveName = "Medium Contrast",
			Vibrance = 10,
			VignetteAmount = 0,
			VignetteMidpoint = 50,
			WhiteBalance = "Custom",
		},
		uuid = "DA040569-0017-4C2B-BAEE-7A730F35338C",
	},
	version = 0,
}
