Eric's Presets/MX-Revise Matt's 300 (jpg).lrtemplate
s = {
	id = "C:\\Users\\mUSicX\\AppData\\Roaming\\Adobe\\Lightroom\\Develop Presets\\User Presets\\Matt's 300 Revise_1.lrtemplate",
	internalName = "Matt's 300 Revise_1",
	title = "MX-Revise Matt's 300 (jpg)",
	type = "Develop",
	value = {
		settings = {
			AutoBrightness = false,
			AutoContrast = false,
			AutoExposure = false,
			AutoShadows = false,
			BlueHue = 0,
			BlueSaturation = 0,
			Brightness = 0,
			CameraProfile = "Embedded",
			CameraProfileDigest = "D6AF5AEA62557FCE88BC099788BBD3CC",
			ChromaticAberrationB = 0,
			ChromaticAberrationR = 0,
			Clarity = 0,
			ColorNoiseReduction = 0,
			Contrast = 0,
			ConvertToGrayscale = false,
			Defringe = 0,
			EnableCalibration = true,
			EnableColorAdjustments = true,
			EnableDetail = true,
			EnableGrayscaleMix = true,
			EnableSplitToning = true,
			Exposure = 0,
			FillLight = 21,
			GreenHue = 0,
			GreenSaturation = 0,
			HighlightRecovery = 38,
			HueAdjustmentAqua = 0,
			HueAdjustmentBlue = 0,
			HueAdjustmentGreen = 0,
			HueAdjustmentMagenta = 0,
			HueAdjustmentOrange = 0,
			HueAdjustmentPurple = 0,
			HueAdjustmentRed = 0,
			HueAdjustmentYellow = 0,
			LuminanceAdjustmentAqua = 0,
			LuminanceAdjustmentBlue = 0,
			LuminanceAdjustmentGreen = 0,
			LuminanceAdjustmentMagenta = 0,
			LuminanceAdjustmentOrange = 0,
			LuminanceAdjustmentPurple = 0,
			LuminanceAdjustmentRed = 0,
			LuminanceAdjustmentYellow = 0,
			LuminanceSmoothing = 0,
			ParametricDarks = -8,
			ParametricHighlightSplit = 75,
			ParametricHighlights = 39,
			ParametricLights = 0,
			ParametricMidtoneSplit = 50,
			ParametricShadowSplit = 25,
			ParametricShadows = -38,
			RedHue = 0,
			RedSaturation = 0,
			Saturation = -50,
			SaturationAdjustmentAqua = -100,
			SaturationAdjustmentBlue = -100,
			SaturationAdjustmentGreen = -100,
			SaturationAdjustmentMagenta = -100,
			SaturationAdjustmentOrange = -38,
			SaturationAdjustmentPurple = -100,
			SaturationAdjustmentRed = 25,
			SaturationAdjustmentYellow = -100,
			ShadowTint = 0,
			Shadows = 0,
			SharpenDetail = 25,
			SharpenEdgeMasking = 0,
			SharpenRadius = 1,
			Sharpness = 0,
			SplitToningBalance = -83,
			SplitToningHighlightHue = 0,
			SplitToningHighlightSaturation = 24,
			SplitToningShadowHue = 54,
			SplitToningShadowSaturation = 24,
			ToneCurve = {
				0,
				0,
				255,
				255,
			},
			ToneCurveName = "Linear",
			Vibrance = 0,
			VignetteAmount = -100,
			VignetteMidpoint = 33,
			WhiteBalance = "As Shot",
		},
		uuid = "66F8E187-A5FA-4DC5-A743-AAA9161BBA22",
	},
	version = 0,
}
