Eric's Presets/MX-Revise WL-CC19.lrtemplate
s = {
	id = "324CA2FB-808C-4245-A704-007EF1069470",
	internalName = "MX-WL-CC19_1",
	title = "MX-Revise WL-CC19",
	type = "Develop",
	value = {
		settings = {
			AutoBrightness = false,
			AutoContrast = false,
			AutoExposure = false,
			AutoShadows = false,
			Brightness = 3,
			Clarity = 24,
			Contrast = 15,
			ConvertToGrayscale = false,
			EnableColorAdjustments = true,
			EnableDetail = true,
			EnableGrayscaleMix = true,
			EnableSplitToning = true,
			EnableVignettes = true,
			Exposure = 1.08,
			FillLight = 0,
			HighlightRecovery = 0,
			HueAdjustmentAqua = 0,
			HueAdjustmentBlue = 0,
			HueAdjustmentGreen = 0,
			HueAdjustmentMagenta = 0,
			HueAdjustmentOrange = 0,
			HueAdjustmentPurple = 0,
			HueAdjustmentRed = 0,
			HueAdjustmentYellow = 0,
			IncrementalTemperature = 0,
			IncrementalTint = -23,
			LuminanceAdjustmentAqua = 0,
			LuminanceAdjustmentBlue = 0,
			LuminanceAdjustmentGreen = 0,
			LuminanceAdjustmentMagenta = 0,
			LuminanceAdjustmentOrange = 0,
			LuminanceAdjustmentPurple = 0,
			LuminanceAdjustmentRed = 0,
			LuminanceAdjustmentYellow = 0,
			ParametricDarks = -20,
			ParametricHighlightSplit = 75,
			ParametricHighlights = 48,
			ParametricLights = 10,
			ParametricMidtoneSplit = 50,
			ParametricShadowSplit = 25,
			ParametricShadows = -34,
			PostCropVignetteAmount = 0,
			PostCropVignetteFeather = 50,
			PostCropVignetteMidpoint = 50,
			PostCropVignetteRoundness = 0,
			Saturation = 0,
			SaturationAdjustmentAqua = 75,
			SaturationAdjustmentBlue = 55,
			SaturationAdjustmentGreen = 0,
			SaturationAdjustmentMagenta = 0,
			SaturationAdjustmentOrange = 0,
			SaturationAdjustmentPurple = 0,
			SaturationAdjustmentRed = 25,
			SaturationAdjustmentYellow = 0,
			Shadows = 14,
			SharpenDetail = 25,
			SharpenEdgeMasking = 0,
			SharpenRadius = 1,
			Sharpness = 75,
			SplitToningBalance = 0,
			SplitToningHighlightHue = 47,
			SplitToningHighlightSaturation = 75,
			SplitToningShadowHue = 227,
			SplitToningShadowSaturation = 75,
			ToneCurve = {
				0,
				0,
				255,
				255,
			},
			ToneCurveName = "Linear",
			Vibrance = 40,
			VignetteAmount = -40,
			VignetteMidpoint = 16,
			WhiteBalance = "Custom",
		},
		uuid = "1E8AEE6D-C097-418E-B326-CA54568DAE98",
	},
	version = 0,
}
