Eric's Presets/MX-Warm Bright 2.lrtemplate
s = {
	id = "3C136FCC-0E37-4527-B872-33C13E22CEC6",
	internalName = "MX-NoName 9",
	title = "MX-Warm Bright 2",
	type = "Develop",
	value = {
		settings = {
			AutoBrightness = false,
			AutoContrast = false,
			AutoExposure = false,
			AutoShadows = false,
			BlueHue = 0,
			BlueSaturation = 0,
			Brightness = 50,
			CameraProfile = "ACR 4.4",
			Clarity = 10,
			Contrast = 25,
			ConvertToGrayscale = false,
			EnableCalibration = true,
			EnableColorAdjustments = true,
			EnableDetail = true,
			EnableEffects = true,
			EnableLensCorrections = true,
			EnableSplitToning = true,
			Exposure = 1.24,
			FillLight = 0,
			GrainAmount = 0,
			GrainFrequency = 50,
			GrainSize = 25,
			GreenHue = 0,
			GreenSaturation = 0,
			HighlightRecovery = 0,
			HueAdjustmentAqua = 0,
			HueAdjustmentBlue = 2,
			HueAdjustmentGreen = -34,
			HueAdjustmentMagenta = 25,
			HueAdjustmentOrange = 0,
			HueAdjustmentPurple = 25,
			HueAdjustmentRed = 0,
			HueAdjustmentYellow = -32,
			LuminanceAdjustmentAqua = 0,
			LuminanceAdjustmentBlue = 0,
			LuminanceAdjustmentGreen = -9,
			LuminanceAdjustmentMagenta = 0,
			LuminanceAdjustmentOrange = 14,
			LuminanceAdjustmentPurple = 0,
			LuminanceAdjustmentRed = 0,
			LuminanceAdjustmentYellow = 0,
			ParametricDarks = 8,
			ParametricHighlightSplit = 75,
			ParametricHighlights = -21,
			ParametricLights = 0,
			ParametricMidtoneSplit = 50,
			ParametricShadowSplit = 25,
			ParametricShadows = -19,
			PostCropVignetteAmount = 0,
			PostCropVignetteFeather = 50,
			PostCropVignetteHighlightContrast = 0,
			PostCropVignetteMidpoint = 50,
			PostCropVignetteRoundness = 0,
			PostCropVignetteStyle = 1,
			ProcessVersion = "5.7",
			RedHue = 0,
			RedSaturation = 0,
			Saturation = 38,
			SaturationAdjustmentAqua = 0,
			SaturationAdjustmentBlue = 32,
			SaturationAdjustmentGreen = 18,
			SaturationAdjustmentMagenta = 0,
			SaturationAdjustmentOrange = -11,
			SaturationAdjustmentPurple = 0,
			SaturationAdjustmentRed = 0,
			SaturationAdjustmentYellow = 0,
			ShadowTint = 6,
			Shadows = 5,
			SharpenDetail = 25,
			SharpenEdgeMasking = 0,
			SharpenRadius = 1,
			Sharpness = 48,
			SplitToningBalance = 52,
			SplitToningHighlightHue = 211,
			SplitToningHighlightSaturation = 18,
			SplitToningShadowHue = 25,
			SplitToningShadowSaturation = 26,
			Temperature = 5100,
			Tint = -5,
			ToneCurve = {
				0,
				0,
				32,
				22,
				64,
				56,
				128,
				128,
				192,
				196,
				255,
				255,
			},
			ToneCurveName = "Medium Contrast",
			Vibrance = 26,
			VignetteAmount = 0,
			VignetteMidpoint = 50,
			WhiteBalance = "Custom",
		},
		uuid = "4D78CA92-1548-42BE-9664-82AB3521E7F4",
	},
	version = 0,
}
