Lilly's Presets/Lilly 13.lrtemplate
s = {
	id = "77FA218A-08DF-48F2-B8E4-6A3E0728025E",
	internalName = "Lilly 13",
	title = "Lilly 13",
	type = "Develop",
	value = {
		settings = {
			AutoBrightness = false,
			AutoContrast = false,
			AutoExposure = false,
			AutoShadows = false,
			BlueHue = 0,
			BlueSaturation = 0,
			Brightness = -22,
			CameraProfile = "Embedded",
			ChromaticAberrationB = 0,
			ChromaticAberrationR = 0,
			Clarity = 9,
			ColorNoiseReduction = 0,
			Contrast = 67,
			ConvertToGrayscale = false,
			Defringe = 0,
			EnableCalibration = true,
			EnableColorAdjustments = true,
			EnableDetail = true,
			EnableGradientBasedCorrections = true,
			EnableGrayscaleMix = true,
			EnableSplitToning = true,
			EnableVignettes = true,
			Exposure = 0.27,
			FillLight = 3,
			GreenHue = 0,
			GreenSaturation = 0,
			HighlightRecovery = 0,
			HueAdjustmentAqua = 20,
			HueAdjustmentBlue = 25,
			HueAdjustmentGreen = -59,
			HueAdjustmentMagenta = 25,
			HueAdjustmentOrange = 6,
			HueAdjustmentPurple = 38,
			HueAdjustmentRed = 0,
			HueAdjustmentYellow = -32,
			IncrementalTemperature = 1,
			IncrementalTint = 0,
			LuminanceAdjustmentAqua = 0,
			LuminanceAdjustmentBlue = 23,
			LuminanceAdjustmentGreen = 100,
			LuminanceAdjustmentMagenta = 0,
			LuminanceAdjustmentOrange = 66,
			LuminanceAdjustmentPurple = 0,
			LuminanceAdjustmentRed = 53,
			LuminanceAdjustmentYellow = 56,
			LuminanceSmoothing = 100,
			ParametricDarks = 0,
			ParametricHighlightSplit = 75,
			ParametricHighlights = 0,
			ParametricLights = -24,
			ParametricMidtoneSplit = 50,
			ParametricShadowSplit = 25,
			ParametricShadows = 0,
			PostCropVignetteAmount = -100,
			PostCropVignetteFeather = 71,
			PostCropVignetteMidpoint = 88,
			PostCropVignetteRoundness = -100,
			RedHue = 0,
			RedSaturation = 0,
			Saturation = 24,
			SaturationAdjustmentAqua = 0,
			SaturationAdjustmentBlue = 47,
			SaturationAdjustmentGreen = 59,
			SaturationAdjustmentMagenta = 0,
			SaturationAdjustmentOrange = -13,
			SaturationAdjustmentPurple = 0,
			SaturationAdjustmentRed = 0,
			SaturationAdjustmentYellow = 1,
			ShadowTint = 0,
			Shadows = 0,
			SharpenDetail = 25,
			SharpenEdgeMasking = 0,
			SharpenRadius = 1,
			Sharpness = 15,
			SplitToningBalance = -7,
			SplitToningHighlightHue = 41,
			SplitToningHighlightSaturation = 42,
			SplitToningShadowHue = 307,
			SplitToningShadowSaturation = 10,
			ToneCurve = {
				0,
				0,
				255,
				255,
			},
			ToneCurveName = "Linear",
			Vibrance = 40,
			VignetteAmount = -34,
			VignetteMidpoint = 50,
			WhiteBalance = "Custom",
		},
		uuid = "0560DF96-7AF4-4476-ABB3-B23D09A18FA8",
	},
	version = 0,
}
