Lilly's Presets/Lilly 20.lrtemplate
s = {
	id = "A031A050-4DE6-429F-982C-239685B40847",
	internalName = "Lilly 20",
	title = "Lilly 20",
	type = "Develop",
	value = {
		settings = {
			AutoBrightness = false,
			AutoContrast = false,
			AutoExposure = false,
			AutoShadows = false,
			BlueHue = 0,
			BlueSaturation = 0,
			Brightness = 4,
			CameraProfile = "Embedded",
			ChromaticAberrationB = 0,
			ChromaticAberrationR = 0,
			Clarity = -26,
			Contrast = 100,
			ConvertToGrayscale = true,
			Defringe = 0,
			EnableCalibration = true,
			EnableColorAdjustments = true,
			EnableDetail = true,
			EnableGradientBasedCorrections = true,
			EnableGrayscaleMix = true,
			EnableSplitToning = true,
			EnableVignettes = true,
			Exposure = 0.74,
			FillLight = 3,
			GrayMixerAqua = -13,
			GrayMixerBlue = -30,
			GrayMixerGreen = -29,
			GrayMixerMagenta = 4,
			GrayMixerOrange = -23,
			GrayMixerPurple = 22,
			GrayMixerRed = -13,
			GrayMixerYellow = -26,
			GreenHue = 0,
			GreenSaturation = 0,
			HighlightRecovery = 0,
			IncrementalTemperature = 1,
			IncrementalTint = 0,
			LuminanceSmoothing = 100,
			ParametricDarks = 0,
			ParametricHighlightSplit = 75,
			ParametricHighlights = 0,
			ParametricLights = 0,
			ParametricMidtoneSplit = 50,
			ParametricShadowSplit = 25,
			ParametricShadows = 0,
			PostCropVignetteAmount = -100,
			PostCropVignetteFeather = 71,
			PostCropVignetteMidpoint = 88,
			PostCropVignetteRoundness = -100,
			RedHue = 0,
			RedSaturation = 0,
			ShadowTint = 0,
			Shadows = 24,
			SharpenDetail = 25,
			SharpenEdgeMasking = 0,
			SharpenRadius = 1,
			Sharpness = 15,
			SplitToningBalance = 100,
			SplitToningHighlightHue = 41,
			SplitToningHighlightSaturation = 42,
			SplitToningShadowHue = 24,
			SplitToningShadowSaturation = 24,
			ToneCurve = {
				0,
				0,
				255,
				255,
			},
			ToneCurveName = "Linear",
			VignetteAmount = -34,
			VignetteMidpoint = 50,
			WhiteBalance = "Custom",
		},
		uuid = "2E818F43-C4B3-4ED4-A7EB-F640EC9589D8",
	},
	version = 0,
}
