User Presets/Dror Baobab/dror baobab hammy.lrtemplate
s = {
	internalName = "blue steel hammy",
	title = "blue steel hammy",
	type = "Develop",
	value = {
		settings = {
			AutoBrightness = false,
			AutoContrast = false,
			AutoExposure = false,
			AutoShadows = false,
			BlueHue = 0,
			BlueSaturation = 0,
			Brightness = 0,
			CameraProfile = "ACR 2.4",
			ChromaticAberrationB = 0,
			ChromaticAberrationR = 0,
			Clarity = 26,
			ColorNoiseReduction = 25,
			Contrast = 25,
			ConvertToGrayscale = false,
			Defringe = 0,
			EnableCalibration = true,
			EnableColorAdjustments = true,
			EnableDetail = true,
			EnableGrayscaleMix = true,
			EnableLensCorrections = true,
			EnableSplitToning = true,
			Exposure = 0,
			FillLight = 0,
			GreenHue = 0,
			GreenSaturation = 0,
			HighlightRecovery = 0,
			HueAdjustmentAqua = 0,
			HueAdjustmentBlue = 0,
			HueAdjustmentGreen = 0,
			HueAdjustmentMagenta = 0,
			HueAdjustmentOrange = 0,
			HueAdjustmentPurple = 0,
			HueAdjustmentRed = 0,
			HueAdjustmentYellow = 0,
			LuminanceAdjustmentAqua = -26,
			LuminanceAdjustmentBlue = -48,
			LuminanceAdjustmentGreen = 0,
			LuminanceAdjustmentMagenta = 0,
			LuminanceAdjustmentOrange = 0,
			LuminanceAdjustmentPurple = 0,
			LuminanceAdjustmentRed = 0,
			LuminanceAdjustmentYellow = 0,
			LuminanceSmoothing = 0,
			ParametricDarks = -10,
			ParametricHighlightSplit = 75,
			ParametricHighlights = -36,
			ParametricLights = -19,
			ParametricMidtoneSplit = 50,
			ParametricShadowSplit = 25,
			ParametricShadows = 0,
			RedHue = 0,
			RedSaturation = 0,
			Saturation = 0,
			SaturationAdjustmentAqua = 0,
			SaturationAdjustmentBlue = 43,
			SaturationAdjustmentGreen = 0,
			SaturationAdjustmentMagenta = 0,
			SaturationAdjustmentOrange = 68,
			SaturationAdjustmentPurple = 0,
			SaturationAdjustmentRed = -14,
			SaturationAdjustmentYellow = 48,
			ShadowTint = 0,
			Shadows = 0,
			SharpenDetail = 20,
			SharpenEdgeMasking = 70,
			SharpenRadius = 1.2,
			Sharpness = 35,
			SplitToningBalance = -19,
			SplitToningHighlightHue = 47,
			SplitToningHighlightSaturation = 5,
			SplitToningShadowHue = 244,
			SplitToningShadowSaturation = 6,
			ToneCurve = {
				0,
				0,
				32,
				22,
				64,
				56,
				128,
				128,
				192,
				196,
				255,
				255,
			},
			ToneCurveName = "Medium Contrast",
			Vibrance = -100,
			VignetteAmount = -87,
			VignetteMidpoint = 33,
			WhiteBalance = "As Shot",
		},
		uuid = "DB4AF7B6-FAB0-4F20-8513-A1E696DF087D",
	},
	version = 0,
}
