User Presets/Dror Baobab/dror baobab veld.lrtemplate
s = {
	internalName = "dror veld",
	title = "dror veld",
	type = "Develop",
	value = {
		settings = {
			AutoBrightness = false,
			AutoContrast = false,
			AutoExposure = false,
			AutoShadows = false,
			BlueHue = 0,
			BlueSaturation = 0,
			Brightness = 7,
			CameraProfile = "Embedded",
			CameraProfileDigest = "D6AF5AEA62557FCE88BC099788BBD3CC",
			ChromaticAberrationB = 0,
			ChromaticAberrationR = 0,
			Clarity = 0,
			ColorNoiseReduction = 0,
			Contrast = 0,
			ConvertToGrayscale = false,
			Defringe = 0,
			EnableCalibration = true,
			EnableColorAdjustments = true,
			EnableDetail = true,
			EnableGrayscaleMix = true,
			EnableLensCorrections = true,
			EnableSplitToning = true,
			Exposure = 0.38,
			FillLight = 0,
			GreenHue = 0,
			GreenSaturation = 0,
			HighlightRecovery = 17,
			HueAdjustmentAqua = 90,
			HueAdjustmentBlue = 76,
			HueAdjustmentGreen = 0,
			HueAdjustmentMagenta = 0,
			HueAdjustmentOrange = 0,
			HueAdjustmentPurple = 0,
			HueAdjustmentRed = 33,
			HueAdjustmentYellow = 0,
			IncrementalTemperature = 65,
			IncrementalTint = 0,
			LuminanceAdjustmentAqua = -50,
			LuminanceAdjustmentBlue = -64,
			LuminanceAdjustmentGreen = -17,
			LuminanceAdjustmentMagenta = 0,
			LuminanceAdjustmentOrange = -36,
			LuminanceAdjustmentPurple = 0,
			LuminanceAdjustmentRed = 95,
			LuminanceAdjustmentYellow = -10,
			LuminanceSmoothing = 0,
			ParametricDarks = 29,
			ParametricHighlightSplit = 75,
			ParametricHighlights = -57,
			ParametricLights = 24,
			ParametricMidtoneSplit = 50,
			ParametricShadowSplit = 25,
			ParametricShadows = -10,
			RedHue = 0,
			RedSaturation = 0,
			Saturation = -43,
			SaturationAdjustmentAqua = -36,
			SaturationAdjustmentBlue = -45,
			SaturationAdjustmentGreen = 0,
			SaturationAdjustmentMagenta = 0,
			SaturationAdjustmentOrange = 0,
			SaturationAdjustmentPurple = 0,
			SaturationAdjustmentRed = -64,
			SaturationAdjustmentYellow = -36,
			ShadowTint = 0,
			Shadows = 13,
			SharpenDetail = 25,
			SharpenEdgeMasking = 44,
			SharpenRadius = 1,
			Sharpness = 2,
			SplitToningBalance = -7,
			SplitToningHighlightHue = 219,
			SplitToningHighlightSaturation = 36,
			SplitToningShadowHue = 56,
			SplitToningShadowSaturation = 5,
			ToneCurve = {
				0,
				0,
				255,
				255,
			},
			ToneCurveName = "Linear",
			Vibrance = 0,
			VignetteAmount = -90,
			VignetteMidpoint = 13,
			WhiteBalance = "Custom",
		},
		uuid = "6979E760-2BA0-4F75-A2EE-09AC27AA8B9D",
	},
	version = 0,
}
