Karin RK Lightroom Presets/RK - fancy snapshot.lrtemplate
s = {
	id = "C:\\Documents and Settings\\Eric\\Application Data\\Adobe\\Lightroom\\Develop Presets\\Karin RK Lightroom Presets\\Fancy Snapshot.lrtemplate",
	internalName = "fancy snapshot",
	title = "RK - fancy snapshot",
	type = "Develop",
	value = {
		settings = {
			AutoBrightness = false,
			AutoContrast = false,
			AutoExposure = false,
			AutoShadows = false,
			BlueHue = 0,
			BlueSaturation = 0,
			Brightness = 26,
			CameraProfile = "ACR 2.4",
			ChromaticAberrationB = 0,
			ChromaticAberrationR = 0,
			ColorNoiseReduction = 25,
			Contrast = 42,
			ConvertToGrayscale = false,
			EnableCalibration = true,
			EnableColorAdjustments = true,
			EnableDetail = true,
			EnableGrayscaleMix = true,
			EnableSplitToning = true,
			Exposure = 0.518,
			FillLight = 0,
			GreenHue = 0,
			GreenSaturation = 0,
			HighlightRecovery = 0,
			HueAdjustmentAqua = 0,
			HueAdjustmentBlue = 0,
			HueAdjustmentGreen = 0,
			HueAdjustmentMagenta = 0,
			HueAdjustmentOrange = 0,
			HueAdjustmentPurple = 0,
			HueAdjustmentRed = 0,
			HueAdjustmentYellow = 0,
			LuminanceAdjustmentAqua = 0,
			LuminanceAdjustmentBlue = 0,
			LuminanceAdjustmentGreen = 0,
			LuminanceAdjustmentMagenta = 0,
			LuminanceAdjustmentOrange = 0,
			LuminanceAdjustmentPurple = 0,
			LuminanceAdjustmentRed = 0,
			LuminanceAdjustmentYellow = 0,
			LuminanceSmoothing = 0,
			ParametricDarks = 13,
			ParametricHighlightSplit = 75,
			ParametricHighlights = -13,
			ParametricLights = -13,
			ParametricMidtoneSplit = 50,
			ParametricShadowSplit = 25,
			ParametricShadows = 48,
			RedHue = 0,
			RedSaturation = 0,
			Saturation = 8,
			SaturationAdjustmentAqua = 0,
			SaturationAdjustmentBlue = -20,
			SaturationAdjustmentGreen = 13,
			SaturationAdjustmentMagenta = -18,
			SaturationAdjustmentOrange = 11,
			SaturationAdjustmentPurple = 0,
			SaturationAdjustmentRed = -29,
			SaturationAdjustmentYellow = 0,
			ShadowTint = 0,
			Shadows = 8,
			Sharpness = 44,
			SplitToningBalance = 0,
			SplitToningHighlightHue = 0,
			SplitToningHighlightSaturation = 0,
			SplitToningShadowHue = 64,
			SplitToningShadowSaturation = 0,
			Temperature = 5529.4,
			Tint = 10,
			ToneCurve = {
				0,
				0,
				32,
				22,
				64,
				56,
				128,
				128,
				192,
				196,
				255,
				255,
			},
			Vibrance = 18,
			VignetteAmount = -34,
			VignetteMidpoint = 29,
			WhiteBalance = "Custom",
		},
		uuid = "E1D26EDF-BFD2-4577-A820-1663E6CDD207",
	},
	version = 0,
}
