Matt's/Matt's Warming - Level 3.lrtemplate
s = {
	internalName = "Matt's Warming - Level 3",
	title = "Matt's Warming - Level 3",
	type = "Develop",
	value = {
		settings = {
			EnableSplitToning = true,
			SplitToningBalance = -38,
			SplitToningHighlightHue = 0,
			SplitToningHighlightSaturation = 0,
			SplitToningShadowHue = 48,
			SplitToningShadowSaturation = 90,
		},
		uuid = "0AA328C6-E1D7-4CD2-A61E-F7D2BD6AECFD",
	},
	version = 0,
}
