Matt's/Matt's Contrast (2).lrtemplate
s = {
	internalName = "Matt's Contrast (2)",
	title = "Matt's Contrast (2)",
	type = "Develop",
	value = {
		settings = {
			ParametricDarks = 0,
			ParametricHighlightSplit = 75,
			ParametricHighlights = 14,
			ParametricLights = 0,
			ParametricMidtoneSplit = 50,
			ParametricShadowSplit = 25,
			ParametricShadows = -9,
			ToneCurve = {
				0,
				0,
				32,
				22,
				64,
				56,
				128,
				128,
				192,
				196,
				255,
				255,
			},
			ToneCurveName = "Medium Contrast",
		},
		uuid = "A6DA3547-1EF2-437C-B7DA-67363DF71258",
	},
	version = 0,
}
