zh_cn-portrait/网络流行人像-时尚人像5.lrtemplate
s = {
	id = "41371066-F38B-441E-B1EA-D73822D04B20",
	internalName = "时尚人像5",
	title = "网络流行人像-时尚人像5",
	type = "Develop",
	value = {
		settings = {
			AutoBrightness = false,
			AutoContrast = false,
			AutoExposure = false,
			AutoShadows = false,
			BlueHue = -44,
			BlueSaturation = 33,
			Brightness = 20,
			CameraProfile = "Embedded",
			ChromaticAberrationB = 0,
			ChromaticAberrationR = 0,
			Clarity = 0,
			ColorNoiseReduction = 0,
			Contrast = 10,
			ConvertToGrayscale = false,
			Defringe = 0,
			EnableCalibration = true,
			EnableColorAdjustments = true,
			EnableDetail = true,
			EnableGrayscaleMix = true,
			EnableSplitToning = true,
			EnableVignettes = true,
			Exposure = 1.15,
			FillLight = 0,
			GreenHue = 46,
			GreenSaturation = 0,
			HighlightRecovery = 0,
			HueAdjustmentAqua = 0,
			HueAdjustmentBlue = 0,
			HueAdjustmentGreen = 0,
			HueAdjustmentMagenta = 0,
			HueAdjustmentOrange = 0,
			HueAdjustmentPurple = 0,
			HueAdjustmentRed = 0,
			HueAdjustmentYellow = 0,
			LuminanceAdjustmentAqua = 0,
			LuminanceAdjustmentBlue = 0,
			LuminanceAdjustmentGreen = 0,
			LuminanceAdjustmentMagenta = 0,
			LuminanceAdjustmentOrange = 0,
			LuminanceAdjustmentPurple = 0,
			LuminanceAdjustmentRed = 0,
			LuminanceAdjustmentYellow = 0,
			LuminanceSmoothing = 0,
			ParametricDarks = 52,
			ParametricHighlightSplit = 90,
			ParametricHighlights = 0,
			ParametricLights = 0,
			ParametricMidtoneSplit = 59,
			ParametricShadowSplit = 10,
			ParametricShadows = 0,
			PostCropVignetteAmount = -7,
			PostCropVignetteFeather = 50,
			PostCropVignetteMidpoint = 50,
			PostCropVignetteRoundness = 0,
			RedHue = 49,
			RedSaturation = 0,
			Saturation = -16,
			SaturationAdjustmentAqua = -14,
			SaturationAdjustmentBlue = -14,
			SaturationAdjustmentGreen = -14,
			SaturationAdjustmentMagenta = -14,
			SaturationAdjustmentOrange = -12,
			SaturationAdjustmentPurple = -14,
			SaturationAdjustmentRed = -12,
			SaturationAdjustmentYellow = -13,
			ShadowTint = 0,
			Shadows = 2,
			SharpenDetail = 25,
			SharpenEdgeMasking = 0,
			SharpenRadius = 1,
			Sharpness = 0,
			SplitToningBalance = 0,
			SplitToningHighlightHue = 78,
			SplitToningHighlightSaturation = 28,
			SplitToningShadowHue = 236,
			SplitToningShadowSaturation = 20,
			ToneCurve = {
				0,
				0,
				255,
				255,
			},
			ToneCurveName = "Linear",
			Vibrance = 21,
			VignetteAmount = -69,
			VignetteMidpoint = 17,
			WhiteBalance = "As Shot",
		},
		uuid = "9AEE6E40-62B4-42E4-A04C-3BA7E8A2C193",
	},
	version = 0,
}
