WOW PhotoPresets/WOW-c_HSL-Sunset_01.lrtemplate
s = {
	internalName = "WOW-c_HSL-Sunset_01",
	title = "WOW-c_HSL-Sunset_01",
	type = "Develop",
	value = {
		settings = {
			ConvertToGrayscale = false,
			EnableColorAdjustments = true,
			HueAdjustmentAqua = 4,
			HueAdjustmentBlue = 13,
			HueAdjustmentGreen = 0,
			HueAdjustmentMagenta = 0,
			HueAdjustmentOrange = -17,
			HueAdjustmentPurple = 19,
			HueAdjustmentRed = -6,
			HueAdjustmentYellow = -6,
			LuminanceAdjustmentAqua = -9,
			LuminanceAdjustmentBlue = -21,
			LuminanceAdjustmentGreen = 0,
			LuminanceAdjustmentMagenta = 0,
			LuminanceAdjustmentOrange = 0,
			LuminanceAdjustmentPurple = -4,
			LuminanceAdjustmentRed = 0,
			LuminanceAdjustmentYellow = 0,
			SaturationAdjustmentAqua = 9,
			SaturationAdjustmentBlue = 15,
			SaturationAdjustmentGreen = 0,
			SaturationAdjustmentMagenta = 0,
			SaturationAdjustmentOrange = 13,
			SaturationAdjustmentPurple = 13,
			SaturationAdjustmentRed = 15,
			SaturationAdjustmentYellow = 9,
		},
		uuid = "5423B5F0-6462-48B4-8952-F3BFC6AF86E0",
	},
	version = 0,
}
