WOW PhotoPresets/WOW-c_HSL-Only_Brown.lrtemplate
s = {
	internalName = "WOWc Color-Only Brown",
	title = "WOW-c_HSL-Only_Brown",
	type = "Develop",
	value = {
		settings = {
			ColorNoiseReduction = 0,
			ConvertToGrayscale = false,
			EnableColorAdjustments = true,
			EnableDetail = true,
			EnableGrayscaleMix = true,
			EnableLensCorrections = true,
			HueAdjustmentAqua = 0,
			HueAdjustmentBlue = 0,
			HueAdjustmentGreen = 0,
			HueAdjustmentMagenta = 0,
			HueAdjustmentOrange = 0,
			HueAdjustmentPurple = 0,
			HueAdjustmentRed = 0,
			HueAdjustmentYellow = 0,
			LuminanceAdjustmentAqua = 0,
			LuminanceAdjustmentBlue = 0,
			LuminanceAdjustmentGreen = 0,
			LuminanceAdjustmentMagenta = 0,
			LuminanceAdjustmentOrange = 0,
			LuminanceAdjustmentPurple = 0,
			LuminanceAdjustmentRed = 0,
			LuminanceAdjustmentYellow = 0,
			LuminanceSmoothing = 0,
			Saturation = 0,
			SaturationAdjustmentAqua = -100,
			SaturationAdjustmentBlue = -100,
			SaturationAdjustmentGreen = -100,
			SaturationAdjustmentMagenta = -100,
			SaturationAdjustmentOrange = 15,
			SaturationAdjustmentPurple = -100,
			SaturationAdjustmentRed = -66,
			SaturationAdjustmentYellow = -100,
			Vibrance = 0,
			VignetteAmount = 0,
			VignetteMidpoint = 50,
		},
		uuid = "2E07E096-FA36-4B5F-8569-C02A7F5BE4D1",
	},
	version = 0,
}
