WOW PhotoPresets/WOW-b_Auto-Tone-Crv_03.lrtemplate
s = {
	internalName = "WOWb Ton-02",
	title = "WOW-b_Auto-Tone+Crv_03",
	type = "Develop",
	value = {
		settings = {
			AutoBrightness = false,
			AutoContrast = false,
			AutoExposure = false,
			AutoShadows = false,
			AutoTone = true,
			ParametricDarks = 0,
			ParametricHighlightSplit = 75,
			ParametricHighlights = 0,
			ParametricLights = 0,
			ParametricMidtoneSplit = 50,
			ParametricShadowSplit = 25,
			ParametricShadows = 0,
			ToneCurve = {
				0,
				0,
				32,
				22,
				64,
				56,
				128,
				128,
				192,
				196,
				255,
				255,
			},
		},
		uuid = "C300D2E6-EA47-4A52-9B67-74246B043525",
	},
	version = 0,
}
