WOW PhotoPresets/WOW-c_HSL-Sky_03.lrtemplate
s = {
	internalName = "WOW-c_HSL-Sky_03",
	title = "WOW-c_HSL-Sky_03",
	type = "Develop",
	value = {
		settings = {
			ConvertToGrayscale = false,
			EnableColorAdjustments = true,
			HueAdjustmentAqua = 6,
			HueAdjustmentBlue = 28,
			HueAdjustmentGreen = 0,
			HueAdjustmentMagenta = 0,
			HueAdjustmentOrange = 0,
			HueAdjustmentPurple = 0,
			HueAdjustmentRed = 0,
			HueAdjustmentYellow = 0,
			LuminanceAdjustmentAqua = -17,
			LuminanceAdjustmentBlue = -32,
			LuminanceAdjustmentGreen = 0,
			LuminanceAdjustmentMagenta = 0,
			LuminanceAdjustmentOrange = 0,
			LuminanceAdjustmentPurple = -9,
			LuminanceAdjustmentRed = 0,
			LuminanceAdjustmentYellow = 0,
			SaturationAdjustmentAqua = 40,
			SaturationAdjustmentBlue = 53,
			SaturationAdjustmentGreen = 9,
			SaturationAdjustmentMagenta = 0,
			SaturationAdjustmentOrange = 0,
			SaturationAdjustmentPurple = 17,
			SaturationAdjustmentRed = 0,
			SaturationAdjustmentYellow = 0,
		},
		uuid = "8C21D95D-388F-411E-8CB8-20A2920ADC66",
	},
	version = 0,
}
