WOW PhotoPresets/WOW-d_BnW_03.lrtemplate
s = {
	internalName = "WOWb B&W-03",
	title = "WOW-d_BnW_03",
	type = "Develop",
	value = {
		settings = {
			AutoBrightness = false,
			AutoContrast = false,
			AutoExposure = false,
			AutoShadows = false,
			AutoTone = true,
			ConvertToGrayscale = true,
			EnableGrayscaleMix = true,
			GrayMixerAqua = -15,
			GrayMixerBlue = 21,
			GrayMixerGreen = -36,
			GrayMixerMagenta = 5,
			GrayMixerOrange = -22,
			GrayMixerPurple = 22,
			GrayMixerRed = -12,
			GrayMixerYellow = -26,
		},
		uuid = "083EA06C-EC23-4570-AFBA-C5215D3D6022",
	},
	version = 0,
}
