onOne Instantastic LR5/Robin.lrtemplate
s = {
	id = "BFA3353E-D13F-4480-A4D5-C4894155736C",
	internalName = "Earlybird",
	title = "Robin",
	type = "Develop",
	value = {
		settings = {
			Blacks2012 = 0,
			Clarity2012 = 0,
			Contrast2012 = 0,
			ConvertToGrayscale = false,
			EnableColorAdjustments = true,
			EnableDetail = true,
			EnableEffects = true,
			EnableSplitToning = true,
			Exposure2012 = 0,
			GrainAmount = 0,
			GrainFrequency = 50,
			GrainSize = 25,
			Highlights2012 = 0,
			HueAdjustmentAqua = 0,
			HueAdjustmentBlue = 0,
			HueAdjustmentGreen = 0,
			HueAdjustmentMagenta = 0,
			HueAdjustmentOrange = 0,
			HueAdjustmentPurple = 0,
			HueAdjustmentRed = 0,
			HueAdjustmentYellow = 0,
			LuminanceAdjustmentAqua = 0,
			LuminanceAdjustmentBlue = 0,
			LuminanceAdjustmentGreen = 0,
			LuminanceAdjustmentMagenta = 0,
			LuminanceAdjustmentOrange = 0,
			LuminanceAdjustmentPurple = 0,
			LuminanceAdjustmentRed = 0,
			LuminanceAdjustmentYellow = 0,
			ParametricDarks = 0,
			ParametricHighlightSplit = 75,
			ParametricHighlights = 0,
			ParametricLights = 0,
			ParametricMidtoneSplit = 50,
			ParametricShadowSplit = 25,
			ParametricShadows = 0,
			PostCropVignetteAmount = -20,
			PostCropVignetteFeather = 50,
			PostCropVignetteHighlightContrast = 0,
			PostCropVignetteMidpoint = 50,
			PostCropVignetteRoundness = 0,
			PostCropVignetteStyle = 1,
			ProcessVersion = "6.7",
			Saturation = 0,
			SaturationAdjustmentAqua = 0,
			SaturationAdjustmentBlue = -40,
			SaturationAdjustmentGreen = -50,
			SaturationAdjustmentMagenta = 0,
			SaturationAdjustmentOrange = -35,
			SaturationAdjustmentPurple = -10,
			SaturationAdjustmentRed = -60,
			SaturationAdjustmentYellow = 0,
			Shadows2012 = 0,
			SharpenDetail = 25,
			SharpenEdgeMasking = 0,
			SharpenRadius = 1,
			Sharpness = 0,
			SplitToningBalance = 0,
			SplitToningHighlightHue = 0,
			SplitToningHighlightSaturation = 0,
			SplitToningShadowHue = 0,
			SplitToningShadowSaturation = 0,
			ToneCurveName2012 = "Custom",
			ToneCurvePV2012 = {
				0,
				0,
				255,
				255,
			},
			ToneCurvePV2012Blue = {
				0,
				0,
				30,
				38,
				73,
				86,
				123,
				141,
				177,
				184,
				211,
				197,
				255,
				214,
			},
			ToneCurvePV2012Green = {
				0,
				0,
				24,
				34,
				71,
				93,
				125,
				166,
				177,
				198,
				211,
				216,
				255,
				243,
			},
			ToneCurvePV2012Red = {
				0,
				0,
				30,
				53,
				72,
				107,
				129,
				175,
				176,
				201,
				211,
				220,
				255,
				244,
			},
			Vibrance = 0,
			WhiteBalance = "As Shot",
			Whites2012 = 0,
		},
		uuid = "243871F4-37CE-4C4D-A63B-BE72B882DFC4",
	},
	version = 0,
}
