Preset 499 JPG/Black & White 1.lrtemplate
s = {
	id = "3AB147CC-C3AA-45FC-A656-F15E9F43A617",
	internalName = "Black & White 1",
	title = "Black & White 1",
	type = "Develop",
	value = {
		settings = {
			AutoBrightness = false,
			AutoContrast = false,
			AutoExposure = false,
			AutoShadows = false,
			BlueHue = 0,
			BlueSaturation = 0,
			Brightness = 0,
			CameraProfile = "ACR 2.4",
			ChromaticAberrationB = 0,
			ChromaticAberrationR = 0,
			Clarity = 0,
			Contrast = 27,
			ConvertToGrayscale = true,
			Defringe = 0,
			EnableCalibration = true,
			EnableColorAdjustments = true,
			EnableDetail = true,
			EnableGradientBasedCorrections = true,
			EnableGrayscaleMix = true,
			EnableSplitToning = true,
			EnableVignettes = true,
			Exposure = 0.9,
			FillLight = 0,
			GrayMixerAqua = -18,
			GrayMixerBlue = 12,
			GrayMixerGreen = -27,
			GrayMixerMagenta = 5,
			GrayMixerOrange = -18,
			GrayMixerPurple = 17,
			GrayMixerRed = -9,
			GrayMixerYellow = -22,
			GreenHue = 0,
			GreenSaturation = 0,
			HighlightRecovery = 0,
			LuminanceSmoothing = 0,
			ParametricDarks = 0,
			ParametricHighlightSplit = 75,
			ParametricHighlights = 0,
			ParametricLights = 0,
			ParametricMidtoneSplit = 50,
			ParametricShadowSplit = 25,
			ParametricShadows = 0,
			PostCropVignetteAmount = 0,
			PostCropVignetteFeather = 50,
			PostCropVignetteMidpoint = 50,
			PostCropVignetteRoundness = 0,
			RedHue = 0,
			RedSaturation = 0,
			ShadowTint = 0,
			Shadows = 7,
			SharpenDetail = 25,
			SharpenEdgeMasking = 0,
			SharpenRadius = 1,
			Sharpness = 25,
			SplitToningBalance = 0,
			SplitToningHighlightHue = 0,
			SplitToningHighlightSaturation = 0,
			SplitToningShadowHue = 0,
			SplitToningShadowSaturation = 0,
			ToneCurve = {
				0,
				0,
				255,
				255,
			},
			ToneCurveName = "Linear",
			VignetteAmount = 0,
			VignetteMidpoint = 50,
			WhiteBalance = "Auto",
		},
		uuid = "592330E1-9B62-4CEC-94E9-65ACB62168D7",
	},
	version = 0,
}
