Preset 499 JPG/Creativ 3 dark.lrtemplate
s = {
	id = "F048FA31-237A-4163-8FA0-CCB89EA65736",
	internalName = "Creativ 3 dark",
	title = "Creativ 3 dark",
	type = "Develop",
	value = {
		settings = {
			AutoBrightness = false,
			AutoContrast = false,
			AutoExposure = false,
			AutoShadows = false,
			BlueHue = 0,
			BlueSaturation = 0,
			Brightness = -42,
			CameraProfile = "Embedded",
			ChromaticAberrationB = 0,
			ChromaticAberrationR = -1,
			Clarity = -22,
			ColorNoiseReduction = 0,
			Contrast = 26,
			ConvertToGrayscale = false,
			Defringe = 0,
			EnableCalibration = true,
			EnableColorAdjustments = true,
			EnableDetail = true,
			EnableGradientBasedCorrections = true,
			EnableGrayscaleMix = true,
			EnableSplitToning = true,
			EnableVignettes = true,
			Exposure = -0.19,
			FillLight = 22,
			GradientBasedCorrections = {
				{
					CorrectionActive = true,
					CorrectionAmount = 1,
					CorrectionID = "38386818-478C-4954-921B-F5E87FB784EA",
					CorrectionMasks = {
						{
							FullX = 0.329544,
							FullY = -0.155458,
							MaskID = "86CD1AB9-F96B-49D3-BEF0-1BBCD0831119",
							MaskValue = 1,
							What = "Mask/Gradient",
							ZeroX = 0.40743,
							ZeroY = 0.221833,
						},
					},
					CorrectionReferenceX = 0.368487,
					CorrectionReferenceY = 0.0331875,
					LocalBrightness = 0,
					LocalClarity = -1,
					LocalContrast = 0,
					LocalExposure = 0,
					LocalSaturation = 0,
					LocalSharpness = 0.25,
					LocalToningHue = 240,
					LocalToningSaturation = 0,
					What = "Correction",
				},
				{
					CorrectionActive = true,
					CorrectionAmount = 1,
					CorrectionID = "4A603A3C-CDB5-4C0E-B90A-876C17613D75",
					CorrectionMasks = {
						{
							FullX = 0.066359,
							FullY = 1.00116,
							MaskID = "E0189842-224C-4427-A1D8-EC527B3D8739",
							MaskValue = 1,
							What = "Mask/Gradient",
							ZeroX = 0.194053,
							ZeroY = 0.691496,
						},
					},
					CorrectionReferenceX = 0.130206,
					CorrectionReferenceY = 0.846328,
					LocalBrightness = 0,
					LocalClarity = -1,
					LocalContrast = 0,
					LocalExposure = 0,
					LocalSaturation = 0,
					LocalSharpness = 0.25,
					LocalToningHue = 240,
					LocalToningSaturation = 0,
					What = "Correction",
				},
			},
			GreenHue = 0,
			GreenSaturation = 0,
			HighlightRecovery = 40,
			HueAdjustmentAqua = 0,
			HueAdjustmentBlue = 0,
			HueAdjustmentGreen = -28,
			HueAdjustmentMagenta = 0,
			HueAdjustmentOrange = -16,
			HueAdjustmentPurple = 0,
			HueAdjustmentRed = 25,
			HueAdjustmentYellow = -49,
			IncrementalTemperature = 40,
			IncrementalTint = -100,
			LuminanceAdjustmentAqua = 0,
			LuminanceAdjustmentBlue = 0,
			LuminanceAdjustmentGreen = 0,
			LuminanceAdjustmentMagenta = 0,
			LuminanceAdjustmentOrange = 8,
			LuminanceAdjustmentPurple = 0,
			LuminanceAdjustmentRed = -100,
			LuminanceAdjustmentYellow = 0,
			LuminanceSmoothing = 100,
			ParametricDarks = -13,
			ParametricHighlightSplit = 75,
			ParametricHighlights = 0,
			ParametricLights = 17,
			ParametricMidtoneSplit = 50,
			ParametricShadowSplit = 25,
			ParametricShadows = -46,
			PostCropVignetteAmount = -3,
			PostCropVignetteFeather = 50,
			PostCropVignetteMidpoint = 50,
			PostCropVignetteRoundness = 0,
			RedHue = 0,
			RedSaturation = 0,
			Saturation = -100,
			SaturationAdjustmentAqua = 0,
			SaturationAdjustmentBlue = 0,
			SaturationAdjustmentGreen = -67,
			SaturationAdjustmentMagenta = 0,
			SaturationAdjustmentOrange = -61,
			SaturationAdjustmentPurple = 0,
			SaturationAdjustmentRed = -31,
			SaturationAdjustmentYellow = -42,
			ShadowTint = 0,
			Shadows = 15,
			SharpenDetail = 25,
			SharpenEdgeMasking = 0,
			SharpenRadius = 1,
			Sharpness = 19,
			SplitToningBalance = 75,
			SplitToningHighlightHue = 35,
			SplitToningHighlightSaturation = 17,
			SplitToningShadowHue = 279,
			SplitToningShadowSaturation = 29,
			ToneCurve = {
				0,
				0,
				255,
				255,
			},
			ToneCurveName = "Linear",
			Vibrance = -18,
			VignetteAmount = -1,
			VignetteMidpoint = 50,
			WhiteBalance = "Custom",
		},
		uuid = "106FF10C-5C95-40DA-8A0D-D49A53EC4F0A",
	},
	version = 0,
}
