Preset 499 JPG/Dark Dreamly 5.lrtemplate
s = {
	id = "83ADB296-B077-4AFE-B532-7E72E844916D",
	internalName = "Dark Dreamly 5",
	title = "Dark Dreamly 5",
	type = "Develop",
	value = {
		settings = {
			AutoBrightness = false,
			AutoContrast = false,
			AutoExposure = false,
			AutoShadows = false,
			BlueHue = 0,
			BlueSaturation = 0,
			Brightness = -28,
			CameraProfile = "ACR 4.4",
			ChromaticAberrationB = 0,
			ChromaticAberrationR = 0,
			Clarity = 69,
			ColorNoiseReduction = 0,
			Contrast = 59,
			ConvertToGrayscale = false,
			Defringe = 0,
			EnableCalibration = true,
			EnableColorAdjustments = true,
			EnableDetail = true,
			EnableGradientBasedCorrections = true,
			EnableGrayscaleMix = true,
			EnableSplitToning = true,
			EnableVignettes = true,
			Exposure = -0.19,
			FillLight = 6,
			GreenHue = 0,
			GreenSaturation = 0,
			HighlightRecovery = 0,
			HueAdjustmentAqua = 0,
			HueAdjustmentBlue = -17,
			HueAdjustmentGreen = 0,
			HueAdjustmentMagenta = 0,
			HueAdjustmentOrange = 12,
			HueAdjustmentPurple = -5,
			HueAdjustmentRed = -63,
			HueAdjustmentYellow = -53,
			IncrementalTemperature = 51,
			IncrementalTint = 46,
			LuminanceAdjustmentAqua = 0,
			LuminanceAdjustmentBlue = 0,
			LuminanceAdjustmentGreen = 0,
			LuminanceAdjustmentMagenta = 0,
			LuminanceAdjustmentOrange = 0,
			LuminanceAdjustmentPurple = 0,
			LuminanceAdjustmentRed = 0,
			LuminanceAdjustmentYellow = 0,
			LuminanceSmoothing = 0,
			ParametricDarks = 9,
			ParametricHighlightSplit = 75,
			ParametricHighlights = 17,
			ParametricLights = 17,
			ParametricMidtoneSplit = 50,
			ParametricShadowSplit = 25,
			ParametricShadows = 44,
			PostCropVignetteAmount = -18,
			PostCropVignetteFeather = 50,
			PostCropVignetteMidpoint = 50,
			PostCropVignetteRoundness = 0,
			RedHue = 0,
			RedSaturation = 0,
			Saturation = 24,
			SaturationAdjustmentAqua = -18,
			SaturationAdjustmentBlue = 12,
			SaturationAdjustmentGreen = -99,
			SaturationAdjustmentMagenta = 0,
			SaturationAdjustmentOrange = -63,
			SaturationAdjustmentPurple = 0,
			SaturationAdjustmentRed = -32,
			SaturationAdjustmentYellow = -97,
			ShadowTint = 0,
			Shadows = 4,
			SharpenDetail = 25,
			SharpenEdgeMasking = 0,
			SharpenRadius = 1,
			Sharpness = 7,
			SplitToningBalance = 100,
			SplitToningHighlightHue = 59,
			SplitToningHighlightSaturation = 0,
			SplitToningShadowHue = 241,
			SplitToningShadowSaturation = 6,
			ToneCurve = {
				0,
				0,
				255,
				255,
			},
			ToneCurveName = "Linear",
			Vibrance = -53,
			VignetteAmount = -100,
			VignetteMidpoint = 50,
			WhiteBalance = "Custom",
		},
		uuid = "6D1F0F54-A461-44A0-A658-1329EC70564D",
	},
	version = 0,
}
