Preset 499 JPG/Dark Dreamly 17.lrtemplate
s = {
	id = "3AD69CF1-0D3B-44F3-A7D5-DB403C18A1EB",
	internalName = "Dark Dreamly 17",
	title = "Dark Dreamly 17",
	type = "Develop",
	value = {
		settings = {
			AutoBrightness = false,
			AutoContrast = false,
			AutoExposure = false,
			AutoShadows = false,
			BlueHue = 0,
			BlueSaturation = 0,
			Brightness = 51,
			CameraProfile = "Embedded",
			ChromaticAberrationB = 0,
			ChromaticAberrationR = 0,
			Clarity = -13,
			Contrast = -28,
			ConvertToGrayscale = true,
			Defringe = 0,
			EnableCalibration = true,
			EnableColorAdjustments = true,
			EnableDetail = true,
			EnableGradientBasedCorrections = true,
			EnableGrayscaleMix = true,
			EnableSplitToning = true,
			EnableVignettes = true,
			Exposure = 0.58,
			FillLight = 0,
			GrayMixerAqua = -21,
			GrayMixerBlue = 9,
			GrayMixerGreen = -27,
			GrayMixerMagenta = 10,
			GrayMixerOrange = -16,
			GrayMixerPurple = 19,
			GrayMixerRed = -4,
			GrayMixerYellow = -22,
			GreenHue = 0,
			GreenSaturation = 0,
			HighlightRecovery = 22,
			IncrementalTemperature = 11,
			IncrementalTint = 30,
			LuminanceSmoothing = 0,
			ParametricDarks = -9,
			ParametricHighlightSplit = 75,
			ParametricHighlights = -34,
			ParametricLights = 24,
			ParametricMidtoneSplit = 50,
			ParametricShadowSplit = 25,
			ParametricShadows = -24,
			PostCropVignetteAmount = 0,
			PostCropVignetteFeather = 50,
			PostCropVignetteMidpoint = 50,
			PostCropVignetteRoundness = 0,
			RedHue = 0,
			RedSaturation = 0,
			ShadowTint = 0,
			Shadows = 27,
			SharpenDetail = 25,
			SharpenEdgeMasking = 0,
			SharpenRadius = 1,
			Sharpness = 0,
			SplitToningBalance = 67,
			SplitToningHighlightHue = 46,
			SplitToningHighlightSaturation = 24,
			SplitToningShadowHue = 113,
			SplitToningShadowSaturation = 38,
			ToneCurve = {
				0,
				0,
				255,
				255,
			},
			ToneCurveName = "Linear",
			VignetteAmount = -100,
			VignetteMidpoint = 31,
			WhiteBalance = "Custom",
		},
		uuid = "7EBA0718-F92E-4375-84F8-61EA83618D7B",
	},
	version = 0,
}
