Preset 499 JPG/Dark Dreamly 7.lrtemplate
s = {
	id = "85B01A9A-8FE2-4AD9-A437-0D77BC460693",
	internalName = "Dark Dreamly 7",
	title = "Dark Dreamly 7",
	type = "Develop",
	value = {
		settings = {
			AutoBrightness = false,
			AutoContrast = false,
			AutoExposure = false,
			AutoShadows = false,
			BlueHue = 0,
			BlueSaturation = 0,
			Brightness = 0,
			CameraProfile = "Embedded",
			ChromaticAberrationB = 0,
			ChromaticAberrationR = 0,
			Clarity = 51,
			ColorNoiseReduction = 0,
			Contrast = 0,
			ConvertToGrayscale = false,
			Defringe = 0,
			EnableCalibration = true,
			EnableColorAdjustments = true,
			EnableDetail = true,
			EnableGradientBasedCorrections = true,
			EnableGrayscaleMix = true,
			EnableSplitToning = true,
			EnableVignettes = true,
			Exposure = 1.2,
			FillLight = 4,
			GreenHue = 0,
			GreenSaturation = 0,
			HighlightRecovery = 52,
			HueAdjustmentAqua = 0,
			HueAdjustmentBlue = 33,
			HueAdjustmentGreen = 0,
			HueAdjustmentMagenta = 0,
			HueAdjustmentOrange = 0,
			HueAdjustmentPurple = 0,
			HueAdjustmentRed = 0,
			HueAdjustmentYellow = 0,
			IncrementalTemperature = -59,
			IncrementalTint = -28,
			LuminanceAdjustmentAqua = 0,
			LuminanceAdjustmentBlue = 0,
			LuminanceAdjustmentGreen = 0,
			LuminanceAdjustmentMagenta = 0,
			LuminanceAdjustmentOrange = 0,
			LuminanceAdjustmentPurple = 0,
			LuminanceAdjustmentRed = 0,
			LuminanceAdjustmentYellow = 0,
			LuminanceSmoothing = 0,
			ParametricDarks = -20,
			ParametricHighlightSplit = 75,
			ParametricHighlights = 42,
			ParametricLights = 7,
			ParametricMidtoneSplit = 50,
			ParametricShadowSplit = 25,
			ParametricShadows = -32,
			PostCropVignetteAmount = 0,
			PostCropVignetteFeather = 50,
			PostCropVignetteMidpoint = 50,
			PostCropVignetteRoundness = 0,
			RedHue = 0,
			RedSaturation = 0,
			Saturation = -38,
			SaturationAdjustmentAqua = 0,
			SaturationAdjustmentBlue = -23,
			SaturationAdjustmentGreen = 0,
			SaturationAdjustmentMagenta = 0,
			SaturationAdjustmentOrange = 0,
			SaturationAdjustmentPurple = 0,
			SaturationAdjustmentRed = 0,
			SaturationAdjustmentYellow = 0,
			ShadowTint = 0,
			Shadows = 8,
			SharpenDetail = 25,
			SharpenEdgeMasking = 0,
			SharpenRadius = 1,
			Sharpness = 0,
			SplitToningBalance = 48,
			SplitToningHighlightHue = 82,
			SplitToningHighlightSaturation = 17,
			SplitToningShadowHue = 0,
			SplitToningShadowSaturation = 11,
			ToneCurve = {
				0,
				0,
				255,
				255,
			},
			ToneCurveName = "Linear",
			Vibrance = -42,
			VignetteAmount = -73,
			VignetteMidpoint = 50,
			WhiteBalance = "Custom",
		},
		uuid = "C06B1EE8-EB5B-41A7-BDD9-5BB692BC016F",
	},
	version = 0,
}
