Preset 499 JPG/Dark Dreamly 13.lrtemplate
s = {
	id = "6723C275-4009-4080-934A-9D0918534B89",
	internalName = "Dark Dreamly 13",
	title = "Dark Dreamly 13",
	type = "Develop",
	value = {
		settings = {
			AutoBrightness = false,
			AutoContrast = false,
			AutoExposure = false,
			AutoShadows = false,
			BlueHue = 0,
			BlueSaturation = 0,
			Brightness = 51,
			CameraProfile = "Embedded",
			ChromaticAberrationB = 0,
			ChromaticAberrationR = 0,
			Clarity = -13,
			ColorNoiseReduction = 0,
			Contrast = -28,
			ConvertToGrayscale = false,
			Defringe = 0,
			EnableCalibration = true,
			EnableColorAdjustments = true,
			EnableDetail = true,
			EnableGradientBasedCorrections = true,
			EnableGrayscaleMix = true,
			EnableSplitToning = true,
			EnableVignettes = true,
			Exposure = 0.58,
			FillLight = 0,
			GreenHue = 0,
			GreenSaturation = 0,
			HighlightRecovery = 22,
			HueAdjustmentAqua = 33,
			HueAdjustmentBlue = 0,
			HueAdjustmentGreen = 26,
			HueAdjustmentMagenta = 0,
			HueAdjustmentOrange = 22,
			HueAdjustmentPurple = 0,
			HueAdjustmentRed = 0,
			HueAdjustmentYellow = 28,
			IncrementalTemperature = 11,
			IncrementalTint = 30,
			LuminanceAdjustmentAqua = 0,
			LuminanceAdjustmentBlue = 0,
			LuminanceAdjustmentGreen = 0,
			LuminanceAdjustmentMagenta = 0,
			LuminanceAdjustmentOrange = 0,
			LuminanceAdjustmentPurple = 0,
			LuminanceAdjustmentRed = 0,
			LuminanceAdjustmentYellow = 0,
			LuminanceSmoothing = 0,
			ParametricDarks = -9,
			ParametricHighlightSplit = 75,
			ParametricHighlights = -34,
			ParametricLights = 24,
			ParametricMidtoneSplit = 50,
			ParametricShadowSplit = 25,
			ParametricShadows = -24,
			PostCropVignetteAmount = 0,
			PostCropVignetteFeather = 50,
			PostCropVignetteMidpoint = 50,
			PostCropVignetteRoundness = 0,
			RedHue = 0,
			RedSaturation = 0,
			Saturation = -42,
			SaturationAdjustmentAqua = 0,
			SaturationAdjustmentBlue = 0,
			SaturationAdjustmentGreen = 0,
			SaturationAdjustmentMagenta = 0,
			SaturationAdjustmentOrange = 0,
			SaturationAdjustmentPurple = 0,
			SaturationAdjustmentRed = 0,
			SaturationAdjustmentYellow = 43,
			ShadowTint = 0,
			Shadows = 27,
			SharpenDetail = 25,
			SharpenEdgeMasking = 0,
			SharpenRadius = 1,
			Sharpness = 0,
			SplitToningBalance = -63,
			SplitToningHighlightHue = 46,
			SplitToningHighlightSaturation = 47,
			SplitToningShadowHue = 113,
			SplitToningShadowSaturation = 11,
			ToneCurve = {
				0,
				0,
				255,
				255,
			},
			ToneCurveName = "Linear",
			Vibrance = -73,
			VignetteAmount = -100,
			VignetteMidpoint = 31,
			WhiteBalance = "Custom",
		},
		uuid = "614052EB-59E2-45DE-8AAD-91FAECCE1264",
	},
	version = 0,
}
