Preset 499 JPG/farb vol3.lrtemplate
s = {
	id = "5451D7C2-E299-4383-983E-CD3108A378B6",
	internalName = "farb vol3",
	title = "farb vol3",
	type = "Develop",
	value = {
		settings = {
			AutoBrightness = false,
			AutoContrast = false,
			AutoExposure = false,
			AutoShadows = false,
			BlueHue = 0,
			BlueSaturation = 0,
			Brightness = 5,
			CameraProfile = "ACR 2.4",
			ChromaticAberrationB = 0,
			ChromaticAberrationR = 0,
			Clarity = 91,
			ColorNoiseReduction = 42,
			Contrast = 67,
			ConvertToGrayscale = false,
			Defringe = 0,
			EnableCalibration = true,
			EnableColorAdjustments = true,
			EnableDetail = true,
			EnableGrayscaleMix = true,
			EnableSplitToning = true,
			EnableVignettes = true,
			Exposure = 0.58,
			FillLight = 14,
			GreenHue = 0,
			GreenSaturation = 0,
			HighlightRecovery = 86,
			HueAdjustmentAqua = 5,
			HueAdjustmentBlue = 87,
			HueAdjustmentGreen = 0,
			HueAdjustmentMagenta = -82,
			HueAdjustmentOrange = -5,
			HueAdjustmentPurple = 0,
			HueAdjustmentRed = 74,
			HueAdjustmentYellow = 48,
			LuminanceAdjustmentAqua = 0,
			LuminanceAdjustmentBlue = 0,
			LuminanceAdjustmentGreen = 0,
			LuminanceAdjustmentMagenta = 0,
			LuminanceAdjustmentOrange = 0,
			LuminanceAdjustmentPurple = 0,
			LuminanceAdjustmentRed = 0,
			LuminanceAdjustmentYellow = 0,
			LuminanceSmoothing = 75,
			ParametricDarks = 13,
			ParametricHighlightSplit = 75,
			ParametricHighlights = 40,
			ParametricLights = 11,
			ParametricMidtoneSplit = 50,
			ParametricShadowSplit = 25,
			ParametricShadows = -3,
			PostCropVignetteAmount = 0,
			PostCropVignetteFeather = 50,
			PostCropVignetteMidpoint = 50,
			PostCropVignetteRoundness = 0,
			RedHue = 13,
			RedSaturation = 0,
			Saturation = -40,
			SaturationAdjustmentAqua = 0,
			SaturationAdjustmentBlue = 0,
			SaturationAdjustmentGreen = 100,
			SaturationAdjustmentMagenta = 0,
			SaturationAdjustmentOrange = -18,
			SaturationAdjustmentPurple = 0,
			SaturationAdjustmentRed = 100,
			SaturationAdjustmentYellow = 0,
			ShadowTint = 0,
			Shadows = 8,
			SharpenDetail = 81,
			SharpenEdgeMasking = 86,
			SharpenRadius = 1,
			Sharpness = 60,
			SplitToningBalance = 85,
			SplitToningHighlightHue = 0,
			SplitToningHighlightSaturation = 0,
			SplitToningShadowHue = 0,
			SplitToningShadowSaturation = 0,
			Temperature = 6477,
			Tint = 10,
			ToneCurve = {
				0,
				0,
				255,
				255,
			},
			ToneCurveName = "Linear",
			Vibrance = 29,
			VignetteAmount = -100,
			VignetteMidpoint = 27,
			WhiteBalance = "Custom",
		},
		uuid = "697D308B-7A9A-4A9F-902A-F7BA5911F6CD",
	},
	version = 0,
}
