Preset 499 JPG/Hintergrund Grau mit Rahmen.lrtemplate
s = {
	id = "217D836C-6E02-43BF-BA53-FE098CFB1521",
	internalName = "Hintergrund Grau mit Rahmen",
	title = "Hintergrund Grau mit Rahmen",
	type = "Develop",
	value = {
		settings = {
			AutoBrightness = false,
			AutoContrast = false,
			AutoExposure = false,
			AutoShadows = false,
			BlueHue = 0,
			BlueSaturation = 0,
			Brightness = 0,
			CameraProfile = "Embedded",
			ChromaticAberrationB = 0,
			ChromaticAberrationR = 0,
			Clarity = 11,
			ColorNoiseReduction = 0,
			Contrast = 22,
			ConvertToGrayscale = false,
			Defringe = 0,
			EnableCalibration = true,
			EnableColorAdjustments = true,
			EnableDetail = true,
			EnableGradientBasedCorrections = true,
			EnableGrayscaleMix = true,
			EnableSplitToning = true,
			EnableVignettes = true,
			Exposure = 0.8,
			FillLight = 0,
			GradientBasedCorrections = {
				{
					CorrectionActive = true,
					CorrectionAmount = 1,
					CorrectionID = "431F4DEF-B23F-4C54-A56B-A9FB0A0A8BDD",
					CorrectionMasks = {
						{
							FullX = 0.417789,
							FullY = 0.034685,
							MaskID = "03DACECA-81B2-4FF2-8BB8-7F071EEA1DC1",
							MaskValue = 1,
							What = "Mask/Gradient",
							ZeroX = 0.445709,
							ZeroY = 0.391147,
						},
					},
					CorrectionReferenceX = 0.431749,
					CorrectionReferenceY = 0.212916,
					LocalBrightness = 0,
					LocalClarity = -1,
					LocalContrast = 0,
					LocalExposure = 0,
					LocalSaturation = 0,
					LocalSharpness = 0.25,
					LocalToningHue = 240,
					LocalToningSaturation = 0,
					What = "Correction",
				},
				{
					CorrectionActive = true,
					CorrectionAmount = 1,
					CorrectionID = "793000E6-066D-4379-9EAB-3B2CA8D808DE",
					CorrectionMasks = {
						{
							FullX = 0.288905,
							FullY = 0.945373,
							MaskID = "EA2FE4E1-B241-4E6F-BF31-F2EE76B0F0A3",
							MaskValue = 1,
							What = "Mask/Gradient",
							ZeroX = 0.387931,
							ZeroY = 0.579741,
						},
					},
					CorrectionReferenceX = 0.338418,
					CorrectionReferenceY = 0.762557,
					LocalBrightness = 0,
					LocalClarity = -1,
					LocalContrast = 0,
					LocalExposure = 0,
					LocalSaturation = 0,
					LocalSharpness = 0.25,
					LocalToningHue = 240,
					LocalToningSaturation = 0,
					What = "Correction",
				},
			},
			GreenHue = 0,
			GreenSaturation = 0,
			HighlightRecovery = 0,
			HueAdjustmentAqua = 0,
			HueAdjustmentBlue = 25,
			HueAdjustmentGreen = 0,
			HueAdjustmentMagenta = 20,
			HueAdjustmentOrange = 0,
			HueAdjustmentPurple = 0,
			HueAdjustmentRed = -8,
			HueAdjustmentYellow = -6,
			IncrementalTemperature = 1,
			IncrementalTint = 11,
			LuminanceAdjustmentAqua = 0,
			LuminanceAdjustmentBlue = 0,
			LuminanceAdjustmentGreen = 0,
			LuminanceAdjustmentMagenta = 0,
			LuminanceAdjustmentOrange = 0,
			LuminanceAdjustmentPurple = 0,
			LuminanceAdjustmentRed = 0,
			LuminanceAdjustmentYellow = 0,
			LuminanceSmoothing = 0,
			ParametricDarks = -1,
			ParametricHighlightSplit = 75,
			ParametricHighlights = -4,
			ParametricLights = -6,
			ParametricMidtoneSplit = 50,
			ParametricShadowSplit = 25,
			ParametricShadows = -6,
			PostCropVignetteAmount = 100,
			PostCropVignetteFeather = 100,
			PostCropVignetteMidpoint = 0,
			PostCropVignetteRoundness = -100,
			RedHue = 0,
			RedSaturation = 0,
			Saturation = -39,
			SaturationAdjustmentAqua = 0,
			SaturationAdjustmentBlue = -22,
			SaturationAdjustmentGreen = -55,
			SaturationAdjustmentMagenta = 18,
			SaturationAdjustmentOrange = 34,
			SaturationAdjustmentPurple = 0,
			SaturationAdjustmentRed = 55,
			SaturationAdjustmentYellow = 0,
			ShadowTint = 0,
			Shadows = 12,
			SharpenDetail = 25,
			SharpenEdgeMasking = 0,
			SharpenRadius = 1,
			Sharpness = 0,
			SplitToningBalance = 0,
			SplitToningHighlightHue = 0,
			SplitToningHighlightSaturation = 0,
			SplitToningShadowHue = 55,
			SplitToningShadowSaturation = 11,
			ToneCurve = {
				0,
				0,
				255,
				255,
			},
			ToneCurveName = "Linear",
			Vibrance = 8,
			VignetteAmount = 100,
			VignetteMidpoint = 100,
			WhiteBalance = "Custom",
		},
		uuid = "1E9A87A9-DFDE-43D1-BF18-D64F917FDACE",
	},
	version = 0,
}
