Preset 499 JPG/JPG 2.lrtemplate
s = {
	id = "70AD1AF6-A0F8-42CB-A1B0-078743E2FE18",
	internalName = "JPG 2",
	title = "JPG 2",
	type = "Develop",
	value = {
		settings = {
			AutoBrightness = false,
			AutoContrast = false,
			AutoExposure = false,
			AutoShadows = false,
			BlueHue = 0,
			BlueSaturation = 0,
			Brightness = -33,
			CameraProfile = "Adobe Standard",
			ChromaticAberrationB = 0,
			ChromaticAberrationR = 0,
			Clarity = -13,
			Contrast = 81,
			ConvertToGrayscale = true,
			Defringe = 0,
			EnableCalibration = true,
			EnableColorAdjustments = true,
			EnableDetail = true,
			EnableGradientBasedCorrections = true,
			EnableGrayscaleMix = true,
			EnableSplitToning = true,
			EnableVignettes = true,
			Exposure = 0.12,
			FillLight = 4,
			GrayMixerAqua = -24,
			GrayMixerBlue = -2,
			GrayMixerGreen = -19,
			GrayMixerMagenta = 15,
			GrayMixerOrange = 0,
			GrayMixerPurple = 14,
			GrayMixerRed = 12,
			GrayMixerYellow = -7,
			GreenHue = 0,
			GreenSaturation = 0,
			HighlightRecovery = 0,
			IncrementalTemperature = 100,
			IncrementalTint = -2,
			LuminanceSmoothing = 90,
			ParametricDarks = -9,
			ParametricHighlightSplit = 75,
			ParametricHighlights = 0,
			ParametricLights = -1,
			ParametricMidtoneSplit = 50,
			ParametricShadowSplit = 25,
			ParametricShadows = -15,
			PostCropVignetteAmount = 0,
			PostCropVignetteFeather = 50,
			PostCropVignetteMidpoint = 50,
			PostCropVignetteRoundness = 0,
			RedHue = 0,
			RedSaturation = 0,
			ShadowTint = 0,
			Shadows = 6,
			SharpenDetail = 25,
			SharpenEdgeMasking = 0,
			SharpenRadius = 1,
			Sharpness = 25,
			SplitToningBalance = -69,
			SplitToningHighlightHue = 28,
			SplitToningHighlightSaturation = 24,
			SplitToningShadowHue = 360,
			SplitToningShadowSaturation = 0,
			ToneCurve = {
				0,
				0,
				32,
				22,
				64,
				56,
				128,
				128,
				192,
				196,
				255,
				255,
			},
			ToneCurveName = "Medium Contrast",
			VignetteAmount = 0,
			VignetteMidpoint = 50,
			WhiteBalance = "Custom",
		},
		uuid = "21B33EB9-D6E3-437A-892A-55F51564A795",
	},
	version = 0,
}
