Preset 499 JPG/jpg 13.lrtemplate
s = {
	id = "75744F2B-99C6-4C6B-84E8-624FA265FAB9",
	internalName = "jpg 13",
	title = "jpg 13",
	type = "Develop",
	value = {
		settings = {
			AutoBrightness = false,
			AutoContrast = false,
			AutoExposure = false,
			AutoShadows = false,
			BlueHue = 0,
			BlueSaturation = 0,
			Brightness = -4,
			CameraProfile = "Embedded",
			ChromaticAberrationB = 0,
			ChromaticAberrationR = 0,
			Clarity = -9,
			Contrast = 0,
			ConvertToGrayscale = true,
			Defringe = 0,
			EnableCalibration = true,
			EnableColorAdjustments = true,
			EnableDetail = true,
			EnableGradientBasedCorrections = true,
			EnableGrayscaleMix = true,
			EnableSplitToning = true,
			EnableVignettes = true,
			Exposure = 0.51,
			FillLight = 6,
			GrayMixerAqua = -19,
			GrayMixerBlue = -99,
			GrayMixerGreen = -38,
			GrayMixerMagenta = 26,
			GrayMixerOrange = -19,
			GrayMixerPurple = 11,
			GrayMixerRed = -16,
			GrayMixerYellow = -29,
			GreenHue = 0,
			GreenSaturation = 0,
			HighlightRecovery = 0,
			IncrementalTemperature = 18,
			IncrementalTint = 0,
			LuminanceSmoothing = 0,
			ParametricDarks = -15,
			ParametricHighlightSplit = 75,
			ParametricHighlights = 32,
			ParametricLights = 9,
			ParametricMidtoneSplit = 50,
			ParametricShadowSplit = 25,
			ParametricShadows = -36,
			PostCropVignetteAmount = 0,
			PostCropVignetteFeather = 50,
			PostCropVignetteMidpoint = 50,
			PostCropVignetteRoundness = 0,
			RedHue = 0,
			RedSaturation = 0,
			ShadowTint = 0,
			Shadows = 8,
			SharpenDetail = 25,
			SharpenEdgeMasking = 0,
			SharpenRadius = 1,
			Sharpness = 0,
			SplitToningBalance = -75,
			SplitToningHighlightHue = 347,
			SplitToningHighlightSaturation = 9,
			SplitToningShadowHue = 53,
			SplitToningShadowSaturation = 15,
			ToneCurve = {
				0,
				0,
				255,
				255,
			},
			ToneCurveName = "Linear",
			VignetteAmount = 0,
			VignetteMidpoint = 50,
			WhiteBalance = "Custom",
		},
		uuid = "B09D009F-84B9-4103-9388-BA1F3D1A5B6F",
	},
	version = 0,
}
