Preset 499 JPG/KINDERGARTEN nr.4.lrtemplate
s = {
	id = "64674C33-2FDE-4319-8611-811BBE8ACC77",
	internalName = "KINDERGARTEN nr.4",
	title = "KINDERGARTEN nr.4",
	type = "Develop",
	value = {
		settings = {
			AutoBrightness = false,
			AutoContrast = false,
			AutoExposure = false,
			AutoShadows = false,
			BlueHue = 0,
			BlueSaturation = 0,
			Brightness = 50,
			CameraProfile = "Embedded",
			ChromaticAberrationB = 0,
			ChromaticAberrationR = 0,
			Clarity = 11,
			ColorNoiseReduction = 0,
			Contrast = 20,
			ConvertToGrayscale = false,
			Defringe = 0,
			EnableCalibration = true,
			EnableColorAdjustments = true,
			EnableDetail = true,
			EnableGrayscaleMix = true,
			EnableSplitToning = true,
			EnableVignettes = true,
			Exposure = 0.04,
			FillLight = 10,
			GreenHue = 0,
			GreenSaturation = 0,
			HighlightRecovery = 10,
			HueAdjustmentAqua = 0,
			HueAdjustmentBlue = 0,
			HueAdjustmentGreen = 0,
			HueAdjustmentMagenta = 0,
			HueAdjustmentOrange = 0,
			HueAdjustmentPurple = 0,
			HueAdjustmentRed = 0,
			HueAdjustmentYellow = 0,
			IncrementalTemperature = -20,
			IncrementalTint = -35,
			LuminanceAdjustmentAqua = 0,
			LuminanceAdjustmentBlue = 0,
			LuminanceAdjustmentGreen = 0,
			LuminanceAdjustmentMagenta = 0,
			LuminanceAdjustmentOrange = 0,
			LuminanceAdjustmentPurple = 0,
			LuminanceAdjustmentRed = 0,
			LuminanceAdjustmentYellow = 0,
			LuminanceSmoothing = 0,
			ParametricDarks = 0,
			ParametricHighlightSplit = 75,
			ParametricHighlights = 0,
			ParametricLights = 0,
			ParametricMidtoneSplit = 50,
			ParametricShadowSplit = 25,
			ParametricShadows = 0,
			PostCropVignetteAmount = 0,
			PostCropVignetteFeather = 50,
			PostCropVignetteMidpoint = 50,
			PostCropVignetteRoundness = 0,
			RedHue = 0,
			RedSaturation = 0,
			Saturation = -15,
			SaturationAdjustmentAqua = -60,
			SaturationAdjustmentBlue = -40,
			SaturationAdjustmentGreen = -70,
			SaturationAdjustmentMagenta = -20,
			SaturationAdjustmentOrange = -55,
			SaturationAdjustmentPurple = -55,
			SaturationAdjustmentRed = -60,
			SaturationAdjustmentYellow = -50,
			ShadowTint = 0,
			Shadows = 10,
			SharpenDetail = 25,
			SharpenEdgeMasking = 0,
			SharpenRadius = 1,
			Sharpness = 0,
			SplitToningBalance = 0,
			SplitToningHighlightHue = 0,
			SplitToningHighlightSaturation = 0,
			SplitToningShadowHue = 0,
			SplitToningShadowSaturation = 0,
			ToneCurve = {
				0,
				0,
				32,
				22,
				64,
				56,
				128,
				128,
				192,
				196,
				255,
				255,
			},
			ToneCurveName = "Medium Contrast",
			Vibrance = -10,
			VignetteAmount = 61,
			VignetteMidpoint = 30,
			WhiteBalance = "Custom",
		},
		uuid = "B4EDE73D-7693-407D-8437-499EAAD1C2A2",
	},
	version = 0,
}
