Preset 499 JPG/Kindergarten Nr.6.lrtemplate
s = {
	id = "AB654F1C-1996-4C87-9A2C-90700743CAEA",
	internalName = "Kindergarten Nr.6",
	title = "Kindergarten Nr.6",
	type = "Develop",
	value = {
		settings = {
			AutoBrightness = false,
			AutoContrast = false,
			AutoExposure = false,
			AutoShadows = false,
			BlueHue = 0,
			BlueSaturation = 0,
			Brightness = 0,
			CameraProfile = "Embedded",
			ChromaticAberrationB = 0,
			ChromaticAberrationR = 0,
			Clarity = 100,
			ColorNoiseReduction = 0,
			Contrast = 0,
			ConvertToGrayscale = false,
			Defringe = 0,
			EnableCalibration = true,
			EnableColorAdjustments = true,
			EnableDetail = true,
			EnableGrayscaleMix = true,
			EnableSplitToning = true,
			EnableVignettes = true,
			Exposure = 0,
			FillLight = 0,
			GreenHue = 0,
			GreenSaturation = 0,
			HighlightRecovery = 0,
			HueAdjustmentAqua = 0,
			HueAdjustmentBlue = 0,
			HueAdjustmentGreen = 0,
			HueAdjustmentMagenta = 0,
			HueAdjustmentOrange = 0,
			HueAdjustmentPurple = 0,
			HueAdjustmentRed = 0,
			HueAdjustmentYellow = 0,
			IncrementalTemperature = -26,
			IncrementalTint = 0,
			LuminanceAdjustmentAqua = 0,
			LuminanceAdjustmentBlue = 0,
			LuminanceAdjustmentGreen = 0,
			LuminanceAdjustmentMagenta = 0,
			LuminanceAdjustmentOrange = 0,
			LuminanceAdjustmentPurple = 0,
			LuminanceAdjustmentRed = 0,
			LuminanceAdjustmentYellow = 0,
			LuminanceSmoothing = 0,
			ParametricDarks = -3,
			ParametricHighlightSplit = 75,
			ParametricHighlights = 0,
			ParametricLights = 0,
			ParametricMidtoneSplit = 50,
			ParametricShadowSplit = 25,
			ParametricShadows = -14,
			PostCropVignetteAmount = 0,
			PostCropVignetteFeather = 50,
			PostCropVignetteMidpoint = 50,
			PostCropVignetteRoundness = 0,
			RedHue = 0,
			RedSaturation = 0,
			Saturation = -70,
			SaturationAdjustmentAqua = 0,
			SaturationAdjustmentBlue = 0,
			SaturationAdjustmentGreen = 2,
			SaturationAdjustmentMagenta = 0,
			SaturationAdjustmentOrange = 0,
			SaturationAdjustmentPurple = 0,
			SaturationAdjustmentRed = 0,
			SaturationAdjustmentYellow = 0,
			ShadowTint = 0,
			Shadows = 0,
			SharpenDetail = 25,
			SharpenEdgeMasking = 0,
			SharpenRadius = 1,
			Sharpness = 0,
			SplitToningBalance = 0,
			SplitToningHighlightHue = 57,
			SplitToningHighlightSaturation = 15,
			SplitToningShadowHue = 57,
			SplitToningShadowSaturation = 15,
			ToneCurve = {
				0,
				0,
				32,
				16,
				64,
				50,
				128,
				128,
				192,
				202,
				255,
				255,
			},
			ToneCurveName = "Strong Contrast",
			Vibrance = 0,
			VignetteAmount = 100,
			VignetteMidpoint = 34,
			WhiteBalance = "Custom",
		},
		uuid = "EB1E4952-8477-4002-AA95-C9A32F60D5AA",
	},
	version = 0,
}
