Preset 499 JPG/Kreativ4.lrtemplate
s = {
	id = "827F2831-E0BF-4ADF-9563-0B7AFA2B9938",
	internalName = "Kreativ4",
	title = "Kreativ4",
	type = "Develop",
	value = {
		settings = {
			AutoBrightness = false,
			AutoContrast = false,
			AutoExposure = false,
			AutoShadows = false,
			BlueHue = -32,
			BlueSaturation = 0,
			Brightness = 51,
			CameraProfile = "Embedded",
			ChromaticAberrationB = 0,
			ChromaticAberrationR = 0,
			Clarity = -20,
			ColorNoiseReduction = 0,
			Contrast = 36,
			ConvertToGrayscale = false,
			Defringe = 0,
			EnableCalibration = true,
			EnableColorAdjustments = true,
			EnableDetail = true,
			EnableGradientBasedCorrections = true,
			EnableGrayscaleMix = true,
			EnableSplitToning = true,
			EnableVignettes = true,
			Exposure = 1.2,
			FillLight = 11,
			GreenHue = -34,
			GreenSaturation = 0,
			HighlightRecovery = 40,
			HueAdjustmentAqua = 0,
			HueAdjustmentBlue = 0,
			HueAdjustmentGreen = 0,
			HueAdjustmentMagenta = 0,
			HueAdjustmentOrange = 0,
			HueAdjustmentPurple = 0,
			HueAdjustmentRed = 0,
			HueAdjustmentYellow = 0,
			IncrementalTemperature = 3,
			IncrementalTint = 0,
			LuminanceAdjustmentAqua = 0,
			LuminanceAdjustmentBlue = 0,
			LuminanceAdjustmentGreen = 0,
			LuminanceAdjustmentMagenta = 0,
			LuminanceAdjustmentOrange = 0,
			LuminanceAdjustmentPurple = 0,
			LuminanceAdjustmentRed = 0,
			LuminanceAdjustmentYellow = 0,
			LuminanceSmoothing = 5,
			ParametricDarks = -16,
			ParametricHighlightSplit = 88,
			ParametricHighlights = 11,
			ParametricLights = 32,
			ParametricMidtoneSplit = 61,
			ParametricShadowSplit = 10,
			ParametricShadows = -53,
			PostCropVignetteAmount = 13,
			PostCropVignetteFeather = 89,
			PostCropVignetteMidpoint = 50,
			PostCropVignetteRoundness = 0,
			RedHue = -34,
			RedSaturation = -59,
			Saturation = -100,
			SaturationAdjustmentAqua = 0,
			SaturationAdjustmentBlue = 0,
			SaturationAdjustmentGreen = 0,
			SaturationAdjustmentMagenta = 2,
			SaturationAdjustmentOrange = 0,
			SaturationAdjustmentPurple = 4,
			SaturationAdjustmentRed = 0,
			SaturationAdjustmentYellow = 0,
			ShadowTint = 100,
			Shadows = 13,
			SharpenDetail = 25,
			SharpenEdgeMasking = 0,
			SharpenRadius = 1,
			Sharpness = 9,
			SplitToningBalance = -50,
			SplitToningHighlightHue = 26,
			SplitToningHighlightSaturation = 17,
			SplitToningShadowHue = 15,
			SplitToningShadowSaturation = 5,
			ToneCurve = {
				0,
				0,
				255,
				255,
			},
			ToneCurveName = "Linear",
			Vibrance = 100,
			VignetteAmount = 0,
			VignetteMidpoint = 50,
			WhiteBalance = "Custom",
		},
		uuid = "226671FB-B9EA-4BDE-893B-9339E8682A22",
	},
	version = 0,
}
