Preset 499 JPG/NeuKreativ 4.lrtemplate
s = {
	id = "A5840B3A-ED6E-4081-9728-BE4F177F794A",
	internalName = "NeuKreativ 4",
	title = "NeuKreativ 4",
	type = "Develop",
	value = {
		settings = {
			AutoBrightness = false,
			AutoContrast = false,
			AutoExposure = false,
			AutoShadows = false,
			BlueHue = 0,
			BlueSaturation = 0,
			Brightness = 22,
			CameraProfile = "Embedded",
			ChromaticAberrationB = 0,
			ChromaticAberrationR = 0,
			Clarity = 20,
			ColorNoiseReduction = 0,
			Contrast = 58,
			ConvertToGrayscale = false,
			Defringe = 0,
			EnableCalibration = true,
			EnableColorAdjustments = true,
			EnableDetail = true,
			EnableGradientBasedCorrections = true,
			EnableGrayscaleMix = true,
			EnableSplitToning = true,
			EnableVignettes = true,
			Exposure = 0.35,
			FillLight = 62,
			GradientBasedCorrections = {
				{
					CorrectionActive = true,
					CorrectionAmount = 1,
					CorrectionID = "431F4DEF-B23F-4C54-A56B-A9FB0A0A8BDD",
					CorrectionMasks = {
						{
							FullX = 0.417789,
							FullY = 0.034685,
							MaskID = "03DACECA-81B2-4FF2-8BB8-7F071EEA1DC1",
							MaskValue = 1,
							What = "Mask/Gradient",
							ZeroX = 0.445709,
							ZeroY = 0.391147,
						},
					},
					CorrectionReferenceX = 0.431749,
					CorrectionReferenceY = 0.212916,
					LocalBrightness = 0,
					LocalClarity = -1,
					LocalContrast = 0,
					LocalExposure = 0,
					LocalSaturation = 0,
					LocalSharpness = 0.25,
					LocalToningHue = 240,
					LocalToningSaturation = 0,
					What = "Correction",
				},
				{
					CorrectionActive = true,
					CorrectionAmount = 1,
					CorrectionID = "793000E6-066D-4379-9EAB-3B2CA8D808DE",
					CorrectionMasks = {
						{
							FullX = 0.288905,
							FullY = 0.945373,
							MaskID = "EA2FE4E1-B241-4E6F-BF31-F2EE76B0F0A3",
							MaskValue = 1,
							What = "Mask/Gradient",
							ZeroX = 0.387931,
							ZeroY = 0.579741,
						},
					},
					CorrectionReferenceX = 0.338418,
					CorrectionReferenceY = 0.762557,
					LocalBrightness = 0,
					LocalClarity = -1,
					LocalContrast = 0,
					LocalExposure = 0,
					LocalSaturation = 0,
					LocalSharpness = 0.25,
					LocalToningHue = 240,
					LocalToningSaturation = 0,
					What = "Correction",
				},
			},
			GreenHue = 0,
			GreenSaturation = 0,
			HighlightRecovery = 0,
			HueAdjustmentAqua = 0,
			HueAdjustmentBlue = -77,
			HueAdjustmentGreen = -65,
			HueAdjustmentMagenta = 49,
			HueAdjustmentOrange = 0,
			HueAdjustmentPurple = 0,
			HueAdjustmentRed = 0,
			HueAdjustmentYellow = 63,
			IncrementalTemperature = 13,
			IncrementalTint = 0,
			LuminanceAdjustmentAqua = 0,
			LuminanceAdjustmentBlue = 0,
			LuminanceAdjustmentGreen = 0,
			LuminanceAdjustmentMagenta = 0,
			LuminanceAdjustmentOrange = 0,
			LuminanceAdjustmentPurple = 0,
			LuminanceAdjustmentRed = 0,
			LuminanceAdjustmentYellow = 0,
			LuminanceSmoothing = 9,
			ParametricDarks = 0,
			ParametricHighlightSplit = 75,
			ParametricHighlights = 0,
			ParametricLights = 0,
			ParametricMidtoneSplit = 50,
			ParametricShadowSplit = 25,
			ParametricShadows = 0,
			PostCropVignetteAmount = 46,
			PostCropVignetteFeather = 100,
			PostCropVignetteMidpoint = 45,
			PostCropVignetteRoundness = -100,
			RedHue = 0,
			RedSaturation = 0,
			Saturation = -100,
			SaturationAdjustmentAqua = 0,
			SaturationAdjustmentBlue = 0,
			SaturationAdjustmentGreen = 0,
			SaturationAdjustmentMagenta = 0,
			SaturationAdjustmentOrange = 0,
			SaturationAdjustmentPurple = 0,
			SaturationAdjustmentRed = 52,
			SaturationAdjustmentYellow = 0,
			ShadowTint = -75,
			Shadows = 30,
			SharpenDetail = 25,
			SharpenEdgeMasking = 0,
			SharpenRadius = 1,
			Sharpness = 3,
			SplitToningBalance = 0,
			SplitToningHighlightHue = 0,
			SplitToningHighlightSaturation = 0,
			SplitToningShadowHue = 37,
			SplitToningShadowSaturation = 29,
			ToneCurve = {
				0,
				0,
				255,
				255,
			},
			ToneCurveName = "Linear",
			Vibrance = 71,
			VignetteAmount = 24,
			VignetteMidpoint = 6,
			WhiteBalance = "Custom",
		},
		uuid = "5971CE79-5FE4-43C3-8C4A-EBE95B26C1F9",
	},
	version = 0,
}
