Preset 499 JPG/Red Dream 4.lrtemplate
s = {
	id = "BB49DC3D-38C7-4A3A-B56B-2F659B97695F",
	internalName = "Red Dream 4",
	title = "Red Dream 4",
	type = "Develop",
	value = {
		settings = {
			AutoBrightness = false,
			AutoContrast = false,
			AutoExposure = false,
			AutoShadows = false,
			BlueHue = 0,
			BlueSaturation = 0,
			Brightness = -7,
			CameraProfile = "Embedded",
			ChromaticAberrationB = 0,
			ChromaticAberrationR = -1,
			Clarity = 20,
			ColorNoiseReduction = 0,
			Contrast = 56,
			ConvertToGrayscale = false,
			Defringe = 0,
			EnableCalibration = true,
			EnableColorAdjustments = true,
			EnableDetail = true,
			EnableGradientBasedCorrections = true,
			EnableGrayscaleMix = true,
			EnableSplitToning = true,
			EnableVignettes = true,
			Exposure = -0.86,
			FillLight = 8,
			GradientBasedCorrections = {
				{
					CorrectionActive = true,
					CorrectionAmount = 1,
					CorrectionID = "38386818-478C-4954-921B-F5E87FB784EA",
					CorrectionMasks = {
						{
							FullX = 0.329544,
							FullY = -0.155458,
							MaskID = "86CD1AB9-F96B-49D3-BEF0-1BBCD0831119",
							MaskValue = 1,
							What = "Mask/Gradient",
							ZeroX = 0.40743,
							ZeroY = 0.221833,
						},
					},
					CorrectionReferenceX = 0.368487,
					CorrectionReferenceY = 0.0331875,
					LocalBrightness = 0,
					LocalClarity = -1,
					LocalContrast = 0,
					LocalExposure = 0,
					LocalSaturation = 0,
					LocalSharpness = 0.25,
					LocalToningHue = 240,
					LocalToningSaturation = 0,
					What = "Correction",
				},
				{
					CorrectionActive = true,
					CorrectionAmount = 1,
					CorrectionID = "4A603A3C-CDB5-4C0E-B90A-876C17613D75",
					CorrectionMasks = {
						{
							FullX = 0.066359,
							FullY = 1.00116,
							MaskID = "E0189842-224C-4427-A1D8-EC527B3D8739",
							MaskValue = 1,
							What = "Mask/Gradient",
							ZeroX = 0.194053,
							ZeroY = 0.691496,
						},
					},
					CorrectionReferenceX = 0.130206,
					CorrectionReferenceY = 0.846328,
					LocalBrightness = 0,
					LocalClarity = -1,
					LocalContrast = 0,
					LocalExposure = 0,
					LocalSaturation = 0,
					LocalSharpness = 0.25,
					LocalToningHue = 240,
					LocalToningSaturation = 0,
					What = "Correction",
				},
			},
			GreenHue = 0,
			GreenSaturation = 0,
			HighlightRecovery = 71,
			HueAdjustmentAqua = 0,
			HueAdjustmentBlue = 0,
			HueAdjustmentGreen = -28,
			HueAdjustmentMagenta = 0,
			HueAdjustmentOrange = -14,
			HueAdjustmentPurple = 0,
			HueAdjustmentRed = 25,
			HueAdjustmentYellow = -28,
			IncrementalTemperature = 36,
			IncrementalTint = -3,
			LuminanceAdjustmentAqua = 0,
			LuminanceAdjustmentBlue = 0,
			LuminanceAdjustmentGreen = 0,
			LuminanceAdjustmentMagenta = 0,
			LuminanceAdjustmentOrange = 8,
			LuminanceAdjustmentPurple = 0,
			LuminanceAdjustmentRed = -19,
			LuminanceAdjustmentYellow = 0,
			LuminanceSmoothing = 100,
			ParametricDarks = -33,
			ParametricHighlightSplit = 75,
			ParametricHighlights = 1,
			ParametricLights = 57,
			ParametricMidtoneSplit = 50,
			ParametricShadowSplit = 25,
			ParametricShadows = -32,
			PostCropVignetteAmount = -3,
			PostCropVignetteFeather = 50,
			PostCropVignetteMidpoint = 50,
			PostCropVignetteRoundness = 0,
			RedHue = 0,
			RedSaturation = 0,
			Saturation = -75,
			SaturationAdjustmentAqua = 0,
			SaturationAdjustmentBlue = 0,
			SaturationAdjustmentGreen = -9,
			SaturationAdjustmentMagenta = 0,
			SaturationAdjustmentOrange = -24,
			SaturationAdjustmentPurple = 0,
			SaturationAdjustmentRed = -31,
			SaturationAdjustmentYellow = -5,
			ShadowTint = 0,
			Shadows = 4,
			SharpenDetail = 25,
			SharpenEdgeMasking = 0,
			SharpenRadius = 1,
			Sharpness = 19,
			SplitToningBalance = 81,
			SplitToningHighlightHue = 35,
			SplitToningHighlightSaturation = 10,
			SplitToningShadowHue = 279,
			SplitToningShadowSaturation = 33,
			ToneCurve = {
				0,
				0,
				255,
				255,
			},
			ToneCurveName = "Linear",
			Vibrance = -28,
			VignetteAmount = -100,
			VignetteMidpoint = 26,
			WhiteBalance = "Custom",
		},
		uuid = "B1DC5B09-3E99-413B-AE37-E4C36333CBF1",
	},
	version = 0,
}
