Preset 499 JPG/schwarzqwiss.lrtemplate
s = {
	id = "66839786-197E-4F8C-8646-E0D131DB92ED",
	internalName = "schwarzqwiss",
	title = "schwarzqwiss",
	type = "Develop",
	value = {
		settings = {
			AutoBrightness = false,
			AutoContrast = false,
			AutoExposure = false,
			AutoShadows = false,
			BlueHue = 0,
			BlueSaturation = 0,
			Brightness = 71,
			CameraProfile = "ACR 4.4",
			ChromaticAberrationB = 0,
			ChromaticAberrationR = 0,
			Clarity = 0,
			Contrast = 38,
			ConvertToGrayscale = true,
			Defringe = 0,
			EnableCalibration = true,
			EnableColorAdjustments = true,
			EnableDetail = true,
			EnableGrayscaleMix = true,
			EnableSplitToning = true,
			EnableVignettes = true,
			Exposure = 0.15,
			FillLight = 0,
			GrayMixerAqua = -21,
			GrayMixerBlue = 22,
			GrayMixerGreen = -36,
			GrayMixerMagenta = 33,
			GrayMixerOrange = 13,
			GrayMixerPurple = 47,
			GrayMixerRed = 48,
			GrayMixerYellow = -15,
			GreenHue = 0,
			GreenSaturation = 0,
			HighlightRecovery = 0,
			LuminanceSmoothing = 0,
			ParametricDarks = 0,
			ParametricHighlightSplit = 75,
			ParametricHighlights = 0,
			ParametricLights = 0,
			ParametricMidtoneSplit = 50,
			ParametricShadowSplit = 25,
			ParametricShadows = 0,
			PostCropVignetteAmount = 0,
			PostCropVignetteFeather = 50,
			PostCropVignetteMidpoint = 50,
			PostCropVignetteRoundness = 0,
			RedHue = 0,
			RedSaturation = 0,
			ShadowTint = 0,
			Shadows = 17,
			SharpenDetail = 25,
			SharpenEdgeMasking = 0,
			SharpenRadius = 1,
			Sharpness = 25,
			SplitToningBalance = 0,
			SplitToningHighlightHue = 0,
			SplitToningHighlightSaturation = 0,
			SplitToningShadowHue = 0,
			SplitToningShadowSaturation = 0,
			ToneCurve = {
				0,
				0,
				32,
				22,
				64,
				56,
				128,
				128,
				192,
				196,
				255,
				255,
			},
			ToneCurveName = "Medium Contrast",
			VignetteAmount = 100,
			VignetteMidpoint = 0,
			WhiteBalance = "As Shot",
		},
		uuid = "8A20EC60-EE70-4DC2-989E-5C8AA2955E75",
	},
	version = 0,
}
