User Presets/MikeyGs BW Film/Agfapan 25.lrtemplate
s = {
	id = "2C21FAEB-1614-4C05-B2AA-DECB21128B50",
	internalName = "Agfapan 25",
	title = "Agfapan 25",
	type = "Develop",
	value = {
		settings = {
			AutoBrightness = false,
			AutoContrast = false,
			AutoExposure = false,
			AutoShadows = false,
			Brightness = 50,
			Clarity = 25,
			Contrast = 50,
			ConvertToGrayscale = true,
			EnableColorAdjustments = true,
			EnableDetail = true,
			EnableGrayscaleMix = true,
			Exposure = 0,
			FillLight = 0,
			GrayMixerAqua = 0,
			GrayMixerBlue = 36,
			GrayMixerGreen = 39,
			GrayMixerMagenta = 0,
			GrayMixerOrange = 0,
			GrayMixerPurple = 0,
			GrayMixerRed = 25,
			GrayMixerYellow = 0,
			HighlightRecovery = 11,
			LuminanceSmoothing = 10,
			ParametricDarks = 0,
			ParametricHighlightSplit = 75,
			ParametricHighlights = 32,
			ParametricLights = 0,
			ParametricMidtoneSplit = 50,
			ParametricShadowSplit = 25,
			ParametricShadows = 0,
			Shadows = 6,
			SharpenDetail = 33,
			SharpenEdgeMasking = 0,
			SharpenRadius = 0.7,
			Sharpness = 64,
			ToneCurve = {
				0,
				0,
				32,
				22,
				64,
				56,
				128,
				128,
				192,
				196,
				255,
				255,
			},
			ToneCurveName = "Medium Contrast",
		},
		uuid = "43756C55-12B8-4BA8-BED5-00400A5AD9FC",
	},
	version = 0,
}
