User Presets/MikeyGs BW Film/Ilford XP2 Super 400 Auto.lrtemplate
s = {
	id = "94FDF8A1-8BE8-4100-9C93-59B906D4F7E5",
	internalName = "Ilford XP2 Super 400 Auto",
	title = "Ilford XP2 Super 400 Auto",
	type = "Develop",
	value = {
		settings = {
			AutoBrightness = false,
			AutoContrast = false,
			AutoExposure = false,
			AutoShadows = false,
			AutoTone = true,
			Clarity = 60,
			ConvertToGrayscale = true,
			EnableColorAdjustments = true,
			EnableDetail = true,
			EnableGrayscaleMix = true,
			GrayMixerAqua = 0,
			GrayMixerBlue = 36,
			GrayMixerGreen = 42,
			GrayMixerMagenta = 0,
			GrayMixerOrange = 0,
			GrayMixerPurple = 0,
			GrayMixerRed = 22,
			GrayMixerYellow = 0,
			LuminanceSmoothing = 0,
			ParametricDarks = 0,
			ParametricHighlightSplit = 75,
			ParametricHighlights = 0,
			ParametricLights = 6,
			ParametricMidtoneSplit = 50,
			ParametricShadowSplit = 25,
			ParametricShadows = 0,
			SharpenDetail = 52,
			SharpenEdgeMasking = 0,
			SharpenRadius = 0.6,
			Sharpness = 34,
			ToneCurve = {
				0,
				0,
				32,
				22,
				64,
				56,
				128,
				128,
				192,
				196,
				255,
				255,
			},
			ToneCurveName = "Medium Contrast",
		},
		uuid = "C5922023-E700-4172-AC2C-7F792A611B0C",
	},
	version = 0,
}
