User Presets/MikeyGs BW Film/Ilford HP5 400 Auto.lrtemplate
s = {
	id = "B59DF83C-DD26-4A10-AD06-52A2F207AF78",
	internalName = "Ilford HP5 400 Auto",
	title = "Ilford HP5 400 Auto",
	type = "Develop",
	value = {
		settings = {
			AutoBrightness = false,
			AutoContrast = false,
			AutoExposure = false,
			AutoShadows = false,
			AutoTone = true,
			Clarity = 100,
			ConvertToGrayscale = true,
			EnableColorAdjustments = true,
			EnableDetail = true,
			EnableGrayscaleMix = true,
			GrayMixerAqua = 0,
			GrayMixerBlue = 40,
			GrayMixerGreen = 37,
			GrayMixerMagenta = 0,
			GrayMixerOrange = 0,
			GrayMixerPurple = 0,
			GrayMixerRed = 23,
			GrayMixerYellow = 0,
			LuminanceSmoothing = 0,
			ParametricDarks = -10,
			ParametricHighlightSplit = 75,
			ParametricHighlights = 0,
			ParametricLights = 0,
			ParametricMidtoneSplit = 50,
			ParametricShadowSplit = 25,
			ParametricShadows = 0,
			SharpenDetail = 33,
			SharpenEdgeMasking = 0,
			SharpenRadius = 0.5,
			Sharpness = 62,
			ToneCurve = {
				0,
				0,
				32,
				16,
				64,
				50,
				128,
				128,
				192,
				202,
				255,
				255,
			},
			ToneCurveName = "Strong Contrast",
		},
		uuid = "D8B13EE3-5537-411D-BB38-DF78190CDB22",
	},
	version = 0,
}
