Azh_cn-portrait/欧美时尚人像-绿色渲染.lrtemplate
s = {
	id = "F7011E09-B780-42F5-A9B9-8A45452F6469",
	internalName = "绿色渲染",
	title = "欧美时尚人像-绿色渲染",
	type = "Develop",
	value = {
		settings = {
			AutoBrightness = false,
			AutoContrast = false,
			AutoExposure = false,
			AutoShadows = false,
			BlueHue = 0,
			BlueSaturation = 0,
			Brightness = 113,
			CameraProfile = "ACR 4.4",
			CameraProfileDigest = "7882779DCC5B2EDCB42085961AB84EAC",
			ChromaticAberrationB = 0,
			ChromaticAberrationR = 0,
			Clarity = 52,
			Contrast = 50,
			ConvertToGrayscale = false,
			CropAngle = 0,
			CropBottom = 1,
			CropLeft = 0,
			CropRight = 1,
			CropTop = 0,
			Defringe = 0,
			EnableCalibration = true,
			EnableColorAdjustments = true,
			EnableGrayscaleMix = true,
			EnableSplitToning = true,
			Exposure = 0.25,
			FillLight = 16,
			GreenHue = 0,
			GreenSaturation = 0,
			HighlightRecovery = 100,
			HueAdjustmentAqua = 0,
			HueAdjustmentBlue = 0,
			HueAdjustmentGreen = 0,
			HueAdjustmentMagenta = 0,
			HueAdjustmentOrange = 0,
			HueAdjustmentPurple = 0,
			HueAdjustmentRed = 0,
			HueAdjustmentYellow = 0,
			LuminanceAdjustmentAqua = 0,
			LuminanceAdjustmentBlue = 0,
			LuminanceAdjustmentGreen = 0,
			LuminanceAdjustmentMagenta = 0,
			LuminanceAdjustmentOrange = 0,
			LuminanceAdjustmentPurple = 0,
			LuminanceAdjustmentRed = 0,
			LuminanceAdjustmentYellow = 0,
			ParametricDarks = 0,
			ParametricHighlightSplit = 75,
			ParametricHighlights = 0,
			ParametricLights = 40,
			ParametricMidtoneSplit = 50,
			ParametricShadowSplit = 25,
			ParametricShadows = 0,
			RedEyeInfo = {
			},
			RedHue = 0,
			RedSaturation = 0,
			RetouchInfo = {
			},
			Saturation = 2,
			SaturationAdjustmentAqua = 0,
			SaturationAdjustmentBlue = 0,
			SaturationAdjustmentGreen = 0,
			SaturationAdjustmentMagenta = 0,
			SaturationAdjustmentOrange = 0,
			SaturationAdjustmentPurple = 0,
			SaturationAdjustmentRed = 0,
			SaturationAdjustmentYellow = 0,
			ShadowTint = 0,
			Shadows = 9,
			SplitToningBalance = 21,
			SplitToningHighlightHue = 124,
			SplitToningHighlightSaturation = 26,
			SplitToningShadowHue = 360,
			SplitToningShadowSaturation = 14,
			ToneCurve = {
				0,
				0,
				32,
				22,
				64,
				56,
				128,
				128,
				192,
				196,
				255,
				255,
			},
			ToneCurveName = "Medium Contrast",
			Vibrance = 0,
			VignetteAmount = -83,
			VignetteMidpoint = 50,
			WhiteBalance = "As Shot",
		},
		uuid = "6B5B5995-628B-4943-9DC5-E9702C65BAB6",
	},
	version = 0,
}
