Stylized/STY - MagentaEdge.lrtemplate
s = {
	id = "4A49E7BD-832B-4CE7-81FE-E73BA085513C",
	internalName = "MagentaEdge",
	title = "STY - MagentaEdge",
	type = "Develop",
	value = {
		settings = {
			AutoBrightness = false,
			AutoContrast = false,
			AutoExposure = false,
			AutoShadows = false,
			Brightness = 0,
			Clarity = -40,
			Contrast = 20,
			ConvertToGrayscale = true,
			EnableColorAdjustments = true,
			EnableDetail = true,
			EnableGradientBasedCorrections = true,
			EnableGrayscaleMix = true,
			EnableSplitToning = true,
			EnableVignettes = true,
			Exposure = 0,
			FillLight = 23,
			GradientBasedCorrections = {
				{
					CorrectionActive = true,
					CorrectionAmount = 1,
					CorrectionID = "B4423ADC-02E7-417A-A7E6-B80169DF0943",
					CorrectionMasks = {
						{
							FullX = -0.029484,
							FullY = 0.241252,
							MaskID = "B2050A8F-B4F9-4988-99C5-D3E227A07A48",
							MaskValue = 1,
							What = "Mask/Gradient",
							ZeroX = 0.395577,
							ZeroY = 0.259669,
						},
					},
					CorrectionReferenceX = 0.183047,
					CorrectionReferenceY = 0.25046,
					LocalBrightness = 0,
					LocalClarity = -0.45,
					LocalContrast = 0.325,
					LocalExposure = -0.175,
					LocalSaturation = 0,
					LocalSharpness = 0,
					LocalToningHue = 40,
					LocalToningSaturation = 0.01,
					What = "Correction",
				},
				{
					CorrectionActive = true,
					CorrectionAmount = 1,
					CorrectionID = "A60E3352-D46D-4791-A484-C34873D05C45",
					CorrectionMasks = {
						{
							FullX = 1.02211,
							FullY = 0.475138,
							MaskID = "4076C304-7865-414C-B684-917DDDA53ACE",
							MaskValue = 1,
							What = "Mask/Gradient",
							ZeroX = 0.77887,
							ZeroY = 0.475138,
						},
					},
					CorrectionReferenceX = 0.900492,
					CorrectionReferenceY = 0.475138,
					LocalBrightness = 0,
					LocalClarity = -0.475,
					LocalContrast = 0.375,
					LocalExposure = -0.075,
					LocalSaturation = 0,
					LocalSharpness = 0,
					LocalToningHue = 40,
					LocalToningSaturation = 0.01,
					What = "Correction",
				},
				{
					CorrectionActive = true,
					CorrectionAmount = 1,
					CorrectionID = "B1B21DCF-1050-4365-BE13-0A8AE59F9E3E",
					CorrectionMasks = {
						{
							FullX = 0.515971,
							FullY = 1.00184,
							MaskID = "82B705DB-32E8-4347-BFE5-4A5B46F39854",
							MaskValue = 1,
							What = "Mask/Gradient",
							ZeroX = 0.518428,
							ZeroY = 0.801105,
						},
					},
					CorrectionReferenceX = 0.5172,
					CorrectionReferenceY = 0.901473,
					LocalBrightness = 0,
					LocalClarity = -0.325,
					LocalContrast = 0.2,
					LocalExposure = -0.15,
					LocalSaturation = 0,
					LocalSharpness = 0,
					LocalToningHue = 40,
					LocalToningSaturation = 0.01,
					What = "Correction",
				},
			},
			GrayMixerAqua = -19,
			GrayMixerBlue = 10,
			GrayMixerGreen = -23,
			GrayMixerMagenta = 7,
			GrayMixerOrange = -13,
			GrayMixerPurple = 16,
			GrayMixerRed = -4,
			GrayMixerYellow = -16,
			HighlightRecovery = 0,
			ParametricDarks = -17,
			ParametricHighlightSplit = 75,
			ParametricHighlights = 0,
			ParametricLights = 33,
			ParametricMidtoneSplit = 50,
			ParametricShadowSplit = 25,
			ParametricShadows = -60,
			PostCropVignetteAmount = 0,
			PostCropVignetteFeather = 50,
			PostCropVignetteMidpoint = 50,
			PostCropVignetteRoundness = 0,
			Shadows = 4,
			SharpenDetail = 25,
			SharpenEdgeMasking = 0,
			SharpenRadius = 1,
			Sharpness = 0,
			SplitToningBalance = 0,
			SplitToningHighlightHue = 216,
			SplitToningHighlightSaturation = 21,
			SplitToningShadowHue = 37,
			SplitToningShadowSaturation = 22,
			ToneCurve = {
				0,
				0,
				255,
				255,
			},
			ToneCurveName = "Linear",
			VignetteAmount = -83,
			VignetteMidpoint = 21,
		},
		uuid = "E1B9972F-6EA1-4FB1-A0C3-A0E384A83BA4",
	},
	version = 0,
}
