User Presets/WOW/WOW-Vibrance/WOW-b_Vibrance-1-2.lrtemplate
s = {
	internalName = "WOWa_Auto-Tone+Vib1",
	title = "WOW-b_Vibrance-1",
	type = "Develop",
	value = {
		settings = {
			ConvertToGrayscale = false,
			Vibrance = -26,
		},
		uuid = "D1681245-5220-4309-B9D7-89141028D8B0",
	},
	version = 0,
}
