User Presets/Matts/Matt's Contrast (1).lrtemplate
s = {
	internalName = "Matt's Contrast (1)",
	title = "Matt's Contrast (1)",
	type = "Develop",
	value = {
		settings = {
			ParametricDarks = 0,
			ParametricHighlightSplit = 75,
			ParametricHighlights = 3,
			ParametricLights = 0,
			ParametricMidtoneSplit = 50,
			ParametricShadowSplit = 25,
			ParametricShadows = 0,
			ToneCurve = {
				0,
				0,
				32,
				22,
				64,
				56,
				128,
				128,
				192,
				196,
				255,
				255,
			},
			ToneCurveName = "Medium Contrast",
		},
		uuid = "D38F823F-575B-42E3-AD2B-4C590FA3E6D2",
	},
	version = 0,
}
