User Presets/Matts/Matt's Blue Sky B&W - Dark.lrtemplate
s = {
	internalName = "Matt's Blue Sky B&W - Dark",
	title = "Matt's Blue Sky B&W - Dark",
	type = "Develop",
	value = {
		settings = {
			ConvertToGrayscale = true,
			EnableGrayscaleMix = true,
			GrayMixerAqua = -15,
			GrayMixerBlue = -38,
			GrayMixerGreen = -28,
			GrayMixerMagenta = 3,
			GrayMixerOrange = -21,
			GrayMixerPurple = 19,
			GrayMixerRed = -12,
			GrayMixerYellow = -25,
			ParametricDarks = 0,
			ParametricHighlightSplit = 75,
			ParametricHighlights = 0,
			ParametricLights = 0,
			ParametricMidtoneSplit = 50,
			ParametricShadowSplit = 25,
			ParametricShadows = 0,
			ToneCurve = {
				0,
				0,
				32,
				16,
				64,
				50,
				128,
				128,
				192,
				202,
				255,
				255,
			},
			ToneCurveName = "Linear",
		},
		uuid = "B4232BB0-4975-4417-852A-F6144834B4C4",
	},
	version = 0,
}
