deviantART/#2-2 by night-fate.lrtemplate
s = {
	id = "A884B244-0DD4-402F-AF2E-F6DC8E41588D",
	internalName = "#4/2 STORM STREET by night-fate.deviantart.com      ",
	title = "#4/2 STORM STREET by night-fate.deviantart.com      ",
	type = "Develop",
	value = {
		settings = {
			AutoBrightness = false,
			AutoContrast = false,
			AutoExposure = false,
			AutoShadows = false,
			BlueHue = 0,
			BlueSaturation = 0,
			Brightness = 0,
			CameraProfile = "Embedded",
			ChromaticAberrationB = 0,
			ChromaticAberrationR = 0,
			Clarity = 0,
			ColorNoiseReduction = 0,
			Contrast = 0,
			ConvertToGrayscale = false,
			Defringe = 0,
			EnableCalibration = true,
			EnableColorAdjustments = true,
			EnableDetail = true,
			EnableSplitToning = true,
			EnableVignettes = true,
			Exposure = -1.05,
			FillLight = 68,
			GreenHue = 0,
			GreenSaturation = 40,
			HighlightRecovery = 20,
			HueAdjustmentAqua = 0,
			HueAdjustmentBlue = 0,
			HueAdjustmentGreen = 0,
			HueAdjustmentMagenta = 0,
			HueAdjustmentOrange = 0,
			HueAdjustmentPurple = 0,
			HueAdjustmentRed = 0,
			HueAdjustmentYellow = 0,
			IncrementalTemperature = -25,
			IncrementalTint = 27,
			LuminanceAdjustmentAqua = 0,
			LuminanceAdjustmentBlue = 0,
			LuminanceAdjustmentGreen = 0,
			LuminanceAdjustmentMagenta = 0,
			LuminanceAdjustmentOrange = 0,
			LuminanceAdjustmentPurple = 0,
			LuminanceAdjustmentRed = 0,
			LuminanceAdjustmentYellow = 0,
			LuminanceSmoothing = 0,
			ParametricDarks = 1,
			ParametricHighlightSplit = 75,
			ParametricHighlights = 86,
			ParametricLights = 74,
			ParametricMidtoneSplit = 50,
			ParametricShadowSplit = 25,
			ParametricShadows = -10,
			PostCropVignetteAmount = -2,
			PostCropVignetteFeather = 50,
			PostCropVignetteMidpoint = 50,
			PostCropVignetteRoundness = 0,
			RedHue = 0,
			RedSaturation = 0,
			Saturation = 0,
			SaturationAdjustmentAqua = 0,
			SaturationAdjustmentBlue = 0,
			SaturationAdjustmentGreen = 0,
			SaturationAdjustmentMagenta = 0,
			SaturationAdjustmentOrange = 0,
			SaturationAdjustmentPurple = 0,
			SaturationAdjustmentRed = 0,
			SaturationAdjustmentYellow = 0,
			ShadowTint = 5,
			Shadows = 8,
			SharpenDetail = 25,
			SharpenEdgeMasking = 0,
			SharpenRadius = 1,
			Sharpness = 0,
			SplitToningBalance = 17,
			SplitToningHighlightHue = 20,
			SplitToningHighlightSaturation = 34,
			SplitToningShadowHue = 58,
			SplitToningShadowSaturation = 17,
			ToneCurve = {
				0,
				0,
				255,
				255,
			},
			ToneCurveName = "Linear",
			Vibrance = 48,
			VignetteAmount = -60,
			VignetteMidpoint = 50,
			WhiteBalance = "Custom",
		},
		uuid = "FE15B850-1734-45ED-BC71-FF57C5E91107",
	},
	version = 0,
}
