deviantART/Olde West.lrtemplate
s = {
	id = "25156C1B-5A30-4944-BF48-E7169EABCEB9",
	internalName = "Olde West",
	title = "Olde West",
	type = "Develop",
	value = {
		settings = {
			AutoBrightness = false,
			AutoContrast = false,
			AutoExposure = false,
			AutoShadows = false,
			BlueHue = 0,
			BlueSaturation = 0,
			Brightness = 25,
			CameraProfile = "Adobe Standard",
			ChromaticAberrationB = 0,
			ChromaticAberrationR = 0,
			Clarity = 64,
			Contrast = 100,
			ConvertToGrayscale = true,
			Defringe = 0,
			EnableCalibration = true,
			EnableColorAdjustments = true,
			EnableDetail = true,
			EnableGradientBasedCorrections = true,
			EnableGrayscaleMix = true,
			EnableSplitToning = true,
			EnableVignettes = true,
			Exposure = 0.67,
			FillLight = 32,
			GrayMixerAqua = -10,
			GrayMixerBlue = 20,
			GrayMixerGreen = -19,
			GrayMixerMagenta = 28,
			GrayMixerOrange = 4,
			GrayMixerPurple = 25,
			GrayMixerRed = 29,
			GrayMixerYellow = -13,
			GreenHue = 0,
			GreenSaturation = 0,
			HighlightRecovery = 80,
			IncrementalTemperature = 8,
			IncrementalTint = -16,
			LuminanceSmoothing = 54,
			ParametricDarks = -17,
			ParametricHighlightSplit = 75,
			ParametricHighlights = 0,
			ParametricLights = 28,
			ParametricMidtoneSplit = 50,
			ParametricShadowSplit = 25,
			ParametricShadows = 0,
			PostCropVignetteAmount = 0,
			PostCropVignetteFeather = 50,
			PostCropVignetteMidpoint = 50,
			PostCropVignetteRoundness = 0,
			RedHue = 0,
			RedSaturation = 0,
			ShadowTint = 0,
			Shadows = 0,
			SharpenDetail = 50,
			SharpenEdgeMasking = 0,
			SharpenRadius = 1,
			Sharpness = 80,
			SplitToningBalance = 0,
			SplitToningHighlightHue = 52,
			SplitToningHighlightSaturation = 64,
			SplitToningShadowHue = 37,
			SplitToningShadowSaturation = 22,
			ToneCurve = {
				0,
				0,
				255,
				255,
			},
			ToneCurveName = "Linear",
			VignetteAmount = 0,
			VignetteMidpoint = 50,
			WhiteBalance = "Custom",
		},
		uuid = "4B80DF0A-D3BF-4A29-ACAE-67B7ECD35AE3",
	},
	version = 0,
}
