Matt's Presets/Matt's Dramatic Sky Level 1.lrtemplate
s = {
	internalName = "Matt's Dramatic Sky Level 1",
	title = "Matt's Dramatic Sky Level 1",
	type = "Develop",
	value = {
		settings = {
			Clarity = 24,
			ConvertToGrayscale = false,
			EnableColorAdjustments = true,
			HighlightRecovery = 51,
			HueAdjustmentAqua = 0,
			HueAdjustmentBlue = 0,
			HueAdjustmentGreen = 0,
			HueAdjustmentMagenta = 0,
			HueAdjustmentOrange = 0,
			HueAdjustmentPurple = 0,
			HueAdjustmentRed = 0,
			HueAdjustmentYellow = 0,
			LuminanceAdjustmentAqua = 0,
			LuminanceAdjustmentBlue = -21,
			LuminanceAdjustmentGreen = 0,
			LuminanceAdjustmentMagenta = 0,
			LuminanceAdjustmentOrange = 0,
			LuminanceAdjustmentPurple = 0,
			LuminanceAdjustmentRed = 0,
			LuminanceAdjustmentYellow = 0,
			SaturationAdjustmentAqua = 0,
			SaturationAdjustmentBlue = 0,
			SaturationAdjustmentGreen = 0,
			SaturationAdjustmentMagenta = 0,
			SaturationAdjustmentOrange = 0,
			SaturationAdjustmentPurple = 0,
			SaturationAdjustmentRed = 0,
			SaturationAdjustmentYellow = 0,
		},
		uuid = "80DBA1F6-0344-43E6-BAF4-BB08AAD1AF9E",
	},
	version = 0,
}
