Matt's Presets/Matt's Contrast (4).lrtemplate
s = {
	internalName = "Matt's Contrast (4)",
	title = "Matt's Contrast (4)",
	type = "Develop",
	value = {
		settings = {
			ParametricDarks = -9,
			ParametricHighlightSplit = 75,
			ParametricHighlights = 43,
			ParametricLights = 0,
			ParametricMidtoneSplit = 50,
			ParametricShadowSplit = 25,
			ParametricShadows = -9,
			ToneCurve = {
				0,
				0,
				32,
				16,
				64,
				50,
				128,
				128,
				192,
				202,
				255,
				255,
			},
			ToneCurveName = "Medium Contrast",
		},
		uuid = "01F8A9FE-025A-4DA9-A060-5C2E4B5449A3",
	},
	version = 0,
}
