Tuning Color/COL InfraRed 2.lrtemplate
s = {
	id = "D:\\My Documents\\My Pictures\\Lightroom\\Lightroom Settings\\Develop Presets\\New Presets\\InfraRed2.agtemplate",
	internalName = "COL InfraRed 2",
	title = "COL InfraRed 2",
	type = "Develop",
	value = {
		settings = {
			AutoBrightness = false,
			AutoContrast = false,
			AutoExposure = false,
			AutoGrayscaleMix = false,
			AutoShadows = false,
			BlueHue = 0,
			BlueSaturation = 0,
			Brightness = 82,
			CameraProfile = "ACR 2.4",
			ChromaticAberrationB = 0,
			ChromaticAberrationR = 0,
			ColorNoiseReduction = 25,
			Contrast = 10,
			ConvertToGrayscale = true,
			CustomTemperature = 2000,
			CustomTint = -51,
			Exposure = 0.75949382781982,
			GrayMixerAqua = -2,
			GrayMixerBlue = 28,
			GrayMixerGreen = -20,
			GrayMixerMagenta = 9,
			GrayMixerOrange = -17,
			GrayMixerPurple = 27,
			GrayMixerRed = -9,
			GrayMixerYellow = -21,
			GreenHue = 0,
			GreenSaturation = 0,
			HueAdjustmentAqua = 0,
			HueAdjustmentBlue = 0,
			HueAdjustmentGreen = 0,
			HueAdjustmentMagenta = 0,
			HueAdjustmentOrange = 0,
			HueAdjustmentPurple = 0,
			HueAdjustmentRed = 0,
			HueAdjustmentYellow = 0,
			LuminanceAdjustmentAqua = 0,
			LuminanceAdjustmentBlue = 0,
			LuminanceAdjustmentGreen = 0,
			LuminanceAdjustmentMagenta = 0,
			LuminanceAdjustmentOrange = 0,
			LuminanceAdjustmentPurple = 0,
			LuminanceAdjustmentRed = 0,
			LuminanceAdjustmentYellow = 0,
			LuminanceSmoothing = 0,
			ParametricDarks = -15,
			ParametricHighlights = 17,
			ParametricLights = 0,
			ParametricShadows = 45,
			RedHue = 0,
			RedSaturation = 0,
			Saturation = 0,
			SaturationAdjustmentAqua = 0,
			SaturationAdjustmentBlue = 0,
			SaturationAdjustmentGreen = 0,
			SaturationAdjustmentMagenta = 0,
			SaturationAdjustmentOrange = 0,
			SaturationAdjustmentPurple = 0,
			SaturationAdjustmentRed = 0,
			SaturationAdjustmentYellow = 0,
			ShadowTint = 0,
			ShadowlandExperimental_HighlightSplit = 67,
			ShadowlandExperimental_ShadowCompression = 0,
			ShadowlandExperimental_ShadowSplit = 33,
			Shadows = 16.45569652319,
			Sharpness = 25,
			SplitToningHighlightHue = 0,
			SplitToningHighlightSaturation = 0,
			SplitToningShadowHue = 0,
			SplitToningShadowSaturation = 0,
			Temperature = 2000,
			Tint = -51,
			ToneCurve = {
				0,
				0,
				255,
				255,
			},
			VignetteAmount = 0,
			VignetteMidpoint = 50,
			WhiteBalance = "Custom",
		},
		uuid = "BCE846AB-09A4-11DB-B4FC-000A95A69B84",
	},
	version = 0,
}
