RJ's Presets/RJ - Another World #6.lrtemplate
s = {
	id = "4AE2287F-CEAE-46F6-801B-A856A108E161",
	internalName = "Another World 6",
	title = "RJ - Another World #6",
	type = "Develop",
	value = {
		settings = {
			AutoBrightness = false,
			AutoContrast = false,
			AutoExposure = false,
			AutoShadows = false,
			BlueHue = 0,
			BlueSaturation = 0,
			Brightness = 56,
			CameraProfile = "ACR 3.6",
			ChromaticAberrationB = 0,
			ChromaticAberrationR = 0,
			Clarity = 100,
			Contrast = 55,
			ConvertToGrayscale = true,
			Defringe = 0,
			EnableCalibration = true,
			EnableColorAdjustments = true,
			EnableDetail = true,
			EnableGradientBasedCorrections = true,
			EnableGrayscaleMix = true,
			EnableSplitToning = true,
			EnableVignettes = true,
			Exposure = 0.08,
			FillLight = 92,
			GrayMixerAqua = -19,
			GrayMixerBlue = 8,
			GrayMixerGreen = -26,
			GrayMixerMagenta = 4,
			GrayMixerOrange = -18,
			GrayMixerPurple = 15,
			GrayMixerRed = -9,
			GrayMixerYellow = -22,
			GreenHue = 0,
			GreenSaturation = 0,
			HighlightRecovery = 100,
			LuminanceSmoothing = 0,
			ParametricDarks = -27,
			ParametricHighlightSplit = 75,
			ParametricHighlights = 13,
			ParametricLights = -52,
			ParametricMidtoneSplit = 50,
			ParametricShadowSplit = 25,
			ParametricShadows = -4,
			PostCropVignetteAmount = 0,
			PostCropVignetteFeather = 50,
			PostCropVignetteMidpoint = 50,
			PostCropVignetteRoundness = 0,
			RedHue = 0,
			RedSaturation = 0,
			ShadowTint = 0,
			Shadows = 39,
			SharpenDetail = 60,
			SharpenEdgeMasking = 0,
			SharpenRadius = 2,
			Sharpness = 50,
			SplitToningBalance = 0,
			SplitToningHighlightHue = 176,
			SplitToningHighlightSaturation = 0,
			SplitToningShadowHue = 49,
			SplitToningShadowSaturation = 0,
			ToneCurve = {
				0,
				0,
				32,
				22,
				64,
				56,
				128,
				128,
				192,
				196,
				255,
				255,
			},
			ToneCurveName = "Medium Contrast",
			VignetteAmount = 0,
			VignetteMidpoint = 50,
			WhiteBalance = "Auto",
		},
		uuid = "F2C21E51-147D-4D2B-8F70-799870E22D56",
	},
	version = 0,
}
