RJ's Presets/RJ - Another World #4.lrtemplate
s = {
	id = "9F26BDB2-2CF9-4346-B12C-026675BF37FD",
	internalName = "Another World 4",
	title = "RJ - Another World #4",
	type = "Develop",
	value = {
		settings = {
			AutoBrightness = false,
			AutoContrast = false,
			AutoExposure = false,
			AutoShadows = false,
			BlueHue = 0,
			BlueSaturation = 0,
			Brightness = 56,
			CameraProfile = "ACR 3.6",
			ChromaticAberrationB = 0,
			ChromaticAberrationR = 0,
			Clarity = 100,
			Contrast = 55,
			ConvertToGrayscale = true,
			Defringe = 0,
			EnableCalibration = true,
			EnableColorAdjustments = true,
			EnableDetail = true,
			EnableGradientBasedCorrections = true,
			EnableGrayscaleMix = true,
			EnableSplitToning = true,
			EnableVignettes = true,
			Exposure = 0.08,
			FillLight = 94,
			GrayMixerAqua = -19,
			GrayMixerBlue = -21,
			GrayMixerGreen = -26,
			GrayMixerMagenta = 4,
			GrayMixerOrange = -18,
			GrayMixerPurple = 15,
			GrayMixerRed = -9,
			GrayMixerYellow = -22,
			GreenHue = 0,
			GreenSaturation = 0,
			HighlightRecovery = 100,
			LuminanceSmoothing = 0,
			ParametricDarks = 13,
			ParametricHighlightSplit = 75,
			ParametricHighlights = 44,
			ParametricLights = -71,
			ParametricMidtoneSplit = 50,
			ParametricShadowSplit = 25,
			ParametricShadows = -63,
			PostCropVignetteAmount = 0,
			PostCropVignetteFeather = 50,
			PostCropVignetteMidpoint = 50,
			PostCropVignetteRoundness = 0,
			RedHue = 0,
			RedSaturation = 0,
			ShadowTint = 0,
			Shadows = 39,
			SharpenDetail = 60,
			SharpenEdgeMasking = 0,
			SharpenRadius = 2,
			Sharpness = 50,
			SplitToningBalance = 0,
			SplitToningHighlightHue = 176,
			SplitToningHighlightSaturation = 13,
			SplitToningShadowHue = 49,
			SplitToningShadowSaturation = 30,
			ToneCurve = {
				0,
				0,
				32,
				22,
				64,
				56,
				128,
				128,
				192,
				196,
				255,
				255,
			},
			ToneCurveName = "Medium Contrast",
			VignetteAmount = -92,
			VignetteMidpoint = 28,
			WhiteBalance = "Auto",
		},
		uuid = "17383E2E-1BFE-45CF-90C6-F8F695A50B53",
	},
	version = 0,
}
