SarahJi's Presets/SarahJi - SeventyTwoNE.lrtemplate
s = {
	id = "0E26C478-3678-450D-B12A-086B2F8FE11F",
	internalName = "SarahJiSeventyTwoNE",
	title = "SarahJi - SeventyTwoNE",
	type = "Develop",
	value = {
		settings = {
			AutoBrightness = false,
			AutoContrast = false,
			AutoShadows = false,
			Brightness = 50,
			Contrast = 25,
			ConvertToGrayscale = false,
			EnableColorAdjustments = true,
			EnableGrayscaleMix = true,
			EnableSplitToning = true,
			EnableVignettes = true,
			FillLight = 27,
			HighlightRecovery = 63,
			HueAdjustmentAqua = 0,
			HueAdjustmentBlue = 0,
			HueAdjustmentGreen = 0,
			HueAdjustmentMagenta = 0,
			HueAdjustmentOrange = 0,
			HueAdjustmentPurple = 0,
			HueAdjustmentRed = 0,
			HueAdjustmentYellow = 0,
			LuminanceAdjustmentAqua = 0,
			LuminanceAdjustmentBlue = 0,
			LuminanceAdjustmentGreen = 0,
			LuminanceAdjustmentMagenta = 0,
			LuminanceAdjustmentOrange = 0,
			LuminanceAdjustmentPurple = 0,
			LuminanceAdjustmentRed = 0,
			LuminanceAdjustmentYellow = 0,
			ParametricDarks = 0,
			ParametricHighlightSplit = 75,
			ParametricHighlights = 0,
			ParametricLights = 0,
			ParametricMidtoneSplit = 50,
			ParametricShadowSplit = 25,
			ParametricShadows = 0,
			PostCropVignetteAmount = 0,
			PostCropVignetteFeather = 50,
			PostCropVignetteMidpoint = 50,
			PostCropVignetteRoundness = 0,
			Saturation = -29,
			SaturationAdjustmentAqua = 0,
			SaturationAdjustmentBlue = 0,
			SaturationAdjustmentGreen = 0,
			SaturationAdjustmentMagenta = 0,
			SaturationAdjustmentOrange = 0,
			SaturationAdjustmentPurple = 0,
			SaturationAdjustmentRed = 0,
			SaturationAdjustmentYellow = 0,
			Shadows = 14,
			SplitToningBalance = 38,
			SplitToningHighlightHue = 107,
			SplitToningHighlightSaturation = 26,
			SplitToningShadowHue = 128,
			SplitToningShadowSaturation = 14,
			ToneCurve = {
				0,
				0,
				32,
				22,
				64,
				56,
				128,
				128,
				192,
				196,
				255,
				255,
			},
			ToneCurveName = "Medium Contrast",
			Vibrance = -48,
			VignetteAmount = -100,
			VignetteMidpoint = 50,
		},
		uuid = "2657A0E2-A8E7-4E76-9BA6-744DA92DD2DD",
	},
	version = 0,
}
