SarahJi's Presets/SarahJi - Plum.lrtemplate
s = {
	id = "66885F8A-634E-483D-9DA7-AFDD3D599619",
	internalName = "SarahJiPlum",
	title = "SarahJi - Plum",
	type = "Develop",
	value = {
		settings = {
			AutoContrast = false,
			AutoShadows = false,
			ChromaticAberrationB = 0,
			ChromaticAberrationR = 0,
			Clarity = 0,
			Contrast = 46,
			ConvertToGrayscale = false,
			Defringe = 2,
			EnableColorAdjustments = true,
			EnableDetail = true,
			EnableGrayscaleMix = true,
			EnableSplitToning = true,
			EnableVignettes = true,
			FillLight = 0,
			HighlightRecovery = 72,
			HueAdjustmentAqua = -76,
			HueAdjustmentBlue = -55,
			HueAdjustmentGreen = 0,
			HueAdjustmentMagenta = 0,
			HueAdjustmentOrange = 0,
			HueAdjustmentPurple = 0,
			HueAdjustmentRed = 0,
			HueAdjustmentYellow = 0,
			LuminanceAdjustmentAqua = 0,
			LuminanceAdjustmentBlue = 0,
			LuminanceAdjustmentGreen = 0,
			LuminanceAdjustmentMagenta = 0,
			LuminanceAdjustmentOrange = 0,
			LuminanceAdjustmentPurple = 0,
			LuminanceAdjustmentRed = 0,
			LuminanceAdjustmentYellow = 0,
			ParametricDarks = 14,
			ParametricHighlightSplit = 86,
			ParametricHighlights = 36,
			ParametricLights = 52,
			ParametricMidtoneSplit = 41,
			ParametricShadowSplit = 15,
			ParametricShadows = 2,
			PostCropVignetteAmount = 0,
			PostCropVignetteFeather = 50,
			PostCropVignetteMidpoint = 50,
			PostCropVignetteRoundness = 0,
			Saturation = -67,
			SaturationAdjustmentAqua = 0,
			SaturationAdjustmentBlue = -100,
			SaturationAdjustmentGreen = 0,
			SaturationAdjustmentMagenta = 0,
			SaturationAdjustmentOrange = 0,
			SaturationAdjustmentPurple = 0,
			SaturationAdjustmentRed = 0,
			SaturationAdjustmentYellow = 0,
			Shadows = 7,
			SharpenDetail = 25,
			SharpenEdgeMasking = 0,
			SharpenRadius = 1,
			Sharpness = 25,
			SplitToningBalance = 0,
			SplitToningHighlightHue = 169,
			SplitToningHighlightSaturation = 31,
			SplitToningShadowHue = 321,
			SplitToningShadowSaturation = 21,
			Temperature = 2952,
			Tint = -14,
			ToneCurve = {
				0,
				0,
				32,
				22,
				64,
				56,
				128,
				128,
				192,
				196,
				255,
				255,
			},
			ToneCurveName = "Medium Contrast",
			Vibrance = -5,
			VignetteAmount = -2,
			VignetteMidpoint = 50,
			WhiteBalance = "Custom",
		},
		uuid = "B022DE11-F9EC-44AA-AD26-0DB6A1106557",
	},
	version = 0,
}
