SarahJi's Presets/SarahJi - Antique.lrtemplate
s = {
	id = "68092C21-24C2-4114-A497-18CDD1D92C26",
	internalName = "Antique",
	title = "SarahJi - Antique",
	type = "Develop",
	value = {
		settings = {
			AutoBrightness = false,
			AutoContrast = false,
			AutoExposure = false,
			AutoShadows = false,
			BlueHue = 0,
			BlueSaturation = 0,
			Brightness = 64,
			CameraProfile = "ACR 2.4",
			ChromaticAberrationB = 0,
			ChromaticAberrationR = 0,
			Clarity = 0,
			ColorNoiseReduction = 0,
			Contrast = 12,
			ConvertToGrayscale = false,
			Defringe = 0,
			EnableCalibration = true,
			EnableColorAdjustments = true,
			EnableDetail = true,
			EnableGrayscaleMix = true,
			EnableSplitToning = true,
			EnableVignettes = true,
			Exposure = 0.38,
			FillLight = 10,
			GreenHue = 0,
			GreenSaturation = 0,
			HighlightRecovery = 31,
			HueAdjustmentAqua = 0,
			HueAdjustmentBlue = 0,
			HueAdjustmentGreen = 0,
			HueAdjustmentMagenta = 0,
			HueAdjustmentOrange = 0,
			HueAdjustmentPurple = 0,
			HueAdjustmentRed = 0,
			HueAdjustmentYellow = 0,
			LuminanceAdjustmentAqua = 0,
			LuminanceAdjustmentBlue = 0,
			LuminanceAdjustmentGreen = 0,
			LuminanceAdjustmentMagenta = 0,
			LuminanceAdjustmentOrange = 0,
			LuminanceAdjustmentPurple = 0,
			LuminanceAdjustmentRed = 0,
			LuminanceAdjustmentYellow = 0,
			LuminanceSmoothing = 0,
			ParametricDarks = 16,
			ParametricHighlightSplit = 75,
			ParametricHighlights = 20,
			ParametricLights = 38,
			ParametricMidtoneSplit = 50,
			ParametricShadowSplit = 25,
			ParametricShadows = -5,
			PostCropVignetteAmount = 0,
			PostCropVignetteFeather = 50,
			PostCropVignetteMidpoint = 50,
			PostCropVignetteRoundness = 0,
			RedHue = 0,
			RedSaturation = 0,
			Saturation = -100,
			SaturationAdjustmentAqua = 0,
			SaturationAdjustmentBlue = 0,
			SaturationAdjustmentGreen = 0,
			SaturationAdjustmentMagenta = 0,
			SaturationAdjustmentOrange = 0,
			SaturationAdjustmentPurple = 0,
			SaturationAdjustmentRed = 0,
			SaturationAdjustmentYellow = 0,
			ShadowTint = -10,
			Shadows = 26,
			SharpenDetail = 25,
			SharpenEdgeMasking = 0,
			SharpenRadius = 1,
			Sharpness = 61,
			SplitToningBalance = 81,
			SplitToningHighlightHue = 59,
			SplitToningHighlightSaturation = 69,
			SplitToningShadowHue = 0,
			SplitToningShadowSaturation = 0,
			ToneCurve = {
				0,
				0,
				32,
				16,
				64,
				50,
				128,
				128,
				192,
				202,
				255,
				255,
			},
			ToneCurveName = "Strong Contrast",
			Vibrance = 0,
			VignetteAmount = -51,
			VignetteMidpoint = 50,
		},
		uuid = "5AB7BCA8-DC43-4526-B173-45284685A38E",
	},
	version = 0,
}
