SarahJi's Presets/SarahJi - Driftwood.lrtemplate
s = {
	id = "24A81B8E-456C-4629-8334-0254A2978BB6",
	internalName = "SarahJiDriftwood",
	title = "SarahJi - Driftwood",
	type = "Develop",
	value = {
		settings = {
			AutoContrast = false,
			AutoShadows = false,
			ChromaticAberrationB = 0,
			ChromaticAberrationR = 0,
			Clarity = 0,
			Contrast = 11,
			ConvertToGrayscale = false,
			Defringe = 2,
			EnableColorAdjustments = true,
			EnableDetail = true,
			EnableGrayscaleMix = true,
			EnableSplitToning = true,
			EnableVignettes = true,
			FillLight = 12,
			HighlightRecovery = 12,
			HueAdjustmentAqua = 0,
			HueAdjustmentBlue = 0,
			HueAdjustmentGreen = 0,
			HueAdjustmentMagenta = 0,
			HueAdjustmentOrange = 0,
			HueAdjustmentPurple = 0,
			HueAdjustmentRed = 0,
			HueAdjustmentYellow = 0,
			LuminanceAdjustmentAqua = 0,
			LuminanceAdjustmentBlue = 0,
			LuminanceAdjustmentGreen = 0,
			LuminanceAdjustmentMagenta = 0,
			LuminanceAdjustmentOrange = 0,
			LuminanceAdjustmentPurple = 0,
			LuminanceAdjustmentRed = 0,
			LuminanceAdjustmentYellow = 0,
			ParametricDarks = 16,
			ParametricHighlightSplit = 75,
			ParametricHighlights = 20,
			ParametricLights = 38,
			ParametricMidtoneSplit = 50,
			ParametricShadowSplit = 25,
			ParametricShadows = -5,
			PostCropVignetteAmount = 0,
			PostCropVignetteFeather = 50,
			PostCropVignetteMidpoint = 50,
			PostCropVignetteRoundness = 0,
			Saturation = -76,
			SaturationAdjustmentAqua = 0,
			SaturationAdjustmentBlue = -90,
			SaturationAdjustmentGreen = 0,
			SaturationAdjustmentMagenta = 0,
			SaturationAdjustmentOrange = 0,
			SaturationAdjustmentPurple = 0,
			SaturationAdjustmentRed = 0,
			SaturationAdjustmentYellow = 0,
			Shadows = 6,
			SharpenDetail = 25,
			SharpenEdgeMasking = 0,
			SharpenRadius = 1,
			Sharpness = 0,
			SplitToningBalance = 74,
			SplitToningHighlightHue = 59,
			SplitToningHighlightSaturation = 57,
			SplitToningShadowHue = 314,
			SplitToningShadowSaturation = 11,
			ToneCurve = {
				0,
				0,
				32,
				16,
				64,
				50,
				128,
				128,
				192,
				202,
				255,
				255,
			},
			ToneCurveName = "Strong Contrast",
			Vibrance = 6,
			VignetteAmount = -50,
			VignetteMidpoint = 50,
			WhiteBalance = "As Shot",
		},
		uuid = "0DE2FADC-4E20-4F48-92C6-09A68B1FDCB1",
	},
	version = 0,
}
