X-equals/x=the+400.lrtemplate
s = {
	internalName = "x=the+400",
	title = "x=the+400",
	type = "Develop",
	value = {
		settings = {
			AutoBrightness = false,
			AutoContrast = false,
			AutoShadows = false,
			Brightness = 50,
			ChromaticAberrationB = 0,
			ChromaticAberrationR = 0,
			Clarity = 0,
			Contrast = 25,
			ConvertToGrayscale = true,
			CropAngle = 0,
			CropBottom = 1,
			CropConstrainAspectRatio = true,
			CropLeft = 0.190048,
			CropRight = 0.85947,
			CropTop = 0,
			Defringe = 0,
			EnableColorAdjustments = true,
			EnableDetail = true,
			EnableGrayscaleMix = true,
			EnableLensCorrections = true,
			EnableSplitToning = true,
			FillLight = 0,
			GrayMixerAqua = 0,
			GrayMixerBlue = 0,
			GrayMixerGreen = 0,
			GrayMixerMagenta = 0,
			GrayMixerOrange = 0,
			GrayMixerPurple = 0,
			GrayMixerRed = 0,
			GrayMixerYellow = 0,
			HighlightRecovery = 0,
			LuminanceSmoothing = 0,
			ParametricDarks = 25,
			ParametricHighlightSplit = 75,
			ParametricHighlights = 0,
			ParametricLights = 15,
			ParametricMidtoneSplit = 50,
			ParametricShadowSplit = 25,
			ParametricShadows = 25,
			RedEyeInfo = {
			},
			RetouchInfo = {
			},
			Shadows = 5,
			SharpenDetail = 53,
			SharpenEdgeMasking = 0,
			SharpenRadius = 2,
			Sharpness = 125,
			SplitToningBalance = 0,
			SplitToningHighlightHue = 0,
			SplitToningHighlightSaturation = 0,
			SplitToningShadowHue = 0,
			SplitToningShadowSaturation = 0,
			ToneCurve = {
				0,
				0,
				32,
				22,
				64,
				56,
				128,
				128,
				192,
				196,
				255,
				255,
			},
			ToneCurveName = "Medium Contrast",
			VignetteAmount = 0,
			VignetteMidpoint = 50,
		},
		uuid = "463AFE36-084C-4F2B-805D-357F39266047",
	},
	version = 0,
}
