NV Color RAW Presets Lightroom/NV Spotlight Dramatic.lrtemplate
s = {
	internalName = "Color mare",
	title = "NV Spotlight Dramatic",
	type = "Develop",
	value = {
		settings = {
			AutoBrightness = false,
			AutoContrast = false,
			AutoExposure = false,
			AutoShadows = false,
			BlueHue = 0,
			BlueSaturation = 0,
			Brightness = 65,
			CameraProfile = "ACR 3.3",
			ChromaticAberrationB = 0,
			ChromaticAberrationR = 0,
			Clarity = 0,
			ColorNoiseReduction = 25,
			Contrast = 19,
			ConvertToGrayscale = false,
			Defringe = 0,
			EnableCalibration = true,
			EnableColorAdjustments = true,
			EnableDetail = true,
			EnableGrayscaleMix = true,
			EnableLensCorrections = true,
			EnableSplitToning = true,
			Exposure = 0.14,
			FillLight = 31,
			GreenHue = 0,
			GreenSaturation = 0,
			HighlightRecovery = 14,
			HueAdjustmentAqua = 0,
			HueAdjustmentBlue = 0,
			HueAdjustmentGreen = 0,
			HueAdjustmentMagenta = 0,
			HueAdjustmentOrange = 0,
			HueAdjustmentPurple = 0,
			HueAdjustmentRed = 0,
			HueAdjustmentYellow = 0,
			LuminanceAdjustmentAqua = 0,
			LuminanceAdjustmentBlue = 0,
			LuminanceAdjustmentGreen = 0,
			LuminanceAdjustmentMagenta = 0,
			LuminanceAdjustmentOrange = 6,
			LuminanceAdjustmentPurple = 0,
			LuminanceAdjustmentRed = 4,
			LuminanceAdjustmentYellow = 0,
			LuminanceSmoothing = 0,
			ParametricDarks = -15,
			ParametricHighlightSplit = 75,
			ParametricHighlights = 1,
			ParametricLights = 20,
			ParametricMidtoneSplit = 50,
			ParametricShadowSplit = 25,
			ParametricShadows = -20,
			RedHue = 0,
			RedSaturation = 0,
			Saturation = 0,
			SaturationAdjustmentAqua = 8,
			SaturationAdjustmentBlue = 0,
			SaturationAdjustmentGreen = 20,
			SaturationAdjustmentMagenta = 0,
			SaturationAdjustmentOrange = -22,
			SaturationAdjustmentPurple = 0,
			SaturationAdjustmentRed = -8,
			SaturationAdjustmentYellow = 0,
			ShadowTint = 0,
			Shadows = 11,
			SharpenDetail = 25,
			SharpenEdgeMasking = 0,
			SharpenRadius = 1,
			Sharpness = 34,
			SplitToningBalance = 0,
			SplitToningHighlightHue = 0,
			SplitToningHighlightSaturation = 0,
			SplitToningShadowHue = 0,
			SplitToningShadowSaturation = 0,
			ToneCurve = {
				0,
				0,
				32,
				22,
				64,
				56,
				128,
				128,
				192,
				196,
				255,
				255,
			},
			ToneCurveName = "Medium Contrast",
			Vibrance = 0,
			VignetteAmount = -100,
			VignetteMidpoint = 0,
		},
		uuid = "5D415E3E-E1CA-4CE8-B9D1-82CA1DC7B403",
	},
	version = 0,
}
