NV Color RAW Presets Lightroom/NV Washed.lrtemplate
s = {
	internalName = "Color:  washed",
	title = "NV Washed",
	type = "Develop",
	value = {
		settings = {
			AutoBrightness = false,
			AutoContrast = false,
			AutoExposure = false,
			AutoShadows = false,
			BlueHue = 0,
			BlueSaturation = 0,
			Brightness = 65,
			CameraProfile = "ACR 3.3",
			ChromaticAberrationB = 0,
			ChromaticAberrationR = 0,
			Clarity = 0,
			ColorNoiseReduction = 25,
			Contrast = 8,
			ConvertToGrayscale = false,
			Defringe = 0,
			EnableCalibration = true,
			EnableColorAdjustments = true,
			EnableDetail = true,
			EnableGrayscaleMix = true,
			EnableLensCorrections = true,
			EnableSplitToning = true,
			Exposure = 0.14,
			FillLight = 25,
			GreenHue = 0,
			GreenSaturation = 0,
			HighlightRecovery = 14,
			HueAdjustmentAqua = 0,
			HueAdjustmentBlue = 0,
			HueAdjustmentGreen = 0,
			HueAdjustmentMagenta = 0,
			HueAdjustmentOrange = 0,
			HueAdjustmentPurple = 0,
			HueAdjustmentRed = 0,
			HueAdjustmentYellow = 0,
			LuminanceAdjustmentAqua = 34,
			LuminanceAdjustmentBlue = 34,
			LuminanceAdjustmentGreen = 0,
			LuminanceAdjustmentMagenta = 13,
			LuminanceAdjustmentOrange = 6,
			LuminanceAdjustmentPurple = 0,
			LuminanceAdjustmentRed = 55,
			LuminanceAdjustmentYellow = -39,
			LuminanceSmoothing = 0,
			ParametricDarks = -15,
			ParametricHighlightSplit = 75,
			ParametricHighlights = 1,
			ParametricLights = 20,
			ParametricMidtoneSplit = 50,
			ParametricShadowSplit = 25,
			ParametricShadows = -65,
			RedHue = -1,
			RedSaturation = -1,
			Saturation = -18,
			SaturationAdjustmentAqua = 0,
			SaturationAdjustmentBlue = 0,
			SaturationAdjustmentGreen = 0,
			SaturationAdjustmentMagenta = 0,
			SaturationAdjustmentOrange = 6,
			SaturationAdjustmentPurple = 0,
			SaturationAdjustmentRed = 25,
			SaturationAdjustmentYellow = 0,
			ShadowTint = 0,
			Shadows = 16,
			SharpenDetail = 25,
			SharpenEdgeMasking = 0,
			SharpenRadius = 1,
			Sharpness = 34,
			SplitToningBalance = 0,
			SplitToningHighlightHue = 51,
			SplitToningHighlightSaturation = 18,
			SplitToningShadowHue = 55,
			SplitToningShadowSaturation = 33,
			ToneCurve = {
				0,
				0,
				32,
				22,
				64,
				56,
				128,
				128,
				192,
				196,
				255,
				255,
			},
			ToneCurveName = "Medium Contrast",
			Vibrance = -4,
			VignetteAmount = -84,
			VignetteMidpoint = 61,
		},
		uuid = "D80FB298-09D7-4325-9104-74C19EE668A5",
	},
	version = 0,
}
